/* XPM */
static char * PixelTexture (19)_xpm[] = {
"180 180 693 2",
"  	c #383629",
". 	c #726C5E",
"+ 	c #7A7562",
"@ 	c #89836D",
"# 	c #6F6655",
"$ 	c #786F5E",
"% 	c #88816E",
"& 	c #9F9983",
"* 	c #797061",
"= 	c #8B8370",
"- 	c #A59D88",
"; 	c #756C5B",
"> 	c #797260",
", 	c #8B8376",
"' 	c #322C20",
") 	c #333027",
"! 	c #70665A",
"~ 	c #8D8570",
"{ 	c #89816C",
"] 	c #77705D",
"^ 	c #8A846C",
"/ 	c #8B8471",
"( 	c #7B7461",
"_ 	c #7A7361",
": 	c #8E8673",
"< 	c #88836F",
"[ 	c #797460",
"} 	c #6C6552",
"| 	c #A8A089",
"1 	c #908A7C",
"2 	c #3C332C",
"3 	c #6F6A54",
"4 	c #A19879",
"5 	c #797053",
"6 	c #746E54",
"7 	c #786D57",
"8 	c #675C46",
"9 	c #8C8068",
"0 	c #8E8469",
"a 	c #787059",
"b 	c #777056",
"c 	c #8C8569",
"d 	c #746953",
"e 	c #625B48",
"f 	c #645D4D",
"g 	c #484033",
"h 	c #4F4F33",
"i 	c #807F61",
"j 	c #79715C",
"k 	c #635B46",
"l 	c #7C755B",
"m 	c #726C54",
"n 	c #7B7458",
"o 	c #716A50",
"p 	c #645B4A",
"q 	c #766C51",
"r 	c #898467",
"s 	c #8C8568",
"t 	c #68624C",
"u 	c #574F42",
"v 	c #8B8670",
"w 	c #8E8568",
"x 	c #8D8467",
"y 	c #736B54",
"z 	c #716C4F",
"A 	c #746852",
"B 	c #71674C",
"C 	c #72684D",
"D 	c #736950",
"E 	c #736852",
"F 	c #756951",
"G 	c #776855",
"H 	c #706A54",
"I 	c #504937",
"J 	c #66644B",
"K 	c #8D866A",
"L 	c #70664B",
"M 	c #736C50",
"N 	c #746A51",
"O 	c #50652D",
"P 	c #786858",
"Q 	c #726751",
"R 	c #6F644E",
"S 	c #746D51",
"T 	c #746C55",
"U 	c #59503F",
"V 	c #A59E84",
"W 	c #6D664A",
"X 	c #766A52",
"Y 	c #556630",
"Z 	c #526633",
"` 	c #746754",
" .	c #5B533E",
"..	c #716A4D",
"+.	c #6E6B48",
"@.	c #58662B",
"#.	c #7A7C4D",
"$.	c #544C39",
"%.	c #948D73",
"&.	c #91866A",
"*.	c #554D3A",
"=.	c #736757",
"-.	c #546433",
";.	c #746756",
">.	c #776853",
",.	c #74684E",
"'.	c #74813B",
").	c #736856",
"!.	c #5C513D",
"~.	c #75694F",
"{.	c #566234",
"].	c #5E533D",
"^.	c #5C513F",
"/.	c #5B4F41",
"(.	c #59653D",
"_.	c #71823E",
":.	c #91984A",
"<.	c #6F684C",
"[.	c #716954",
"}.	c #5A543E",
"|.	c #51642D",
"1.	c #949945",
"2.	c #8F886B",
"3.	c #716952",
"4.	c #59533D",
"5.	c #706C4F",
"6.	c #4A4E29",
"7.	c #37351E",
"8.	c #484929",
"9.	c #576333",
"0.	c #424E1E",
"a.	c #999F55",
"b.	c #716A4E",
"c.	c #4B4D26",
"d.	c #556831",
"e.	c #716C4E",
"f.	c #5A5340",
"g.	c #718138",
"h.	c #878264",
"i.	c #546730",
"j.	c #55692A",
"k.	c #748541",
"l.	c #556A29",
"m.	c #6C7D39",
"n.	c #363320",
"o.	c #5A6636",
"p.	c #5A5337",
"q.	c #536830",
"r.	c #707F3C",
"s.	c #54652F",
"t.	c #4B4D28",
"u.	c #48501F",
"v.	c #546632",
"w.	c #55692C",
"x.	c #737F3F",
"y.	c #4D4B25",
"z.	c #4A4E2D",
"A.	c #3B431A",
"B.	c #495122",
"C.	c #55612F",
"D.	c #728140",
"E.	c #555435",
"F.	c #58513E",
"G.	c #58513F",
"H.	c #4C4C26",
"I.	c #727F39",
"J.	c #526432",
"K.	c #55503A",
"L.	c #494D28",
"M.	c #4B4C2A",
"N.	c #55533C",
"O.	c #5A6239",
"P.	c #3A341C",
"Q.	c #3C382C",
"R.	c #39341E",
"S.	c #574B3D",
"T.	c #536736",
"U.	c #526430",
"V.	c #484F25",
"W.	c #59523F",
"X.	c #4C4E27",
"Y.	c #4C4E29",
"Z.	c #5A5339",
"`.	c #776A57",
" +	c #3C3523",
".+	c #3F3724",
"++	c #3A361B",
"@+	c #3A361D",
"#+	c #373421",
"$+	c #3B351D",
"%+	c #37351C",
"&+	c #393421",
"*+	c #4C4E26",
"=+	c #3A3320",
"-+	c #3A351F",
";+	c #3E331F",
">+	c #3A3321",
",+	c #3E3727",
"'+	c #423C2C",
")+	c #403726",
"!+	c #3A321D",
"~+	c #3C361E",
"{+	c #3C3522",
"]+	c #3C3620",
"^+	c #3D361C",
"/+	c #3D3624",
"(+	c #566433",
"_+	c #403B28",
":+	c #3B331E",
"<+	c #3A3E19",
"[+	c #525633",
"}+	c #483C30",
"|+	c #403728",
"1+	c #38321A",
"2+	c #3D371D",
"3+	c #413924",
"4+	c #433A29",
"5+	c #39331D",
"6+	c #576335",
"7+	c #484D25",
"8+	c #42392A",
"9+	c #433623",
"0+	c #39311A",
"a+	c #433B28",
"b+	c #8D8874",
"c+	c #71674E",
"d+	c #AAA087",
"e+	c #91886B",
"f+	c #72684F",
"g+	c #8F856C",
"h+	c #AAA180",
"i+	c #908768",
"j+	c #352F17",
"k+	c #37301D",
"l+	c #393420",
"m+	c #36301A",
"n+	c #2F2609",
"o+	c #A89F82",
"p+	c #8F8669",
"q+	c #A49B7E",
"r+	c #746A4F",
"s+	c #8C8267",
"t+	c #3D3121",
"u+	c #3C3324",
"v+	c #2F3513",
"w+	c #524B31",
"x+	c #72694C",
"y+	c #8D8368",
"z+	c #AAA184",
"A+	c #A59B80",
"B+	c #716C58",
"C+	c #6C614B",
"D+	c #564F3C",
"E+	c #38331F",
"F+	c #868060",
"G+	c #82785D",
"H+	c #80765D",
"I+	c #73694E",
"J+	c #847A5F",
"K+	c #6B604A",
"L+	c #5A523F",
"M+	c #505535",
"N+	c #524735",
"O+	c #9D9473",
"P+	c #847963",
"Q+	c #837960",
"R+	c #757B55",
"S+	c #6F6A4C",
"T+	c #746850",
"U+	c #5E533F",
"V+	c #57513B",
"W+	c #717749",
"X+	c #403428",
"Y+	c #7A6A51",
"Z+	c #8F846E",
"`+	c #6B6C4A",
" @	c #666843",
".@	c #706853",
"+@	c #545F37",
"@@	c #A2997C",
"#@	c #736854",
"$@	c #6F6A4D",
"%@	c #61633E",
"&@	c #716C56",
"*@	c #8D836A",
"=@	c #5B533C",
"-@	c #576532",
";@	c #4C4C2A",
">@	c #3B3320",
",@	c #566335",
"'@	c #4D4924",
")@	c #726B51",
"!@	c #5F613A",
"~@	c #6F6C4D",
"{@	c #5A523D",
"]@	c #73674F",
"^@	c #5A6835",
"/@	c #58523A",
"(@	c #5C4F3F",
"_@	c #484F23",
":@	c #556234",
"<@	c #747D46",
"[@	c #746D53",
"}@	c #555136",
"|@	c #676B48",
"1@	c #706B4E",
"2@	c #576534",
"3@	c #989F4F",
"4@	c #36361C",
"5@	c #59663A",
"6@	c #475021",
"7@	c #5A6338",
"8@	c #575431",
"9@	c #72704A",
"0@	c #5A5E39",
"a@	c #6B6B47",
"b@	c #545337",
"c@	c #5B503E",
"d@	c #39351A",
"e@	c #53682F",
"f@	c #596533",
"g@	c #979852",
"h@	c #574F38",
"i@	c #8C856B",
"j@	c #535736",
"k@	c #5A6441",
"l@	c #575338",
"m@	c #57523C",
"n@	c #4D4A29",
"o@	c #576B30",
"p@	c #707F3A",
"q@	c #59583A",
"r@	c #494D1B",
"s@	c #36361E",
"t@	c #36361A",
"u@	c #383419",
"v@	c #4A5022",
"w@	c #7B7E4F",
"x@	c #5F593F",
"y@	c #949559",
"z@	c #52511B",
"A@	c #767E42",
"B@	c #576831",
"C@	c #727C3D",
"D@	c #4C4F24",
"E@	c #53662F",
"F@	c #878262",
"G@	c #516830",
"H@	c #556536",
"I@	c #72823B",
"J@	c #54682B",
"K@	c #727946",
"L@	c #5A5444",
"M@	c #777F46",
"N@	c #56682C",
"O@	c #53682D",
"P@	c #5B503C",
"Q@	c #40332A",
"R@	c #41372B",
"S@	c #3F3627",
"T@	c #3A341A",
"U@	c #3A341E",
"V@	c #3F3826",
"W@	c #2C2F12",
"X@	c #526933",
"Y@	c #505B30",
"Z@	c #4A5024",
"`@	c #444A1C",
" #	c #4A5125",
".#	c #536332",
"+#	c #4F662E",
"@#	c #32341E",
"##	c #31301B",
"$#	c #4A4A26",
"%#	c #5B4D40",
"&#	c #3B341A",
"*#	c #464F22",
"=#	c #4A4F26",
"-#	c #484E22",
";#	c #373423",
">#	c #4F4E2F",
",#	c #494E26",
"'#	c #464C1E",
")#	c #39351C",
"!#	c #536929",
"~#	c #3F3631",
"{#	c #3F3828",
"]#	c #41372D",
"^#	c #40362C",
"/#	c #36311D",
"(#	c #38361F",
"_#	c #38311F",
":#	c #3F3529",
"<#	c #3F3325",
"[#	c #36341B",
"}#	c #34321B",
"|#	c #3B3422",
"1#	c #43352A",
"2#	c #51692B",
"3#	c #43342F",
"4#	c #42382E",
"5#	c #40362D",
"6#	c #42362A",
"7#	c #3D371F",
"8#	c #3A3521",
"9#	c #3D3727",
"0#	c #413829",
"a#	c #A59C7B",
"b#	c #8F856A",
"c#	c #8D8465",
"d#	c #A89D7D",
"e#	c #8F836B",
"f#	c #A69D7E",
"g#	c #ABA285",
"h#	c #7E735D",
"i#	c #595A3A",
"j#	c #383B1E",
"k#	c #6C644D",
"l#	c #90876A",
"m#	c #A89F7E",
"n#	c #A59C7D",
"o#	c #8C876A",
"p#	c #8F896F",
"q#	c #3B3421",
"r#	c #726D59",
"s#	c #A99E82",
"t#	c #8F8468",
"u#	c #716B4B",
"v#	c #70664D",
"w#	c #8C8366",
"x#	c #6F6452",
"y#	c #515031",
"z#	c #726D4F",
"A#	c #ACA185",
"B#	c #8F8369",
"C#	c #6E684E",
"D#	c #726D57",
"E#	c #756B50",
"F#	c #6D6D4B",
"G#	c #767E43",
"H#	c #736A4D",
"I#	c #726A53",
"J#	c #443B2A",
"K#	c #A69F82",
"L#	c #8A8663",
"M#	c #545536",
"N#	c #706A50",
"O#	c #6F6C49",
"P#	c #5D5540",
"Q#	c #3B351F",
"R#	c #A4A385",
"S#	c #898265",
"T#	c #5D633F",
"U#	c #706A52",
"V#	c #6E7049",
"W#	c #6E6F4D",
"X#	c #6F6E4F",
"Y#	c #706851",
"Z#	c #5B503A",
"`#	c #6C7149",
" $	c #4C4D25",
".$	c #71714F",
"+$	c #696447",
"@$	c #413F28",
"#$	c #4A4C27",
"$$	c #7A8050",
"%$	c #726B4F",
"&$	c #6C6F42",
"*$	c #5B6038",
"=$	c #6B7048",
"-$	c #6C6E46",
";$	c #787A49",
">$	c #6E704B",
",$	c #716956",
"'$	c #6B6C42",
")$	c #898268",
"!$	c #59583C",
"~$	c #5F663D",
"{$	c #636B3C",
"]$	c #827F4A",
"^$	c #656839",
"/$	c #5B5D38",
"($	c #617633",
"_$	c #585C3B",
":$	c #637231",
"<$	c #62693D",
"[$	c #545A36",
"}$	c #68663F",
"|$	c #565C36",
"1$	c #5B6830",
"2$	c #576438",
"3$	c #575137",
"4$	c #454C23",
"5$	c #676944",
"6$	c #6C6646",
"7$	c #585D3D",
"8$	c #627234",
"9$	c #555D38",
"0$	c #626643",
"a$	c #617132",
"b$	c #575A3B",
"c$	c #555D36",
"d$	c #727347",
"e$	c #545C35",
"f$	c #67753A",
"g$	c #525D35",
"h$	c #4F562D",
"i$	c #3D3B24",
"j$	c #464D24",
"k$	c #484D17",
"l$	c #474E18",
"m$	c #555637",
"n$	c #546628",
"o$	c #5B5243",
"p$	c #71803B",
"q$	c #424E20",
"r$	c #303517",
"s$	c #4D4C2E",
"t$	c #32370F",
"u$	c #32351A",
"v$	c #353B19",
"w$	c #313117",
"x$	c #343516",
"y$	c #4B4D25",
"z$	c #48501D",
"A$	c #434E24",
"B$	c #5D653C",
"C$	c #545631",
"D$	c #445125",
"E$	c #939B52",
"F$	c #474C23",
"G$	c #353416",
"H$	c #3C431A",
"I$	c #3C392A",
"J$	c #37321E",
"K$	c #393617",
"L$	c #37361A",
"M$	c #38331D",
"N$	c #343815",
"O$	c #352F21",
"P$	c #353914",
"Q$	c #37321C",
"R$	c #3C3928",
"S$	c #3F372A",
"T$	c #3E3621",
"U$	c #40372E",
"V$	c #403929",
"W$	c #45402A",
"X$	c #3E4221",
"Y$	c #3B3623",
"Z$	c #433727",
"`$	c #40382D",
" %	c #3B3622",
".%	c #4B5123",
"+%	c #37371D",
"@%	c #352F15",
"#%	c #3F3720",
"$%	c #3B3620",
"%%	c #89846E",
"&%	c #6E674D",
"*%	c #8E8566",
"=%	c #8A8367",
"-%	c #3C3525",
";%	c #556737",
">%	c #483E32",
",%	c #A69B7D",
"'%	c #756B52",
")%	c #8A8162",
"!%	c #A49B7C",
"~%	c #A69C81",
"{%	c #8A8366",
"]%	c #8D8868",
"^%	c #403927",
"/%	c #4D4F28",
"(%	c #A99F84",
"_%	c #A3997E",
":%	c #A49B7A",
"<%	c #8B8263",
"[%	c #3D352A",
"}%	c #52672C",
"|%	c #8C8269",
"1%	c #484D24",
"2%	c #595240",
"3%	c #564E3B",
"4%	c #40362A",
"5%	c #969C52",
"6%	c #716C44",
"7%	c #6F694F",
"8%	c #71813A",
"9%	c #57503D",
"0%	c #6F6D47",
"a%	c #787B44",
"b%	c #73733F",
"c%	c #717445",
"d%	c #74694D",
"e%	c #59513C",
"f%	c #59513E",
"g%	c #A59D78",
"h%	c #73823F",
"i%	c #554F39",
"j%	c #716E43",
"k%	c #57683B",
"l%	c #919C50",
"m%	c #8C895E",
"n%	c #55672D",
"o%	c #736C52",
"p%	c #766E57",
"q%	c #5D523E",
"r%	c #3C3B1F",
"s%	c #536531",
"t%	c #5D5240",
"u%	c #786A4D",
"v%	c #6E6651",
"w%	c #716451",
"x%	c #767A48",
"y%	c #6D6B44",
"z%	c #615946",
"A%	c #747E3F",
"B%	c #8E8662",
"C%	c #574F3A",
"D%	c #3C352B",
"E%	c #8D8264",
"F%	c #8D8266",
"G%	c #6C6946",
"H%	c #5B6439",
"I%	c #736B56",
"J%	c #584D3B",
"K%	c #6C6C4A",
"L%	c #778041",
"M%	c #4B4F2A",
"N%	c #9A9956",
"O%	c #726F50",
"P%	c #696943",
"Q%	c #646B41",
"R%	c #6A6C45",
"S%	c #5C6139",
"T%	c #84845E",
"U%	c #776D54",
"V%	c #4F692C",
"W%	c #525037",
"X%	c #5B553F",
"Y%	c #717C3A",
"Z%	c #726B4E",
"`%	c #5B553D",
" &	c #555436",
".&	c #867F62",
"+&	c #7C8159",
"@&	c #59672C",
"#&	c #505433",
"$&	c #585437",
"%&	c #59533B",
"&&	c #323717",
"*&	c #343515",
"=&	c #4D4D29",
"-&	c #4E502B",
";&	c #586434",
">&	c #778248",
",&	c #586436",
"'&	c #50582F",
")&	c #6F7947",
"!&	c #585931",
"~&	c #5C5441",
"{&	c #586635",
"]&	c #7A814B",
"^&	c #5A6638",
"/&	c #3A3B1C",
"(&	c #586539",
"_&	c #566337",
":&	c #797F4F",
"<&	c #56652C",
"[&	c #636D38",
"}&	c #5C5447",
"|&	c #4D482A",
"1&	c #989757",
"2&	c #607043",
"3&	c #556332",
"4&	c #494F2B",
"5&	c #4D4D2B",
"6&	c #55643B",
"7&	c #546437",
"8&	c #43362D",
"9&	c #3C3421",
"0&	c #4B4A2E",
"a&	c #423928",
"b&	c #5B5442",
"c&	c #4C4A31",
"d&	c #484E28",
"e&	c #3F3825",
"f&	c #5B5340",
"g&	c #5A6334",
"h&	c #5B5839",
"i&	c #91945B",
"j&	c #504E35",
"          . . . . . . + + + + + + @ @ @ @ @ @ # # # # # # $ $ $ $ $ % % % % % % & & & & & & * * * * * * = = = = = = - - - - - ; ; ; ; ; ; > > > > > > , , , , , , ' ' ' ' ' ' ) ) ) ) ) ! ! ! ! ! ! ~ ~ ~ ~ ~ ~ { { { { { { ] ] ] ] ] ] ^ ^ ^ ^ ^ / / / / / / ( ( ( ( ( ( _ _ _ _ _ _ : : : : : : < < < < < [ [ [ [ [ [ } } } } } } | | | | | | 1 1 1 1 1 1 2 2 2 2 2 2 ",
"          . . . . . . + + + + + + @ @ @ @ @ @ # # # # # # $ $ $ $ $ % % % % % % & & & & & & * * * * * * = = = = = = - - - - - ; ; ; ; ; ; > > > > > > , , , , , , ' ' ' ' ' ' ) ) ) ) ) ! ! ! ! ! ! ~ ~ ~ ~ ~ ~ { { { { { { ] ] ] ] ] ] ^ ^ ^ ^ ^ / / / / / / ( ( ( ( ( ( _ _ _ _ _ _ : : : : : : < < < < < [ [ [ [ [ [ } } } } } } | | | | | | 1 1 1 1 1 1 2 2 2 2 2 2 ",
"          . . . . . . + + + + + + @ @ @ @ @ @ # # # # # # $ $ $ $ $ % % % % % % & & & & & & * * * * * * = = = = = = - - - - - ; ; ; ; ; ; > > > > > > , , , , , , ' ' ' ' ' ' ) ) ) ) ) ! ! ! ! ! ! ~ ~ ~ ~ ~ ~ { { { { { { ] ] ] ] ] ] ^ ^ ^ ^ ^ / / / / / / ( ( ( ( ( ( _ _ _ _ _ _ : : : : : : < < < < < [ [ [ [ [ [ } } } } } } | | | | | | 1 1 1 1 1 1 2 2 2 2 2 2 ",
"          . . . . . . + + + + + + @ @ @ @ @ @ # # # # # # $ $ $ $ $ % % % % % % & & & & & & * * * * * * = = = = = = - - - - - ; ; ; ; ; ; > > > > > > , , , , , , ' ' ' ' ' ' ) ) ) ) ) ! ! ! ! ! ! ~ ~ ~ ~ ~ ~ { { { { { { ] ] ] ] ] ] ^ ^ ^ ^ ^ / / / / / / ( ( ( ( ( ( _ _ _ _ _ _ : : : : : : < < < < < [ [ [ [ [ [ } } } } } } | | | | | | 1 1 1 1 1 1 2 2 2 2 2 2 ",
"          . . . . . . + + + + + + @ @ @ @ @ @ # # # # # # $ $ $ $ $ % % % % % % & & & & & & * * * * * * = = = = = = - - - - - ; ; ; ; ; ; > > > > > > , , , , , , ' ' ' ' ' ' ) ) ) ) ) ! ! ! ! ! ! ~ ~ ~ ~ ~ ~ { { { { { { ] ] ] ] ] ] ^ ^ ^ ^ ^ / / / / / / ( ( ( ( ( ( _ _ _ _ _ _ : : : : : : < < < < < [ [ [ [ [ [ } } } } } } | | | | | | 1 1 1 1 1 1 2 2 2 2 2 2 ",
"3 3 3 3 3 4 4 4 4 4 4 5 5 5 5 5 5 6 6 6 6 6 6 7 7 7 7 7 7 8 8 8 8 8 9 9 9 9 9 9 0 0 0 0 0 0 a a a a a a b b b b b b c c c c c d d d d d d e e e e e e f f f f f f g g g g g g h h h h h i i i i i i j j j j j j k k k k k k l l l l l l m m m m m e e e e e e n n n n n n o o o o o o p p p p p p q q q q q q q q q q q r r r r r r s s s s s s t t t t t t u u u u u u ",
"3 3 3 3 3 4 4 4 4 4 4 5 5 5 5 5 5 6 6 6 6 6 6 7 7 7 7 7 7 8 8 8 8 8 9 9 9 9 9 9 0 0 0 0 0 0 a a a a a a b b b b b b c c c c c d d d d d d e e e e e e f f f f f f g g g g g g h h h h h i i i i i i j j j j j j k k k k k k l l l l l l m m m m m e e e e e e n n n n n n o o o o o o p p p p p p q q q q q q q q q q q r r r r r r s s s s s s t t t t t t u u u u u u ",
"3 3 3 3 3 4 4 4 4 4 4 5 5 5 5 5 5 6 6 6 6 6 6 7 7 7 7 7 7 8 8 8 8 8 9 9 9 9 9 9 0 0 0 0 0 0 a a a a a a b b b b b b c c c c c d d d d d d e e e e e e f f f f f f g g g g g g h h h h h i i i i i i j j j j j j k k k k k k l l l l l l m m m m m e e e e e e n n n n n n o o o o o o p p p p p p q q q q q q q q q q q r r r r r r s s s s s s t t t t t t u u u u u u ",
"3 3 3 3 3 4 4 4 4 4 4 5 5 5 5 5 5 6 6 6 6 6 6 7 7 7 7 7 7 8 8 8 8 8 9 9 9 9 9 9 0 0 0 0 0 0 a a a a a a b b b b b b c c c c c d d d d d d e e e e e e f f f f f f g g g g g g h h h h h i i i i i i j j j j j j k k k k k k l l l l l l m m m m m e e e e e e n n n n n n o o o o o o p p p p p p q q q q q q q q q q q r r r r r r s s s s s s t t t t t t u u u u u u ",
"3 3 3 3 3 4 4 4 4 4 4 5 5 5 5 5 5 6 6 6 6 6 6 7 7 7 7 7 7 8 8 8 8 8 9 9 9 9 9 9 0 0 0 0 0 0 a a a a a a b b b b b b c c c c c d d d d d d e e e e e e f f f f f f g g g g g g h h h h h i i i i i i j j j j j j k k k k k k l l l l l l m m m m m e e e e e e n n n n n n o o o o o o p p p p p p q q q q q q q q q q q r r r r r r s s s s s s t t t t t t u u u u u u ",
"3 3 3 3 3 4 4 4 4 4 4 5 5 5 5 5 5 6 6 6 6 6 6 7 7 7 7 7 7 8 8 8 8 8 9 9 9 9 9 9 0 0 0 0 0 0 a a a a a a b b b b b b c c c c c d d d d d d e e e e e e f f f f f f g g g g g g h h h h h i i i i i i j j j j j j k k k k k k l l l l l l m m m m m e e e e e e n n n n n n o o o o o o p p p p p p q q q q q q q q q q q r r r r r r s s s s s s t t t t t t u u u u u u ",
"v v v v v w w w w w w x x x x x x y y y y y y z z z z z z A A A A A B B B B B B C C C C C C D D D D D D E E E E E E C C C C C F F F F F F G G G G G G H H H H H H I I I I I I J J J J J K K K K K K L L L L L L C C C C C C M M M M M M D D D D D N N N N N N O O O O O O P P P P P P D D D D D D Q Q Q Q Q E E E E E E R R R R R R S S S S S S T T T T T T U U U U U U ",
"v v v v v w w w w w w x x x x x x y y y y y y z z z z z z A A A A A B B B B B B C C C C C C D D D D D D E E E E E E C C C C C F F F F F F G G G G G G H H H H H H I I I I I I J J J J J K K K K K K L L L L L L C C C C C C M M M M M M D D D D D N N N N N N O O O O O O P P P P P P D D D D D D Q Q Q Q Q E E E E E E R R R R R R S S S S S S T T T T T T U U U U U U ",
"v v v v v w w w w w w x x x x x x y y y y y y z z z z z z A A A A A B B B B B B C C C C C C D D D D D D E E E E E E C C C C C F F F F F F G G G G G G H H H H H H I I I I I I J J J J J K K K K K K L L L L L L C C C C C C M M M M M M D D D D D N N N N N N O O O O O O P P P P P P D D D D D D Q Q Q Q Q E E E E E E R R R R R R S S S S S S T T T T T T U U U U U U ",
"v v v v v w w w w w w x x x x x x y y y y y y z z z z z z A A A A A B B B B B B C C C C C C D D D D D D E E E E E E C C C C C F F F F F F G G G G G G H H H H H H I I I I I I J J J J J K K K K K K L L L L L L C C C C C C M M M M M M D D D D D N N N N N N O O O O O O P P P P P P D D D D D D Q Q Q Q Q E E E E E E R R R R R R S S S S S S T T T T T T U U U U U U ",
"v v v v v w w w w w w x x x x x x y y y y y y z z z z z z A A A A A B B B B B B C C C C C C D D D D D D E E E E E E C C C C C F F F F F F G G G G G G H H H H H H I I I I I I J J J J J K K K K K K L L L L L L C C C C C C M M M M M M D D D D D N N N N N N O O O O O O P P P P P P D D D D D D Q Q Q Q Q E E E E E E R R R R R R S S S S S S T T T T T T U U U U U U ",
"v v v v v w w w w w w x x x x x x y y y y y y z z z z z z A A A A A B B B B B B C C C C C C D D D D D D E E E E E E C C C C C F F F F F F G G G G G G H H H H H H I I I I I I J J J J J K K K K K K L L L L L L C C C C C C M M M M M M D D D D D N N N N N N O O O O O O P P P P P P D D D D D D Q Q Q Q Q E E E E E E R R R R R R S S S S S S T T T T T T U U U U U U ",
"V V V V V W W W W W W X X X X X X Y Y Y Y Y Y N N N N N N Z Z Z Z Z C C C C C C D D D D D D ` ` ` ` ` `  . . . . . ...........+.+.+.+.+.+.@.@.@.@.@.@.#.#.#.#.#.#.$.$.$.$.$.$.%.%.%.%.%.&.&.&.&.&.&.*.*.*.*.*.*.=.=.=.=.=.=.-.-.-.-.-.-.;.;.;.;.;.>.>.>.>.>.>.,.,.,.,.,.,.'.'.'.'.'.'.).).).).).).!.!.!.!.!.~.~.~.~.~.~.{.{.{.{.{.{.].].].].].].^.^.^.^.^.^././././././.",
"V V V V V W W W W W W X X X X X X Y Y Y Y Y Y N N N N N N Z Z Z Z Z C C C C C C D D D D D D ` ` ` ` ` `  . . . . . ...........+.+.+.+.+.+.@.@.@.@.@.@.#.#.#.#.#.#.$.$.$.$.$.$.%.%.%.%.%.&.&.&.&.&.&.*.*.*.*.*.*.=.=.=.=.=.=.-.-.-.-.-.-.;.;.;.;.;.>.>.>.>.>.>.,.,.,.,.,.,.'.'.'.'.'.'.).).).).).).!.!.!.!.!.~.~.~.~.~.~.{.{.{.{.{.{.].].].].].].^.^.^.^.^.^././././././.",
"V V V V V W W W W W W X X X X X X Y Y Y Y Y Y N N N N N N Z Z Z Z Z C C C C C C D D D D D D ` ` ` ` ` `  . . . . . ...........+.+.+.+.+.+.@.@.@.@.@.@.#.#.#.#.#.#.$.$.$.$.$.$.%.%.%.%.%.&.&.&.&.&.&.*.*.*.*.*.*.=.=.=.=.=.=.-.-.-.-.-.-.;.;.;.;.;.>.>.>.>.>.>.,.,.,.,.,.,.'.'.'.'.'.'.).).).).).).!.!.!.!.!.~.~.~.~.~.~.{.{.{.{.{.{.].].].].].].^.^.^.^.^.^././././././.",
"V V V V V W W W W W W X X X X X X Y Y Y Y Y Y N N N N N N Z Z Z Z Z C C C C C C D D D D D D ` ` ` ` ` `  . . . . . ...........+.+.+.+.+.+.@.@.@.@.@.@.#.#.#.#.#.#.$.$.$.$.$.$.%.%.%.%.%.&.&.&.&.&.&.*.*.*.*.*.*.=.=.=.=.=.=.-.-.-.-.-.-.;.;.;.;.;.>.>.>.>.>.>.,.,.,.,.,.,.'.'.'.'.'.'.).).).).).).!.!.!.!.!.~.~.~.~.~.~.{.{.{.{.{.{.].].].].].].^.^.^.^.^.^././././././.",
"V V V V V W W W W W W X X X X X X Y Y Y Y Y Y N N N N N N Z Z Z Z Z C C C C C C D D D D D D ` ` ` ` ` `  . . . . . ...........+.+.+.+.+.+.@.@.@.@.@.@.#.#.#.#.#.#.$.$.$.$.$.$.%.%.%.%.%.&.&.&.&.&.&.*.*.*.*.*.*.=.=.=.=.=.=.-.-.-.-.-.-.;.;.;.;.;.>.>.>.>.>.>.,.,.,.,.,.,.'.'.'.'.'.'.).).).).).).!.!.!.!.!.~.~.~.~.~.~.{.{.{.{.{.{.].].].].].].^.^.^.^.^.^././././././.",
"V V V V V W W W W W W X X X X X X Y Y Y Y Y Y N N N N N N Z Z Z Z Z C C C C C C D D D D D D ` ` ` ` ` `  . . . . . ...........+.+.+.+.+.+.@.@.@.@.@.@.#.#.#.#.#.#.$.$.$.$.$.$.%.%.%.%.%.&.&.&.&.&.&.*.*.*.*.*.*.=.=.=.=.=.=.-.-.-.-.-.-.;.;.;.;.;.>.>.>.>.>.>.,.,.,.,.,.,.'.'.'.'.'.'.).).).).).).!.!.!.!.!.~.~.~.~.~.~.{.{.{.{.{.{.].].].].].].^.^.^.^.^.^././././././.",
"(.(.(.(.(._._._._._._.:.:.:.:.:.:.<.<.<.<.<.<.o o o o o o [.[.[.[.[.}.}.}.}.}.}.|.|.|.|.|.|.1.1.1.1.1.1.2.2.2.2.2.2.3.3.3.3.3.4.4.4.4.4.4.5.5.5.5.5.5.6.6.6.6.6.6.7.7.7.7.7.7.8.8.8.8.8.9.9.9.9.9.9.0.0.0.0.0.0.a.a.a.a.a.a.b.b.b.b.b.b.c.c.c.c.c.d.d.d.d.d.d.e.e.e.e.e.e.f.f.f.f.f.f.g.g.g.g.g.g.h.h.h.h.h.i.i.i.i.i.i.j.j.j.j.j.j.k.k.k.k.k.k.l.l.l.l.l.l.m.m.m.m.m.m.",
"(.(.(.(.(._._._._._._.:.:.:.:.:.:.<.<.<.<.<.<.o o o o o o [.[.[.[.[.}.}.}.}.}.}.|.|.|.|.|.|.1.1.1.1.1.1.2.2.2.2.2.2.3.3.3.3.3.4.4.4.4.4.4.5.5.5.5.5.5.6.6.6.6.6.6.7.7.7.7.7.7.8.8.8.8.8.9.9.9.9.9.9.0.0.0.0.0.0.a.a.a.a.a.a.b.b.b.b.b.b.c.c.c.c.c.d.d.d.d.d.d.e.e.e.e.e.e.f.f.f.f.f.f.g.g.g.g.g.g.h.h.h.h.h.i.i.i.i.i.i.j.j.j.j.j.j.k.k.k.k.k.k.l.l.l.l.l.l.m.m.m.m.m.m.",
"(.(.(.(.(._._._._._._.:.:.:.:.:.:.<.<.<.<.<.<.o o o o o o [.[.[.[.[.}.}.}.}.}.}.|.|.|.|.|.|.1.1.1.1.1.1.2.2.2.2.2.2.3.3.3.3.3.4.4.4.4.4.4.5.5.5.5.5.5.6.6.6.6.6.6.7.7.7.7.7.7.8.8.8.8.8.9.9.9.9.9.9.0.0.0.0.0.0.a.a.a.a.a.a.b.b.b.b.b.b.c.c.c.c.c.d.d.d.d.d.d.e.e.e.e.e.e.f.f.f.f.f.f.g.g.g.g.g.g.h.h.h.h.h.i.i.i.i.i.i.j.j.j.j.j.j.k.k.k.k.k.k.l.l.l.l.l.l.m.m.m.m.m.m.",
"(.(.(.(.(._._._._._._.:.:.:.:.:.:.<.<.<.<.<.<.o o o o o o [.[.[.[.[.}.}.}.}.}.}.|.|.|.|.|.|.1.1.1.1.1.1.2.2.2.2.2.2.3.3.3.3.3.4.4.4.4.4.4.5.5.5.5.5.5.6.6.6.6.6.6.7.7.7.7.7.7.8.8.8.8.8.9.9.9.9.9.9.0.0.0.0.0.0.a.a.a.a.a.a.b.b.b.b.b.b.c.c.c.c.c.d.d.d.d.d.d.e.e.e.e.e.e.f.f.f.f.f.f.g.g.g.g.g.g.h.h.h.h.h.i.i.i.i.i.i.j.j.j.j.j.j.k.k.k.k.k.k.l.l.l.l.l.l.m.m.m.m.m.m.",
"(.(.(.(.(._._._._._._.:.:.:.:.:.:.<.<.<.<.<.<.o o o o o o [.[.[.[.[.}.}.}.}.}.}.|.|.|.|.|.|.1.1.1.1.1.1.2.2.2.2.2.2.3.3.3.3.3.4.4.4.4.4.4.5.5.5.5.5.5.6.6.6.6.6.6.7.7.7.7.7.7.8.8.8.8.8.9.9.9.9.9.9.0.0.0.0.0.0.a.a.a.a.a.a.b.b.b.b.b.b.c.c.c.c.c.d.d.d.d.d.d.e.e.e.e.e.e.f.f.f.f.f.f.g.g.g.g.g.g.h.h.h.h.h.i.i.i.i.i.i.j.j.j.j.j.j.k.k.k.k.k.k.l.l.l.l.l.l.m.m.m.m.m.m.",
"(.(.(.(.(._._._._._._.:.:.:.:.:.:.<.<.<.<.<.<.o o o o o o [.[.[.[.[.}.}.}.}.}.}.|.|.|.|.|.|.1.1.1.1.1.1.2.2.2.2.2.2.3.3.3.3.3.4.4.4.4.4.4.5.5.5.5.5.5.6.6.6.6.6.6.7.7.7.7.7.7.8.8.8.8.8.9.9.9.9.9.9.0.0.0.0.0.0.a.a.a.a.a.a.b.b.b.b.b.b.c.c.c.c.c.d.d.d.d.d.d.e.e.e.e.e.e.f.f.f.f.f.f.g.g.g.g.g.g.h.h.h.h.h.i.i.i.i.i.i.j.j.j.j.j.j.k.k.k.k.k.k.l.l.l.l.l.l.m.m.m.m.m.m.",
"n.n.n.n.n.o.o.o.o.o.o.p.p.p.p.p.p.q.q.q.q.q.q.r.r.r.r.r.r.s.s.s.s.s.t.t.t.t.t.t.u.u.u.u.u.u.v.v.v.v.v.v.w.w.w.w.w.w.x.x.x.x.x.-.-.-.-.-.-.y.y.y.y.y.y.z.z.z.z.z.z.A.A.A.A.A.A.B.B.B.B.B.C.C.C.C.C.C.D.D.D.D.D.D.E.E.E.E.E.E.F.F.F.F.F.F.G.G.G.G.G.H.H.H.H.H.H.I.I.I.I.I.I.F F F F F F J.J.J.J.J.J.K.K.K.K.K.L.L.L.L.L.L.M.M.M.M.M.M.N.N.N.N.N.N.O.O.O.O.O.O.P.P.P.P.P.P.",
"n.n.n.n.n.o.o.o.o.o.o.p.p.p.p.p.p.q.q.q.q.q.q.r.r.r.r.r.r.s.s.s.s.s.t.t.t.t.t.t.u.u.u.u.u.u.v.v.v.v.v.v.w.w.w.w.w.w.x.x.x.x.x.-.-.-.-.-.-.y.y.y.y.y.y.z.z.z.z.z.z.A.A.A.A.A.A.B.B.B.B.B.C.C.C.C.C.C.D.D.D.D.D.D.E.E.E.E.E.E.F.F.F.F.F.F.G.G.G.G.G.H.H.H.H.H.H.I.I.I.I.I.I.F F F F F F J.J.J.J.J.J.K.K.K.K.K.L.L.L.L.L.L.M.M.M.M.M.M.N.N.N.N.N.N.O.O.O.O.O.O.P.P.P.P.P.P.",
"n.n.n.n.n.o.o.o.o.o.o.p.p.p.p.p.p.q.q.q.q.q.q.r.r.r.r.r.r.s.s.s.s.s.t.t.t.t.t.t.u.u.u.u.u.u.v.v.v.v.v.v.w.w.w.w.w.w.x.x.x.x.x.-.-.-.-.-.-.y.y.y.y.y.y.z.z.z.z.z.z.A.A.A.A.A.A.B.B.B.B.B.C.C.C.C.C.C.D.D.D.D.D.D.E.E.E.E.E.E.F.F.F.F.F.F.G.G.G.G.G.H.H.H.H.H.H.I.I.I.I.I.I.F F F F F F J.J.J.J.J.J.K.K.K.K.K.L.L.L.L.L.L.M.M.M.M.M.M.N.N.N.N.N.N.O.O.O.O.O.O.P.P.P.P.P.P.",
"n.n.n.n.n.o.o.o.o.o.o.p.p.p.p.p.p.q.q.q.q.q.q.r.r.r.r.r.r.s.s.s.s.s.t.t.t.t.t.t.u.u.u.u.u.u.v.v.v.v.v.v.w.w.w.w.w.w.x.x.x.x.x.-.-.-.-.-.-.y.y.y.y.y.y.z.z.z.z.z.z.A.A.A.A.A.A.B.B.B.B.B.C.C.C.C.C.C.D.D.D.D.D.D.E.E.E.E.E.E.F.F.F.F.F.F.G.G.G.G.G.H.H.H.H.H.H.I.I.I.I.I.I.F F F F F F J.J.J.J.J.J.K.K.K.K.K.L.L.L.L.L.L.M.M.M.M.M.M.N.N.N.N.N.N.O.O.O.O.O.O.P.P.P.P.P.P.",
"n.n.n.n.n.o.o.o.o.o.o.p.p.p.p.p.p.q.q.q.q.q.q.r.r.r.r.r.r.s.s.s.s.s.t.t.t.t.t.t.u.u.u.u.u.u.v.v.v.v.v.v.w.w.w.w.w.w.x.x.x.x.x.-.-.-.-.-.-.y.y.y.y.y.y.z.z.z.z.z.z.A.A.A.A.A.A.B.B.B.B.B.C.C.C.C.C.C.D.D.D.D.D.D.E.E.E.E.E.E.F.F.F.F.F.F.G.G.G.G.G.H.H.H.H.H.H.I.I.I.I.I.I.F F F F F F J.J.J.J.J.J.K.K.K.K.K.L.L.L.L.L.L.M.M.M.M.M.M.N.N.N.N.N.N.O.O.O.O.O.O.P.P.P.P.P.P.",
"Q.Q.Q.Q.Q.R.R.R.R.R.R.S.S.S.S.S.S.T.T.T.T.T.T.U.U.U.U.U.U.V.V.V.V.V.W.W.W.W.W.W.'.'.'.'.'.'.X.X.X.X.X.X.Y.Y.Y.Y.Y.Y.Z.Z.Z.Z.Z.M.M.M.M.M.M.`.`.`.`.`.`. + + + + + +.+.+.+.+.+.+++++++++++@+@+@+@+@+@+#+#+#+#+#+#+$+$+$+$+$+$+R.R.R.R.R.R.%+%+%+%+%+&+&+&+&+&+&+*+*+*+*+*+*+/./././././.F.F.F.F.F.F.V.V.V.V.V.=+=+=+=+=+=+-+-+-+-+-+-+;+;+;+;+;+;+>+>+>+>+>+>+,+,+,+,+,+,+",
"Q.Q.Q.Q.Q.R.R.R.R.R.R.S.S.S.S.S.S.T.T.T.T.T.T.U.U.U.U.U.U.V.V.V.V.V.W.W.W.W.W.W.'.'.'.'.'.'.X.X.X.X.X.X.Y.Y.Y.Y.Y.Y.Z.Z.Z.Z.Z.M.M.M.M.M.M.`.`.`.`.`.`. + + + + + +.+.+.+.+.+.+++++++++++@+@+@+@+@+@+#+#+#+#+#+#+$+$+$+$+$+$+R.R.R.R.R.R.%+%+%+%+%+&+&+&+&+&+&+*+*+*+*+*+*+/./././././.F.F.F.F.F.F.V.V.V.V.V.=+=+=+=+=+=+-+-+-+-+-+-+;+;+;+;+;+;+>+>+>+>+>+>+,+,+,+,+,+,+",
"Q.Q.Q.Q.Q.R.R.R.R.R.R.S.S.S.S.S.S.T.T.T.T.T.T.U.U.U.U.U.U.V.V.V.V.V.W.W.W.W.W.W.'.'.'.'.'.'.X.X.X.X.X.X.Y.Y.Y.Y.Y.Y.Z.Z.Z.Z.Z.M.M.M.M.M.M.`.`.`.`.`.`. + + + + + +.+.+.+.+.+.+++++++++++@+@+@+@+@+@+#+#+#+#+#+#+$+$+$+$+$+$+R.R.R.R.R.R.%+%+%+%+%+&+&+&+&+&+&+*+*+*+*+*+*+/./././././.F.F.F.F.F.F.V.V.V.V.V.=+=+=+=+=+=+-+-+-+-+-+-+;+;+;+;+;+;+>+>+>+>+>+>+,+,+,+,+,+,+",
"Q.Q.Q.Q.Q.R.R.R.R.R.R.S.S.S.S.S.S.T.T.T.T.T.T.U.U.U.U.U.U.V.V.V.V.V.W.W.W.W.W.W.'.'.'.'.'.'.X.X.X.X.X.X.Y.Y.Y.Y.Y.Y.Z.Z.Z.Z.Z.M.M.M.M.M.M.`.`.`.`.`.`. + + + + + +.+.+.+.+.+.+++++++++++@+@+@+@+@+@+#+#+#+#+#+#+$+$+$+$+$+$+R.R.R.R.R.R.%+%+%+%+%+&+&+&+&+&+&+*+*+*+*+*+*+/./././././.F.F.F.F.F.F.V.V.V.V.V.=+=+=+=+=+=+-+-+-+-+-+-+;+;+;+;+;+;+>+>+>+>+>+>+,+,+,+,+,+,+",
"Q.Q.Q.Q.Q.R.R.R.R.R.R.S.S.S.S.S.S.T.T.T.T.T.T.U.U.U.U.U.U.V.V.V.V.V.W.W.W.W.W.W.'.'.'.'.'.'.X.X.X.X.X.X.Y.Y.Y.Y.Y.Y.Z.Z.Z.Z.Z.M.M.M.M.M.M.`.`.`.`.`.`. + + + + + +.+.+.+.+.+.+++++++++++@+@+@+@+@+@+#+#+#+#+#+#+$+$+$+$+$+$+R.R.R.R.R.R.%+%+%+%+%+&+&+&+&+&+&+*+*+*+*+*+*+/./././././.F.F.F.F.F.F.V.V.V.V.V.=+=+=+=+=+=+-+-+-+-+-+-+;+;+;+;+;+;+>+>+>+>+>+>+,+,+,+,+,+,+",
"Q.Q.Q.Q.Q.R.R.R.R.R.R.S.S.S.S.S.S.T.T.T.T.T.T.U.U.U.U.U.U.V.V.V.V.V.W.W.W.W.W.W.'.'.'.'.'.'.X.X.X.X.X.X.Y.Y.Y.Y.Y.Y.Z.Z.Z.Z.Z.M.M.M.M.M.M.`.`.`.`.`.`. + + + + + +.+.+.+.+.+.+++++++++++@+@+@+@+@+@+#+#+#+#+#+#+$+$+$+$+$+$+R.R.R.R.R.R.%+%+%+%+%+&+&+&+&+&+&+*+*+*+*+*+*+/./././././.F.F.F.F.F.F.V.V.V.V.V.=+=+=+=+=+=+-+-+-+-+-+-+;+;+;+;+;+;+>+>+>+>+>+>+,+,+,+,+,+,+",
"'+'+'+'+'+)+)+)+)+)+)+!+!+!+!+!+!+~+~+~+~+~+~+{+{+{+{+{+{+]+]+]+]+]+^+^+^+^+^+^+~+~+~+~+~+~+&+&+&+&+&+&+/+/+/+/+/+/+(+(+(+(+(+_+_+_+_+_+_+:+:+:+:+:+:+<+<+<+<+<+<+[+[+[+[+[+[+}+}+}+}+}+|+|+|+|+|+|+1+1+1+1+1+1+2+2+2+2+2+2+3+3+3+3+3+3+4+4+4+4+4+5+5+5+5+5+5+6+6+6+6+6+6+$+$+$+$+$+$+7+7+7+7+7+7+@+@+@+@+@+)+)+)+)+)+)+8+8+8+8+8+8+9+9+9+9+9+9+0+0+0+0+0+0+a+a+a+a+a+a+",
"'+'+'+'+'+)+)+)+)+)+)+!+!+!+!+!+!+~+~+~+~+~+~+{+{+{+{+{+{+]+]+]+]+]+^+^+^+^+^+^+~+~+~+~+~+~+&+&+&+&+&+&+/+/+/+/+/+/+(+(+(+(+(+_+_+_+_+_+_+:+:+:+:+:+:+<+<+<+<+<+<+[+[+[+[+[+[+}+}+}+}+}+|+|+|+|+|+|+1+1+1+1+1+1+2+2+2+2+2+2+3+3+3+3+3+3+4+4+4+4+4+5+5+5+5+5+5+6+6+6+6+6+6+$+$+$+$+$+$+7+7+7+7+7+7+@+@+@+@+@+)+)+)+)+)+)+8+8+8+8+8+8+9+9+9+9+9+9+0+0+0+0+0+0+a+a+a+a+a+a+",
"'+'+'+'+'+)+)+)+)+)+)+!+!+!+!+!+!+~+~+~+~+~+~+{+{+{+{+{+{+]+]+]+]+]+^+^+^+^+^+^+~+~+~+~+~+~+&+&+&+&+&+&+/+/+/+/+/+/+(+(+(+(+(+_+_+_+_+_+_+:+:+:+:+:+:+<+<+<+<+<+<+[+[+[+[+[+[+}+}+}+}+}+|+|+|+|+|+|+1+1+1+1+1+1+2+2+2+2+2+2+3+3+3+3+3+3+4+4+4+4+4+5+5+5+5+5+5+6+6+6+6+6+6+$+$+$+$+$+$+7+7+7+7+7+7+@+@+@+@+@+)+)+)+)+)+)+8+8+8+8+8+8+9+9+9+9+9+9+0+0+0+0+0+0+a+a+a+a+a+a+",
"'+'+'+'+'+)+)+)+)+)+)+!+!+!+!+!+!+~+~+~+~+~+~+{+{+{+{+{+{+]+]+]+]+]+^+^+^+^+^+^+~+~+~+~+~+~+&+&+&+&+&+&+/+/+/+/+/+/+(+(+(+(+(+_+_+_+_+_+_+:+:+:+:+:+:+<+<+<+<+<+<+[+[+[+[+[+[+}+}+}+}+}+|+|+|+|+|+|+1+1+1+1+1+1+2+2+2+2+2+2+3+3+3+3+3+3+4+4+4+4+4+5+5+5+5+5+5+6+6+6+6+6+6+$+$+$+$+$+$+7+7+7+7+7+7+@+@+@+@+@+)+)+)+)+)+)+8+8+8+8+8+8+9+9+9+9+9+9+0+0+0+0+0+0+a+a+a+a+a+a+",
"'+'+'+'+'+)+)+)+)+)+)+!+!+!+!+!+!+~+~+~+~+~+~+{+{+{+{+{+{+]+]+]+]+]+^+^+^+^+^+^+~+~+~+~+~+~+&+&+&+&+&+&+/+/+/+/+/+/+(+(+(+(+(+_+_+_+_+_+_+:+:+:+:+:+:+<+<+<+<+<+<+[+[+[+[+[+[+}+}+}+}+}+|+|+|+|+|+|+1+1+1+1+1+1+2+2+2+2+2+2+3+3+3+3+3+3+4+4+4+4+4+5+5+5+5+5+5+6+6+6+6+6+6+$+$+$+$+$+$+7+7+7+7+7+7+@+@+@+@+@+)+)+)+)+)+)+8+8+8+8+8+8+9+9+9+9+9+9+0+0+0+0+0+0+a+a+a+a+a+a+",
"'+'+'+'+'+)+)+)+)+)+)+!+!+!+!+!+!+~+~+~+~+~+~+{+{+{+{+{+{+]+]+]+]+]+^+^+^+^+^+^+~+~+~+~+~+~+&+&+&+&+&+&+/+/+/+/+/+/+(+(+(+(+(+_+_+_+_+_+_+:+:+:+:+:+:+<+<+<+<+<+<+[+[+[+[+[+[+}+}+}+}+}+|+|+|+|+|+|+1+1+1+1+1+1+2+2+2+2+2+2+3+3+3+3+3+3+4+4+4+4+4+5+5+5+5+5+5+6+6+6+6+6+6+$+$+$+$+$+$+7+7+7+7+7+7+@+@+@+@+@+)+)+)+)+)+)+8+8+8+8+8+8+9+9+9+9+9+9+0+0+0+0+0+0+a+a+a+a+a+a+",
"b+b+b+b+b+c+c+c+c+c+c+d+d+d+d+d+d+e+e+e+e+e+e+f+f+f+f+f+f+g+g+g+g+g+h+h+h+h+h+h+i+i+i+i+i+i+j+j+j+j+j+j+k+k+k+k+k+k+l+l+l+l+l+m+m+m+m+m+m+n+n+n+n+n+n+o+o+o+o+o+o+p+p+p+p+p+p+q+q+q+q+q+w w w w w w r+r+r+r+r+r+s+s+s+s+s+s+w w w w w w 0 0 0 0 0 t+t+t+t+t+t+u+u+u+u+u+u+v+v+v+v+v+v+w+w+w+w+w+w+x+x+x+x+x+y+y+y+y+y+y+w w w w w w z+z+z+z+z+z+x x x x x x A+A+A+A+A+A+",
"b+b+b+b+b+c+c+c+c+c+c+d+d+d+d+d+d+e+e+e+e+e+e+f+f+f+f+f+f+g+g+g+g+g+h+h+h+h+h+h+i+i+i+i+i+i+j+j+j+j+j+j+k+k+k+k+k+k+l+l+l+l+l+m+m+m+m+m+m+n+n+n+n+n+n+o+o+o+o+o+o+p+p+p+p+p+p+q+q+q+q+q+w w w w w w r+r+r+r+r+r+s+s+s+s+s+s+w w w w w w 0 0 0 0 0 t+t+t+t+t+t+u+u+u+u+u+u+v+v+v+v+v+v+w+w+w+w+w+w+x+x+x+x+x+y+y+y+y+y+y+w w w w w w z+z+z+z+z+z+x x x x x x A+A+A+A+A+A+",
"b+b+b+b+b+c+c+c+c+c+c+d+d+d+d+d+d+e+e+e+e+e+e+f+f+f+f+f+f+g+g+g+g+g+h+h+h+h+h+h+i+i+i+i+i+i+j+j+j+j+j+j+k+k+k+k+k+k+l+l+l+l+l+m+m+m+m+m+m+n+n+n+n+n+n+o+o+o+o+o+o+p+p+p+p+p+p+q+q+q+q+q+w w w w w w r+r+r+r+r+r+s+s+s+s+s+s+w w w w w w 0 0 0 0 0 t+t+t+t+t+t+u+u+u+u+u+u+v+v+v+v+v+v+w+w+w+w+w+w+x+x+x+x+x+y+y+y+y+y+y+w w w w w w z+z+z+z+z+z+x x x x x x A+A+A+A+A+A+",
"b+b+b+b+b+c+c+c+c+c+c+d+d+d+d+d+d+e+e+e+e+e+e+f+f+f+f+f+f+g+g+g+g+g+h+h+h+h+h+h+i+i+i+i+i+i+j+j+j+j+j+j+k+k+k+k+k+k+l+l+l+l+l+m+m+m+m+m+m+n+n+n+n+n+n+o+o+o+o+o+o+p+p+p+p+p+p+q+q+q+q+q+w w w w w w r+r+r+r+r+r+s+s+s+s+s+s+w w w w w w 0 0 0 0 0 t+t+t+t+t+t+u+u+u+u+u+u+v+v+v+v+v+v+w+w+w+w+w+w+x+x+x+x+x+y+y+y+y+y+y+w w w w w w z+z+z+z+z+z+x x x x x x A+A+A+A+A+A+",
"b+b+b+b+b+c+c+c+c+c+c+d+d+d+d+d+d+e+e+e+e+e+e+f+f+f+f+f+f+g+g+g+g+g+h+h+h+h+h+h+i+i+i+i+i+i+j+j+j+j+j+j+k+k+k+k+k+k+l+l+l+l+l+m+m+m+m+m+m+n+n+n+n+n+n+o+o+o+o+o+o+p+p+p+p+p+p+q+q+q+q+q+w w w w w w r+r+r+r+r+r+s+s+s+s+s+s+w w w w w w 0 0 0 0 0 t+t+t+t+t+t+u+u+u+u+u+u+v+v+v+v+v+v+w+w+w+w+w+w+x+x+x+x+x+y+y+y+y+y+y+w w w w w w z+z+z+z+z+z+x x x x x x A+A+A+A+A+A+",
"b+b+b+b+b+c+c+c+c+c+c+d+d+d+d+d+d+e+e+e+e+e+e+f+f+f+f+f+f+g+g+g+g+g+h+h+h+h+h+h+i+i+i+i+i+i+j+j+j+j+j+j+k+k+k+k+k+k+l+l+l+l+l+m+m+m+m+m+m+n+n+n+n+n+n+o+o+o+o+o+o+p+p+p+p+p+p+q+q+q+q+q+w w w w w w r+r+r+r+r+r+s+s+s+s+s+s+w w w w w w 0 0 0 0 0 t+t+t+t+t+t+u+u+u+u+u+u+v+v+v+v+v+v+w+w+w+w+w+w+x+x+x+x+x+y+y+y+y+y+y+w w w w w w z+z+z+z+z+z+x x x x x x A+A+A+A+A+A+",
"B+B+B+B+B+D D D D D D D D D D D D D D D D D D D D D D D D D D D D D D D D D D D D D D D D D C+C+C+C+C+C+D+D+D+D+D+D+E+E+E+E+E+F+F+F+F+F+F+0 0 0 0 0 0 G+G+G+G+G+G+D D D D D D H+H+H+H+H+N N N N N N I+I+I+I+I+I+J+J+J+J+J+J+f+f+f+f+f+f+E E E E E K+K+K+K+K+K+L+L+L+L+L+L+M+M+M+M+M+M+N+N+N+N+N+N+O+O+O+O+O+P+P+P+P+P+P+D D D D D D D D D D D D Q+Q+Q+Q+Q+Q+D D D D D D ",
"B+B+B+B+B+D D D D D D D D D D D D D D D D D D D D D D D D D D D D D D D D D D D D D D D D D C+C+C+C+C+C+D+D+D+D+D+D+E+E+E+E+E+F+F+F+F+F+F+0 0 0 0 0 0 G+G+G+G+G+G+D D D D D D H+H+H+H+H+N N N N N N I+I+I+I+I+I+J+J+J+J+J+J+f+f+f+f+f+f+E E E E E K+K+K+K+K+K+L+L+L+L+L+L+M+M+M+M+M+M+N+N+N+N+N+N+O+O+O+O+O+P+P+P+P+P+P+D D D D D D D D D D D D Q+Q+Q+Q+Q+Q+D D D D D D ",
"B+B+B+B+B+D D D D D D D D D D D D D D D D D D D D D D D D D D D D D D D D D D D D D D D D D C+C+C+C+C+C+D+D+D+D+D+D+E+E+E+E+E+F+F+F+F+F+F+0 0 0 0 0 0 G+G+G+G+G+G+D D D D D D H+H+H+H+H+N N N N N N I+I+I+I+I+I+J+J+J+J+J+J+f+f+f+f+f+f+E E E E E K+K+K+K+K+K+L+L+L+L+L+L+M+M+M+M+M+M+N+N+N+N+N+N+O+O+O+O+O+P+P+P+P+P+P+D D D D D D D D D D D D Q+Q+Q+Q+Q+Q+D D D D D D ",
"B+B+B+B+B+D D D D D D D D D D D D D D D D D D D D D D D D D D D D D D D D D D D D D D D D D C+C+C+C+C+C+D+D+D+D+D+D+E+E+E+E+E+F+F+F+F+F+F+0 0 0 0 0 0 G+G+G+G+G+G+D D D D D D H+H+H+H+H+N N N N N N I+I+I+I+I+I+J+J+J+J+J+J+f+f+f+f+f+f+E E E E E K+K+K+K+K+K+L+L+L+L+L+L+M+M+M+M+M+M+N+N+N+N+N+N+O+O+O+O+O+P+P+P+P+P+P+D D D D D D D D D D D D Q+Q+Q+Q+Q+Q+D D D D D D ",
"B+B+B+B+B+D D D D D D D D D D D D D D D D D D D D D D D D D D D D D D D D D D D D D D D D D C+C+C+C+C+C+D+D+D+D+D+D+E+E+E+E+E+F+F+F+F+F+F+0 0 0 0 0 0 G+G+G+G+G+G+D D D D D D H+H+H+H+H+N N N N N N I+I+I+I+I+I+J+J+J+J+J+J+f+f+f+f+f+f+E E E E E K+K+K+K+K+K+L+L+L+L+L+L+M+M+M+M+M+M+N+N+N+N+N+N+O+O+O+O+O+P+P+P+P+P+P+D D D D D D D D D D D D Q+Q+Q+Q+Q+Q+D D D D D D ",
"B+B+B+B+B+D D D D D D D D D D D D D D D D D D D D D D D D D D D D D D D D D D D D D D D D D C+C+C+C+C+C+D+D+D+D+D+D+E+E+E+E+E+F+F+F+F+F+F+0 0 0 0 0 0 G+G+G+G+G+G+D D D D D D H+H+H+H+H+N N N N N N I+I+I+I+I+I+J+J+J+J+J+J+f+f+f+f+f+f+E E E E E K+K+K+K+K+K+L+L+L+L+L+L+M+M+M+M+M+M+N+N+N+N+N+N+O+O+O+O+O+P+P+P+P+P+P+D D D D D D D D D D D D Q+Q+Q+Q+Q+Q+D D D D D D ",
"R+R+R+R+R+S+S+S+S+S+S+T+T+T+T+T+T+D D D D D D U+U+U+U+U+U+D D D D D D D D D D D D D D D D D V+V+V+V+V+V+W+W+W+W+W+W+X+X+X+X+X+Y+Y+Y+Y+Y+Y+Z+Z+Z+Z+Z+Z+`+`+`+`+`+`+ @ @ @ @ @ @A A A A A D D D D D D D D D D D D D D D D D D D D D D D D C C C C C .@.@.@.@.@.@F.F.F.F.F.F.+@+@+@+@+@+@@@@@@@@@@@@@x x x x x #@#@#@#@#@#@D D D D D D $@$@$@$@$@$@%@%@%@%@%@%@T+T+T+T+T+T+",
"R+R+R+R+R+S+S+S+S+S+S+T+T+T+T+T+T+D D D D D D U+U+U+U+U+U+D D D D D D D D D D D D D D D D D V+V+V+V+V+V+W+W+W+W+W+W+X+X+X+X+X+Y+Y+Y+Y+Y+Y+Z+Z+Z+Z+Z+Z+`+`+`+`+`+`+ @ @ @ @ @ @A A A A A D D D D D D D D D D D D D D D D D D D D D D D D C C C C C .@.@.@.@.@.@F.F.F.F.F.F.+@+@+@+@+@+@@@@@@@@@@@@@x x x x x #@#@#@#@#@#@D D D D D D $@$@$@$@$@$@%@%@%@%@%@%@T+T+T+T+T+T+",
"R+R+R+R+R+S+S+S+S+S+S+T+T+T+T+T+T+D D D D D D U+U+U+U+U+U+D D D D D D D D D D D D D D D D D V+V+V+V+V+V+W+W+W+W+W+W+X+X+X+X+X+Y+Y+Y+Y+Y+Y+Z+Z+Z+Z+Z+Z+`+`+`+`+`+`+ @ @ @ @ @ @A A A A A D D D D D D D D D D D D D D D D D D D D D D D D C C C C C .@.@.@.@.@.@F.F.F.F.F.F.+@+@+@+@+@+@@@@@@@@@@@@@x x x x x #@#@#@#@#@#@D D D D D D $@$@$@$@$@$@%@%@%@%@%@%@T+T+T+T+T+T+",
"R+R+R+R+R+S+S+S+S+S+S+T+T+T+T+T+T+D D D D D D U+U+U+U+U+U+D D D D D D D D D D D D D D D D D V+V+V+V+V+V+W+W+W+W+W+W+X+X+X+X+X+Y+Y+Y+Y+Y+Y+Z+Z+Z+Z+Z+Z+`+`+`+`+`+`+ @ @ @ @ @ @A A A A A D D D D D D D D D D D D D D D D D D D D D D D D C C C C C .@.@.@.@.@.@F.F.F.F.F.F.+@+@+@+@+@+@@@@@@@@@@@@@x x x x x #@#@#@#@#@#@D D D D D D $@$@$@$@$@$@%@%@%@%@%@%@T+T+T+T+T+T+",
"R+R+R+R+R+S+S+S+S+S+S+T+T+T+T+T+T+D D D D D D U+U+U+U+U+U+D D D D D D D D D D D D D D D D D V+V+V+V+V+V+W+W+W+W+W+W+X+X+X+X+X+Y+Y+Y+Y+Y+Y+Z+Z+Z+Z+Z+Z+`+`+`+`+`+`+ @ @ @ @ @ @A A A A A D D D D D D D D D D D D D D D D D D D D D D D D C C C C C .@.@.@.@.@.@F.F.F.F.F.F.+@+@+@+@+@+@@@@@@@@@@@@@x x x x x #@#@#@#@#@#@D D D D D D $@$@$@$@$@$@%@%@%@%@%@%@T+T+T+T+T+T+",
"&@&@&@&@&@9.9.9.9.9.9.d d d d d d D D D D D D *@*@*@*@*@*@T+T+T+T+T+=@=@=@=@=@=@-@-@-@-@-@-@;@;@;@;@;@;@%+%+%+%+%+%+>@>@>@>@>@,@,@,@,@,@,@'@'@'@'@'@'@D D D D D D )@)@)@)@)@)@D D D D D !@!@!@!@!@!@~@~@~@~@~@~@{@{@{@{@{@{@]@]@]@]@]@]@^@^@^@^@^@/@/@/@/@/@/@(@(@(@(@(@(@_@_@_@_@_@_@:@:@:@:@:@:@p.p.p.p.p.<@<@<@<@<@<@D D D D D D [@[@[@[@[@[@}@}@}@}@}@}@|@|@|@|@|@|@",
"&@&@&@&@&@9.9.9.9.9.9.d d d d d d D D D D D D *@*@*@*@*@*@T+T+T+T+T+=@=@=@=@=@=@-@-@-@-@-@-@;@;@;@;@;@;@%+%+%+%+%+%+>@>@>@>@>@,@,@,@,@,@,@'@'@'@'@'@'@D D D D D D )@)@)@)@)@)@D D D D D !@!@!@!@!@!@~@~@~@~@~@~@{@{@{@{@{@{@]@]@]@]@]@]@^@^@^@^@^@/@/@/@/@/@/@(@(@(@(@(@(@_@_@_@_@_@_@:@:@:@:@:@:@p.p.p.p.p.<@<@<@<@<@<@D D D D D D [@[@[@[@[@[@}@}@}@}@}@}@|@|@|@|@|@|@",
"&@&@&@&@&@9.9.9.9.9.9.d d d d d d D D D D D D *@*@*@*@*@*@T+T+T+T+T+=@=@=@=@=@=@-@-@-@-@-@-@;@;@;@;@;@;@%+%+%+%+%+%+>@>@>@>@>@,@,@,@,@,@,@'@'@'@'@'@'@D D D D D D )@)@)@)@)@)@D D D D D !@!@!@!@!@!@~@~@~@~@~@~@{@{@{@{@{@{@]@]@]@]@]@]@^@^@^@^@^@/@/@/@/@/@/@(@(@(@(@(@(@_@_@_@_@_@_@:@:@:@:@:@:@p.p.p.p.p.<@<@<@<@<@<@D D D D D D [@[@[@[@[@[@}@}@}@}@}@}@|@|@|@|@|@|@",
"&@&@&@&@&@9.9.9.9.9.9.d d d d d d D D D D D D *@*@*@*@*@*@T+T+T+T+T+=@=@=@=@=@=@-@-@-@-@-@-@;@;@;@;@;@;@%+%+%+%+%+%+>@>@>@>@>@,@,@,@,@,@,@'@'@'@'@'@'@D D D D D D )@)@)@)@)@)@D D D D D !@!@!@!@!@!@~@~@~@~@~@~@{@{@{@{@{@{@]@]@]@]@]@]@^@^@^@^@^@/@/@/@/@/@/@(@(@(@(@(@(@_@_@_@_@_@_@:@:@:@:@:@:@p.p.p.p.p.<@<@<@<@<@<@D D D D D D [@[@[@[@[@[@}@}@}@}@}@}@|@|@|@|@|@|@",
"&@&@&@&@&@9.9.9.9.9.9.d d d d d d D D D D D D *@*@*@*@*@*@T+T+T+T+T+=@=@=@=@=@=@-@-@-@-@-@-@;@;@;@;@;@;@%+%+%+%+%+%+>@>@>@>@>@,@,@,@,@,@,@'@'@'@'@'@'@D D D D D D )@)@)@)@)@)@D D D D D !@!@!@!@!@!@~@~@~@~@~@~@{@{@{@{@{@{@]@]@]@]@]@]@^@^@^@^@^@/@/@/@/@/@/@(@(@(@(@(@(@_@_@_@_@_@_@:@:@:@:@:@:@p.p.p.p.p.<@<@<@<@<@<@D D D D D D [@[@[@[@[@[@}@}@}@}@}@}@|@|@|@|@|@|@",
"&@&@&@&@&@9.9.9.9.9.9.d d d d d d D D D D D D *@*@*@*@*@*@T+T+T+T+T+=@=@=@=@=@=@-@-@-@-@-@-@;@;@;@;@;@;@%+%+%+%+%+%+>@>@>@>@>@,@,@,@,@,@,@'@'@'@'@'@'@D D D D D D )@)@)@)@)@)@D D D D D !@!@!@!@!@!@~@~@~@~@~@~@{@{@{@{@{@{@]@]@]@]@]@]@^@^@^@^@^@/@/@/@/@/@/@(@(@(@(@(@(@_@_@_@_@_@_@:@:@:@:@:@:@p.p.p.p.p.<@<@<@<@<@<@D D D D D D [@[@[@[@[@[@}@}@}@}@}@}@|@|@|@|@|@|@",
"B+B+B+B+B+1@1@1@1@1@1@6+6+6+6+6+6+$@$@$@$@$@$@D D D D D D 6+6+6+6+6+2@2@2@2@2@2@3@3@3@3@3@3@6.6.6.6.6.6.4@4@4@4@4@4@5@5@5@5@5@6@6@6@6@6@6@7@7@7@7@7@7@8@8@8@8@8@8@9@9@9@9@9@9@0@0@0@0@0@a@a@a@a@a@a@D D D D D D y+y+y+y+y+y+I+I+I+I+I+I+b@b@b@b@b@c@c@c@c@c@c@t.t.t.t.t.t.d@d@d@d@d@d@e@e@e@e@e@e@f@f@f@f@f@b.b.b.b.b.b.g@g@g@g@g@g@h@h@h@h@h@h@i@i@i@i@i@i@j@j@j@j@j@j@",
"B+B+B+B+B+1@1@1@1@1@1@6+6+6+6+6+6+$@$@$@$@$@$@D D D D D D 6+6+6+6+6+2@2@2@2@2@2@3@3@3@3@3@3@6.6.6.6.6.6.4@4@4@4@4@4@5@5@5@5@5@6@6@6@6@6@6@7@7@7@7@7@7@8@8@8@8@8@8@9@9@9@9@9@9@0@0@0@0@0@a@a@a@a@a@a@D D D D D D y+y+y+y+y+y+I+I+I+I+I+I+b@b@b@b@b@c@c@c@c@c@c@t.t.t.t.t.t.d@d@d@d@d@d@e@e@e@e@e@e@f@f@f@f@f@b.b.b.b.b.b.g@g@g@g@g@g@h@h@h@h@h@h@i@i@i@i@i@i@j@j@j@j@j@j@",
"B+B+B+B+B+1@1@1@1@1@1@6+6+6+6+6+6+$@$@$@$@$@$@D D D D D D 6+6+6+6+6+2@2@2@2@2@2@3@3@3@3@3@3@6.6.6.6.6.6.4@4@4@4@4@4@5@5@5@5@5@6@6@6@6@6@6@7@7@7@7@7@7@8@8@8@8@8@8@9@9@9@9@9@9@0@0@0@0@0@a@a@a@a@a@a@D D D D D D y+y+y+y+y+y+I+I+I+I+I+I+b@b@b@b@b@c@c@c@c@c@c@t.t.t.t.t.t.d@d@d@d@d@d@e@e@e@e@e@e@f@f@f@f@f@b.b.b.b.b.b.g@g@g@g@g@g@h@h@h@h@h@h@i@i@i@i@i@i@j@j@j@j@j@j@",
"B+B+B+B+B+1@1@1@1@1@1@6+6+6+6+6+6+$@$@$@$@$@$@D D D D D D 6+6+6+6+6+2@2@2@2@2@2@3@3@3@3@3@3@6.6.6.6.6.6.4@4@4@4@4@4@5@5@5@5@5@6@6@6@6@6@6@7@7@7@7@7@7@8@8@8@8@8@8@9@9@9@9@9@9@0@0@0@0@0@a@a@a@a@a@a@D D D D D D y+y+y+y+y+y+I+I+I+I+I+I+b@b@b@b@b@c@c@c@c@c@c@t.t.t.t.t.t.d@d@d@d@d@d@e@e@e@e@e@e@f@f@f@f@f@b.b.b.b.b.b.g@g@g@g@g@g@h@h@h@h@h@h@i@i@i@i@i@i@j@j@j@j@j@j@",
"B+B+B+B+B+1@1@1@1@1@1@6+6+6+6+6+6+$@$@$@$@$@$@D D D D D D 6+6+6+6+6+2@2@2@2@2@2@3@3@3@3@3@3@6.6.6.6.6.6.4@4@4@4@4@4@5@5@5@5@5@6@6@6@6@6@6@7@7@7@7@7@7@8@8@8@8@8@8@9@9@9@9@9@9@0@0@0@0@0@a@a@a@a@a@a@D D D D D D y+y+y+y+y+y+I+I+I+I+I+I+b@b@b@b@b@c@c@c@c@c@c@t.t.t.t.t.t.d@d@d@d@d@d@e@e@e@e@e@e@f@f@f@f@f@b.b.b.b.b.b.g@g@g@g@g@g@h@h@h@h@h@h@i@i@i@i@i@i@j@j@j@j@j@j@",
"B+B+B+B+B+1@1@1@1@1@1@6+6+6+6+6+6+$@$@$@$@$@$@D D D D D D 6+6+6+6+6+2@2@2@2@2@2@3@3@3@3@3@3@6.6.6.6.6.6.4@4@4@4@4@4@5@5@5@5@5@6@6@6@6@6@6@7@7@7@7@7@7@8@8@8@8@8@8@9@9@9@9@9@9@0@0@0@0@0@a@a@a@a@a@a@D D D D D D y+y+y+y+y+y+I+I+I+I+I+I+b@b@b@b@b@c@c@c@c@c@c@t.t.t.t.t.t.d@d@d@d@d@d@e@e@e@e@e@e@f@f@f@f@f@b.b.b.b.b.b.g@g@g@g@g@g@h@h@h@h@h@h@i@i@i@i@i@i@j@j@j@j@j@j@",
"k@k@k@k@k@l@l@l@l@l@l@m@m@m@m@m@m@n@n@n@n@n@n@o@o@o@o@o@o@p@p@p@p@p@q@q@q@q@q@q@r@r@r@r@r@r@-+-+-+-+-+-+s@s@s@s@s@s@t@t@t@t@t@u@u@u@u@u@u@e.e.e.e.e.e.v@v@v@v@v@v@w@w@w@w@w@w@x@x@x@x@x@y@y@y@y@y@y@z@z@z@z@z@z@A@A@A@A@A@A@B@B@B@B@B@B@C@C@C@C@C@*+*+*+*+*+*+D@D@D@D@D@D@E@E@E@E@E@E@F@F@F@F@F@F@G@G@G@G@G@H@H@H@H@H@H@I@I@I@I@I@I@q.q.q.q.q.q.J@J@J@J@J@J@K@K@K@K@K@K@",
"k@k@k@k@k@l@l@l@l@l@l@m@m@m@m@m@m@n@n@n@n@n@n@o@o@o@o@o@o@p@p@p@p@p@q@q@q@q@q@q@r@r@r@r@r@r@-+-+-+-+-+-+s@s@s@s@s@s@t@t@t@t@t@u@u@u@u@u@u@e.e.e.e.e.e.v@v@v@v@v@v@w@w@w@w@w@w@x@x@x@x@x@y@y@y@y@y@y@z@z@z@z@z@z@A@A@A@A@A@A@B@B@B@B@B@B@C@C@C@C@C@*+*+*+*+*+*+D@D@D@D@D@D@E@E@E@E@E@E@F@F@F@F@F@F@G@G@G@G@G@H@H@H@H@H@H@I@I@I@I@I@I@q.q.q.q.q.q.J@J@J@J@J@J@K@K@K@K@K@K@",
"k@k@k@k@k@l@l@l@l@l@l@m@m@m@m@m@m@n@n@n@n@n@n@o@o@o@o@o@o@p@p@p@p@p@q@q@q@q@q@q@r@r@r@r@r@r@-+-+-+-+-+-+s@s@s@s@s@s@t@t@t@t@t@u@u@u@u@u@u@e.e.e.e.e.e.v@v@v@v@v@v@w@w@w@w@w@w@x@x@x@x@x@y@y@y@y@y@y@z@z@z@z@z@z@A@A@A@A@A@A@B@B@B@B@B@B@C@C@C@C@C@*+*+*+*+*+*+D@D@D@D@D@D@E@E@E@E@E@E@F@F@F@F@F@F@G@G@G@G@G@H@H@H@H@H@H@I@I@I@I@I@I@q.q.q.q.q.q.J@J@J@J@J@J@K@K@K@K@K@K@",
"k@k@k@k@k@l@l@l@l@l@l@m@m@m@m@m@m@n@n@n@n@n@n@o@o@o@o@o@o@p@p@p@p@p@q@q@q@q@q@q@r@r@r@r@r@r@-+-+-+-+-+-+s@s@s@s@s@s@t@t@t@t@t@u@u@u@u@u@u@e.e.e.e.e.e.v@v@v@v@v@v@w@w@w@w@w@w@x@x@x@x@x@y@y@y@y@y@y@z@z@z@z@z@z@A@A@A@A@A@A@B@B@B@B@B@B@C@C@C@C@C@*+*+*+*+*+*+D@D@D@D@D@D@E@E@E@E@E@E@F@F@F@F@F@F@G@G@G@G@G@H@H@H@H@H@H@I@I@I@I@I@I@q.q.q.q.q.q.J@J@J@J@J@J@K@K@K@K@K@K@",
"k@k@k@k@k@l@l@l@l@l@l@m@m@m@m@m@m@n@n@n@n@n@n@o@o@o@o@o@o@p@p@p@p@p@q@q@q@q@q@q@r@r@r@r@r@r@-+-+-+-+-+-+s@s@s@s@s@s@t@t@t@t@t@u@u@u@u@u@u@e.e.e.e.e.e.v@v@v@v@v@v@w@w@w@w@w@w@x@x@x@x@x@y@y@y@y@y@y@z@z@z@z@z@z@A@A@A@A@A@A@B@B@B@B@B@B@C@C@C@C@C@*+*+*+*+*+*+D@D@D@D@D@D@E@E@E@E@E@E@F@F@F@F@F@F@G@G@G@G@G@H@H@H@H@H@H@I@I@I@I@I@I@q.q.q.q.q.q.J@J@J@J@J@J@K@K@K@K@K@K@",
"k@k@k@k@k@l@l@l@l@l@l@m@m@m@m@m@m@n@n@n@n@n@n@o@o@o@o@o@o@p@p@p@p@p@q@q@q@q@q@q@r@r@r@r@r@r@-+-+-+-+-+-+s@s@s@s@s@s@t@t@t@t@t@u@u@u@u@u@u@e.e.e.e.e.e.v@v@v@v@v@v@w@w@w@w@w@w@x@x@x@x@x@y@y@y@y@y@y@z@z@z@z@z@z@A@A@A@A@A@A@B@B@B@B@B@B@C@C@C@C@C@*+*+*+*+*+*+D@D@D@D@D@D@E@E@E@E@E@E@F@F@F@F@F@F@G@G@G@G@G@H@H@H@H@H@H@I@I@I@I@I@I@q.q.q.q.q.q.J@J@J@J@J@J@K@K@K@K@K@K@",
"L@L@L@L@L@M@M@M@M@M@M@N@N@N@N@N@N@O@O@O@O@O@O@P@P@P@P@P@P@Q@Q@Q@Q@Q@R@R@R@R@R@R@S@S@S@S@S@S@d.d.d.d.d.d.T@T@T@T@T@T@U@U@U@U@U@V@V@V@V@V@V@W@W@W@W@W@W@X@X@X@X@X@X@Y@Y@Y@Y@Y@Y@Z@Z@Z@Z@Z@`@`@`@`@`@`@ # # # # # #.#.#.#.#.#.#4@4@4@4@4@4@+#+#+#+#+#@#@#@#@#@#@#Q@Q@Q@Q@Q@Q@{+{+{+{+{+{+############$#$#$#$#$#%#%#%#%#%#%#&#&#&#&#&#&#*#*#*#*#*#*#=#=#=#=#=#=#-#-#-#-#-#-#",
"L@L@L@L@L@M@M@M@M@M@M@N@N@N@N@N@N@O@O@O@O@O@O@P@P@P@P@P@P@Q@Q@Q@Q@Q@R@R@R@R@R@R@S@S@S@S@S@S@d.d.d.d.d.d.T@T@T@T@T@T@U@U@U@U@U@V@V@V@V@V@V@W@W@W@W@W@W@X@X@X@X@X@X@Y@Y@Y@Y@Y@Y@Z@Z@Z@Z@Z@`@`@`@`@`@`@ # # # # # #.#.#.#.#.#.#4@4@4@4@4@4@+#+#+#+#+#@#@#@#@#@#@#Q@Q@Q@Q@Q@Q@{+{+{+{+{+{+############$#$#$#$#$#%#%#%#%#%#%#&#&#&#&#&#&#*#*#*#*#*#*#=#=#=#=#=#=#-#-#-#-#-#-#",
"L@L@L@L@L@M@M@M@M@M@M@N@N@N@N@N@N@O@O@O@O@O@O@P@P@P@P@P@P@Q@Q@Q@Q@Q@R@R@R@R@R@R@S@S@S@S@S@S@d.d.d.d.d.d.T@T@T@T@T@T@U@U@U@U@U@V@V@V@V@V@V@W@W@W@W@W@W@X@X@X@X@X@X@Y@Y@Y@Y@Y@Y@Z@Z@Z@Z@Z@`@`@`@`@`@`@ # # # # # #.#.#.#.#.#.#4@4@4@4@4@4@+#+#+#+#+#@#@#@#@#@#@#Q@Q@Q@Q@Q@Q@{+{+{+{+{+{+############$#$#$#$#$#%#%#%#%#%#%#&#&#&#&#&#&#*#*#*#*#*#*#=#=#=#=#=#=#-#-#-#-#-#-#",
"L@L@L@L@L@M@M@M@M@M@M@N@N@N@N@N@N@O@O@O@O@O@O@P@P@P@P@P@P@Q@Q@Q@Q@Q@R@R@R@R@R@R@S@S@S@S@S@S@d.d.d.d.d.d.T@T@T@T@T@T@U@U@U@U@U@V@V@V@V@V@V@W@W@W@W@W@W@X@X@X@X@X@X@Y@Y@Y@Y@Y@Y@Z@Z@Z@Z@Z@`@`@`@`@`@`@ # # # # # #.#.#.#.#.#.#4@4@4@4@4@4@+#+#+#+#+#@#@#@#@#@#@#Q@Q@Q@Q@Q@Q@{+{+{+{+{+{+############$#$#$#$#$#%#%#%#%#%#%#&#&#&#&#&#&#*#*#*#*#*#*#=#=#=#=#=#=#-#-#-#-#-#-#",
"L@L@L@L@L@M@M@M@M@M@M@N@N@N@N@N@N@O@O@O@O@O@O@P@P@P@P@P@P@Q@Q@Q@Q@Q@R@R@R@R@R@R@S@S@S@S@S@S@d.d.d.d.d.d.T@T@T@T@T@T@U@U@U@U@U@V@V@V@V@V@V@W@W@W@W@W@W@X@X@X@X@X@X@Y@Y@Y@Y@Y@Y@Z@Z@Z@Z@Z@`@`@`@`@`@`@ # # # # # #.#.#.#.#.#.#4@4@4@4@4@4@+#+#+#+#+#@#@#@#@#@#@#Q@Q@Q@Q@Q@Q@{+{+{+{+{+{+############$#$#$#$#$#%#%#%#%#%#%#&#&#&#&#&#&#*#*#*#*#*#*#=#=#=#=#=#=#-#-#-#-#-#-#",
"L@L@L@L@L@M@M@M@M@M@M@N@N@N@N@N@N@O@O@O@O@O@O@P@P@P@P@P@P@Q@Q@Q@Q@Q@R@R@R@R@R@R@S@S@S@S@S@S@d.d.d.d.d.d.T@T@T@T@T@T@U@U@U@U@U@V@V@V@V@V@V@W@W@W@W@W@W@X@X@X@X@X@X@Y@Y@Y@Y@Y@Y@Z@Z@Z@Z@Z@`@`@`@`@`@`@ # # # # # #.#.#.#.#.#.#4@4@4@4@4@4@+#+#+#+#+#@#@#@#@#@#@#Q@Q@Q@Q@Q@Q@{+{+{+{+{+{+############$#$#$#$#$#%#%#%#%#%#%#&#&#&#&#&#&#*#*#*#*#*#*#=#=#=#=#=#=#-#-#-#-#-#-#",
";#;#;#;#;#>#>#>#>#>#>#,#,#,#,#,#,#'#'#'#'#'#'#)#)#)#)#)#)#)#)#)#)#)#!#!#!#!#!#!#~#~#~#~#~#~#{#{#{#{#{#{#]#]#]#]#]#]#^#^#^#^#^#)#)#)#)#)#)#/#/#/#/#/#/#(#(#(#(#(#(#_#_#_#_#_#_#:#:#:#:#:#<#<#<#<#<#<#[#[#[#[#[#[#}#}#}#}#}#}#|#|#|#|#|#|#%+%+%+%+%+1#1#1#1#1#1#2#2#2#2#2#2#3#3#3#3#3#3#4#4#4#4#4#4#5#5#5#5#5#6#6#6#6#6#6#7#7#7#7#7#7#8#8#8#8#8#8#E+E+E+E+E+E+|#|#|#|#|#|#",
";#;#;#;#;#>#>#>#>#>#>#,#,#,#,#,#,#'#'#'#'#'#'#)#)#)#)#)#)#)#)#)#)#)#!#!#!#!#!#!#~#~#~#~#~#~#{#{#{#{#{#{#]#]#]#]#]#]#^#^#^#^#^#)#)#)#)#)#)#/#/#/#/#/#/#(#(#(#(#(#(#_#_#_#_#_#_#:#:#:#:#:#<#<#<#<#<#<#[#[#[#[#[#[#}#}#}#}#}#}#|#|#|#|#|#|#%+%+%+%+%+1#1#1#1#1#1#2#2#2#2#2#2#3#3#3#3#3#3#4#4#4#4#4#4#5#5#5#5#5#6#6#6#6#6#6#7#7#7#7#7#7#8#8#8#8#8#8#E+E+E+E+E+E+|#|#|#|#|#|#",
";#;#;#;#;#>#>#>#>#>#>#,#,#,#,#,#,#'#'#'#'#'#'#)#)#)#)#)#)#)#)#)#)#)#!#!#!#!#!#!#~#~#~#~#~#~#{#{#{#{#{#{#]#]#]#]#]#]#^#^#^#^#^#)#)#)#)#)#)#/#/#/#/#/#/#(#(#(#(#(#(#_#_#_#_#_#_#:#:#:#:#:#<#<#<#<#<#<#[#[#[#[#[#[#}#}#}#}#}#}#|#|#|#|#|#|#%+%+%+%+%+1#1#1#1#1#1#2#2#2#2#2#2#3#3#3#3#3#3#4#4#4#4#4#4#5#5#5#5#5#6#6#6#6#6#6#7#7#7#7#7#7#8#8#8#8#8#8#E+E+E+E+E+E+|#|#|#|#|#|#",
";#;#;#;#;#>#>#>#>#>#>#,#,#,#,#,#,#'#'#'#'#'#'#)#)#)#)#)#)#)#)#)#)#)#!#!#!#!#!#!#~#~#~#~#~#~#{#{#{#{#{#{#]#]#]#]#]#]#^#^#^#^#^#)#)#)#)#)#)#/#/#/#/#/#/#(#(#(#(#(#(#_#_#_#_#_#_#:#:#:#:#:#<#<#<#<#<#<#[#[#[#[#[#[#}#}#}#}#}#}#|#|#|#|#|#|#%+%+%+%+%+1#1#1#1#1#1#2#2#2#2#2#2#3#3#3#3#3#3#4#4#4#4#4#4#5#5#5#5#5#6#6#6#6#6#6#7#7#7#7#7#7#8#8#8#8#8#8#E+E+E+E+E+E+|#|#|#|#|#|#",
";#;#;#;#;#>#>#>#>#>#>#,#,#,#,#,#,#'#'#'#'#'#'#)#)#)#)#)#)#)#)#)#)#)#!#!#!#!#!#!#~#~#~#~#~#~#{#{#{#{#{#{#]#]#]#]#]#]#^#^#^#^#^#)#)#)#)#)#)#/#/#/#/#/#/#(#(#(#(#(#(#_#_#_#_#_#_#:#:#:#:#:#<#<#<#<#<#<#[#[#[#[#[#[#}#}#}#}#}#}#|#|#|#|#|#|#%+%+%+%+%+1#1#1#1#1#1#2#2#2#2#2#2#3#3#3#3#3#3#4#4#4#4#4#4#5#5#5#5#5#6#6#6#6#6#6#7#7#7#7#7#7#8#8#8#8#8#8#E+E+E+E+E+E+|#|#|#|#|#|#",
"9#9#9#9#9#|+|+|+|+|+|+0#0#0#0#0#0#a#a#a#a#a#a#b#b#b#b#b#b#c#c#c#c#c#d#d#d#d#d#d#e#e#e#e#e#e#w w w w w w f#f#f#f#f#f#p+p+p+p+p+p+p+p+p+p+p+g#g#g#g#g#g#p+p+p+p+p+p+h#h#h#h#h#h#i#i#i#i#i#j#j#j#j#j#j#S@S@S@S@S@S@k#k#k#k#k#k#c+c+c+c+c+c+b#b#b#b#b#D D D D D D l#l#l#l#l#l#p+p+p+p+p+p+m#m#m#m#m#m#p+p+p+p+p+p+p+p+p+p+p+n#n#n#n#n#n#o#o#o#o#o#o#p#p#p#p#p#p#q#q#q#q#q#q#",
"9#9#9#9#9#|+|+|+|+|+|+0#0#0#0#0#0#a#a#a#a#a#a#b#b#b#b#b#b#c#c#c#c#c#d#d#d#d#d#d#e#e#e#e#e#e#w w w w w w f#f#f#f#f#f#p+p+p+p+p+p+p+p+p+p+p+g#g#g#g#g#g#p+p+p+p+p+p+h#h#h#h#h#h#i#i#i#i#i#j#j#j#j#j#j#S@S@S@S@S@S@k#k#k#k#k#k#c+c+c+c+c+c+b#b#b#b#b#D D D D D D l#l#l#l#l#l#p+p+p+p+p+p+m#m#m#m#m#m#p+p+p+p+p+p+p+p+p+p+p+n#n#n#n#n#n#o#o#o#o#o#o#p#p#p#p#p#p#q#q#q#q#q#q#",
"9#9#9#9#9#|+|+|+|+|+|+0#0#0#0#0#0#a#a#a#a#a#a#b#b#b#b#b#b#c#c#c#c#c#d#d#d#d#d#d#e#e#e#e#e#e#w w w w w w f#f#f#f#f#f#p+p+p+p+p+p+p+p+p+p+p+g#g#g#g#g#g#p+p+p+p+p+p+h#h#h#h#h#h#i#i#i#i#i#j#j#j#j#j#j#S@S@S@S@S@S@k#k#k#k#k#k#c+c+c+c+c+c+b#b#b#b#b#D D D D D D l#l#l#l#l#l#p+p+p+p+p+p+m#m#m#m#m#m#p+p+p+p+p+p+p+p+p+p+p+n#n#n#n#n#n#o#o#o#o#o#o#p#p#p#p#p#p#q#q#q#q#q#q#",
"9#9#9#9#9#|+|+|+|+|+|+0#0#0#0#0#0#a#a#a#a#a#a#b#b#b#b#b#b#c#c#c#c#c#d#d#d#d#d#d#e#e#e#e#e#e#w w w w w w f#f#f#f#f#f#p+p+p+p+p+p+p+p+p+p+p+g#g#g#g#g#g#p+p+p+p+p+p+h#h#h#h#h#h#i#i#i#i#i#j#j#j#j#j#j#S@S@S@S@S@S@k#k#k#k#k#k#c+c+c+c+c+c+b#b#b#b#b#D D D D D D l#l#l#l#l#l#p+p+p+p+p+p+m#m#m#m#m#m#p+p+p+p+p+p+p+p+p+p+p+n#n#n#n#n#n#o#o#o#o#o#o#p#p#p#p#p#p#q#q#q#q#q#q#",
"9#9#9#9#9#|+|+|+|+|+|+0#0#0#0#0#0#a#a#a#a#a#a#b#b#b#b#b#b#c#c#c#c#c#d#d#d#d#d#d#e#e#e#e#e#e#w w w w w w f#f#f#f#f#f#p+p+p+p+p+p+p+p+p+p+p+g#g#g#g#g#g#p+p+p+p+p+p+h#h#h#h#h#h#i#i#i#i#i#j#j#j#j#j#j#S@S@S@S@S@S@k#k#k#k#k#k#c+c+c+c+c+c+b#b#b#b#b#D D D D D D l#l#l#l#l#l#p+p+p+p+p+p+m#m#m#m#m#m#p+p+p+p+p+p+p+p+p+p+p+n#n#n#n#n#n#o#o#o#o#o#o#p#p#p#p#p#p#q#q#q#q#q#q#",
"9#9#9#9#9#|+|+|+|+|+|+0#0#0#0#0#0#a#a#a#a#a#a#b#b#b#b#b#b#c#c#c#c#c#d#d#d#d#d#d#e#e#e#e#e#e#w w w w w w f#f#f#f#f#f#p+p+p+p+p+p+p+p+p+p+p+g#g#g#g#g#g#p+p+p+p+p+p+h#h#h#h#h#h#i#i#i#i#i#j#j#j#j#j#j#S@S@S@S@S@S@k#k#k#k#k#k#c+c+c+c+c+c+b#b#b#b#b#D D D D D D l#l#l#l#l#l#p+p+p+p+p+p+m#m#m#m#m#m#p+p+p+p+p+p+p+p+p+p+p+n#n#n#n#n#n#o#o#o#o#o#o#p#p#p#p#p#p#q#q#q#q#q#q#",
"r#r#r#r#r#s#s#s#s#s#s#t#t#t#t#t#t#s+s+s+s+s+s+D D D D D D s+s+s+s+s+u#u#u#u#u#u#o o o o o o v#v#v#v#v#v#w#w#w#w#w#w#D D D D D D D D D D D D D D D D D D D D D D D x#x#x#x#x#x#y#y#y#y#y#z#z#z#z#z#z#A#A#A#A#A#A#B#B#B#B#B#B#w#w#w#w#w#w#D D D D D E E E E E E D D D D D D D D D D D D x x x x x x D D D D D D D D D D D #@#@#@#@#@#@C#C#C#C#C#C#m m m m m m q#q#q#q#q#q#",
"r#r#r#r#r#s#s#s#s#s#s#t#t#t#t#t#t#s+s+s+s+s+s+D D D D D D s+s+s+s+s+u#u#u#u#u#u#o o o o o o v#v#v#v#v#v#w#w#w#w#w#w#D D D D D D D D D D D D D D D D D D D D D D D x#x#x#x#x#x#y#y#y#y#y#z#z#z#z#z#z#A#A#A#A#A#A#B#B#B#B#B#B#w#w#w#w#w#w#D D D D D E E E E E E D D D D D D D D D D D D x x x x x x D D D D D D D D D D D #@#@#@#@#@#@C#C#C#C#C#C#m m m m m m q#q#q#q#q#q#",
"r#r#r#r#r#s#s#s#s#s#s#t#t#t#t#t#t#s+s+s+s+s+s+D D D D D D s+s+s+s+s+u#u#u#u#u#u#o o o o o o v#v#v#v#v#v#w#w#w#w#w#w#D D D D D D D D D D D D D D D D D D D D D D D x#x#x#x#x#x#y#y#y#y#y#z#z#z#z#z#z#A#A#A#A#A#A#B#B#B#B#B#B#w#w#w#w#w#w#D D D D D E E E E E E D D D D D D D D D D D D x x x x x x D D D D D D D D D D D #@#@#@#@#@#@C#C#C#C#C#C#m m m m m m q#q#q#q#q#q#",
"r#r#r#r#r#s#s#s#s#s#s#t#t#t#t#t#t#s+s+s+s+s+s+D D D D D D s+s+s+s+s+u#u#u#u#u#u#o o o o o o v#v#v#v#v#v#w#w#w#w#w#w#D D D D D D D D D D D D D D D D D D D D D D D x#x#x#x#x#x#y#y#y#y#y#z#z#z#z#z#z#A#A#A#A#A#A#B#B#B#B#B#B#w#w#w#w#w#w#D D D D D E E E E E E D D D D D D D D D D D D x x x x x x D D D D D D D D D D D #@#@#@#@#@#@C#C#C#C#C#C#m m m m m m q#q#q#q#q#q#",
"r#r#r#r#r#s#s#s#s#s#s#t#t#t#t#t#t#s+s+s+s+s+s+D D D D D D s+s+s+s+s+u#u#u#u#u#u#o o o o o o v#v#v#v#v#v#w#w#w#w#w#w#D D D D D D D D D D D D D D D D D D D D D D D x#x#x#x#x#x#y#y#y#y#y#z#z#z#z#z#z#A#A#A#A#A#A#B#B#B#B#B#B#w#w#w#w#w#w#D D D D D E E E E E E D D D D D D D D D D D D x x x x x x D D D D D D D D D D D #@#@#@#@#@#@C#C#C#C#C#C#m m m m m m q#q#q#q#q#q#",
"r#r#r#r#r#s#s#s#s#s#s#t#t#t#t#t#t#s+s+s+s+s+s+D D D D D D s+s+s+s+s+u#u#u#u#u#u#o o o o o o v#v#v#v#v#v#w#w#w#w#w#w#D D D D D D D D D D D D D D D D D D D D D D D x#x#x#x#x#x#y#y#y#y#y#z#z#z#z#z#z#A#A#A#A#A#A#B#B#B#B#B#B#w#w#w#w#w#w#D D D D D E E E E E E D D D D D D D D D D D D x x x x x x D D D D D D D D D D D #@#@#@#@#@#@C#C#C#C#C#C#m m m m m m q#q#q#q#q#q#",
"D#D#D#D#D#p+p+p+p+p+p+E#E#E#E#E#E#F#F#F#F#F#F#D D D D D D D D D D D G#G#G#G#G#G#A A A A A A D D D D D D D D D D D D E E E E E I+I+I+I+I+I+H#H#H#H#H#H#I#I#I#I#I#I#L+L+L+L+L+L+J#J#J#J#J#K#K#K#K#K#K#L#L#L#L#L#L#I#I#I#I#I#I#D D D D D D T+T+T+T+T+M#M#M#M#M#M#)@)@)@)@)@)@N#N#N#N#N#N#E E E E E E O#O#O#O#O#I+I+I+I+I+I+D D D D D D N N N N N N P#P#P#P#P#P#Q#Q#Q#Q#Q#Q#",
"D#D#D#D#D#p+p+p+p+p+p+E#E#E#E#E#E#F#F#F#F#F#F#D D D D D D D D D D D G#G#G#G#G#G#A A A A A A D D D D D D D D D D D D E E E E E I+I+I+I+I+I+H#H#H#H#H#H#I#I#I#I#I#I#L+L+L+L+L+L+J#J#J#J#J#K#K#K#K#K#K#L#L#L#L#L#L#I#I#I#I#I#I#D D D D D D T+T+T+T+T+M#M#M#M#M#M#)@)@)@)@)@)@N#N#N#N#N#N#E E E E E E O#O#O#O#O#I+I+I+I+I+I+D D D D D D N N N N N N P#P#P#P#P#P#Q#Q#Q#Q#Q#Q#",
"D#D#D#D#D#p+p+p+p+p+p+E#E#E#E#E#E#F#F#F#F#F#F#D D D D D D D D D D D G#G#G#G#G#G#A A A A A A D D D D D D D D D D D D E E E E E I+I+I+I+I+I+H#H#H#H#H#H#I#I#I#I#I#I#L+L+L+L+L+L+J#J#J#J#J#K#K#K#K#K#K#L#L#L#L#L#L#I#I#I#I#I#I#D D D D D D T+T+T+T+T+M#M#M#M#M#M#)@)@)@)@)@)@N#N#N#N#N#N#E E E E E E O#O#O#O#O#I+I+I+I+I+I+D D D D D D N N N N N N P#P#P#P#P#P#Q#Q#Q#Q#Q#Q#",
"D#D#D#D#D#p+p+p+p+p+p+E#E#E#E#E#E#F#F#F#F#F#F#D D D D D D D D D D D G#G#G#G#G#G#A A A A A A D D D D D D D D D D D D E E E E E I+I+I+I+I+I+H#H#H#H#H#H#I#I#I#I#I#I#L+L+L+L+L+L+J#J#J#J#J#K#K#K#K#K#K#L#L#L#L#L#L#I#I#I#I#I#I#D D D D D D T+T+T+T+T+M#M#M#M#M#M#)@)@)@)@)@)@N#N#N#N#N#N#E E E E E E O#O#O#O#O#I+I+I+I+I+I+D D D D D D N N N N N N P#P#P#P#P#P#Q#Q#Q#Q#Q#Q#",
"D#D#D#D#D#p+p+p+p+p+p+E#E#E#E#E#E#F#F#F#F#F#F#D D D D D D D D D D D G#G#G#G#G#G#A A A A A A D D D D D D D D D D D D E E E E E I+I+I+I+I+I+H#H#H#H#H#H#I#I#I#I#I#I#L+L+L+L+L+L+J#J#J#J#J#K#K#K#K#K#K#L#L#L#L#L#L#I#I#I#I#I#I#D D D D D D T+T+T+T+T+M#M#M#M#M#M#)@)@)@)@)@)@N#N#N#N#N#N#E E E E E E O#O#O#O#O#I+I+I+I+I+I+D D D D D D N N N N N N P#P#P#P#P#P#Q#Q#Q#Q#Q#Q#",
"D#D#D#D#D#p+p+p+p+p+p+E#E#E#E#E#E#F#F#F#F#F#F#D D D D D D D D D D D G#G#G#G#G#G#A A A A A A D D D D D D D D D D D D E E E E E I+I+I+I+I+I+H#H#H#H#H#H#I#I#I#I#I#I#L+L+L+L+L+L+J#J#J#J#J#K#K#K#K#K#K#L#L#L#L#L#L#I#I#I#I#I#I#D D D D D D T+T+T+T+T+M#M#M#M#M#M#)@)@)@)@)@)@N#N#N#N#N#N#E E E E E E O#O#O#O#O#I+I+I+I+I+I+D D D D D D N N N N N N P#P#P#P#P#P#Q#Q#Q#Q#Q#Q#",
"R#R#R#R#R#S#S#S#S#S#S#D D D D D D T#T#T#T#T#T#U#U#U#U#U#U#V#V#V#V#V#W#W#W#W#W#W#X#X#X#X#X#X#]@]@]@]@]@]@Y#Y#Y#Y#Y#Y#Z#Z#Z#Z#Z#`#`#`#`#`#`# $ $ $ $ $ $.$.$.$.$.$.$+$+$+$+$+$+$@$@$@$@$@$#$#$#$#$#$#$$$$$$$$$$$$$%$%$%$%$%$%$&$&$&$&$&$&$Y#Y#Y#Y#Y#*$*$*$*$*$*$=$=$=$=$=$=$#@#@#@#@#@#@-$-$-$-$-$-$;$;$;$;$;$>$>$>$>$>$>$,$,$,$,$,$,$'$'$'$'$'$'$)$)$)$)$)$)$!$!$!$!$!$!$",
"R#R#R#R#R#S#S#S#S#S#S#D D D D D D T#T#T#T#T#T#U#U#U#U#U#U#V#V#V#V#V#W#W#W#W#W#W#X#X#X#X#X#X#]@]@]@]@]@]@Y#Y#Y#Y#Y#Y#Z#Z#Z#Z#Z#`#`#`#`#`#`# $ $ $ $ $ $.$.$.$.$.$.$+$+$+$+$+$+$@$@$@$@$@$#$#$#$#$#$#$$$$$$$$$$$$$%$%$%$%$%$%$&$&$&$&$&$&$Y#Y#Y#Y#Y#*$*$*$*$*$*$=$=$=$=$=$=$#@#@#@#@#@#@-$-$-$-$-$-$;$;$;$;$;$>$>$>$>$>$>$,$,$,$,$,$,$'$'$'$'$'$'$)$)$)$)$)$)$!$!$!$!$!$!$",
"R#R#R#R#R#S#S#S#S#S#S#D D D D D D T#T#T#T#T#T#U#U#U#U#U#U#V#V#V#V#V#W#W#W#W#W#W#X#X#X#X#X#X#]@]@]@]@]@]@Y#Y#Y#Y#Y#Y#Z#Z#Z#Z#Z#`#`#`#`#`#`# $ $ $ $ $ $.$.$.$.$.$.$+$+$+$+$+$+$@$@$@$@$@$#$#$#$#$#$#$$$$$$$$$$$$$%$%$%$%$%$%$&$&$&$&$&$&$Y#Y#Y#Y#Y#*$*$*$*$*$*$=$=$=$=$=$=$#@#@#@#@#@#@-$-$-$-$-$-$;$;$;$;$;$>$>$>$>$>$>$,$,$,$,$,$,$'$'$'$'$'$'$)$)$)$)$)$)$!$!$!$!$!$!$",
"R#R#R#R#R#S#S#S#S#S#S#D D D D D D T#T#T#T#T#T#U#U#U#U#U#U#V#V#V#V#V#W#W#W#W#W#W#X#X#X#X#X#X#]@]@]@]@]@]@Y#Y#Y#Y#Y#Y#Z#Z#Z#Z#Z#`#`#`#`#`#`# $ $ $ $ $ $.$.$.$.$.$.$+$+$+$+$+$+$@$@$@$@$@$#$#$#$#$#$#$$$$$$$$$$$$$%$%$%$%$%$%$&$&$&$&$&$&$Y#Y#Y#Y#Y#*$*$*$*$*$*$=$=$=$=$=$=$#@#@#@#@#@#@-$-$-$-$-$-$;$;$;$;$;$>$>$>$>$>$>$,$,$,$,$,$,$'$'$'$'$'$'$)$)$)$)$)$)$!$!$!$!$!$!$",
"R#R#R#R#R#S#S#S#S#S#S#D D D D D D T#T#T#T#T#T#U#U#U#U#U#U#V#V#V#V#V#W#W#W#W#W#W#X#X#X#X#X#X#]@]@]@]@]@]@Y#Y#Y#Y#Y#Y#Z#Z#Z#Z#Z#`#`#`#`#`#`# $ $ $ $ $ $.$.$.$.$.$.$+$+$+$+$+$+$@$@$@$@$@$#$#$#$#$#$#$$$$$$$$$$$$$%$%$%$%$%$%$&$&$&$&$&$&$Y#Y#Y#Y#Y#*$*$*$*$*$*$=$=$=$=$=$=$#@#@#@#@#@#@-$-$-$-$-$-$;$;$;$;$;$>$>$>$>$>$>$,$,$,$,$,$,$'$'$'$'$'$'$)$)$)$)$)$)$!$!$!$!$!$!$",
"R#R#R#R#R#S#S#S#S#S#S#D D D D D D T#T#T#T#T#T#U#U#U#U#U#U#V#V#V#V#V#W#W#W#W#W#W#X#X#X#X#X#X#]@]@]@]@]@]@Y#Y#Y#Y#Y#Y#Z#Z#Z#Z#Z#`#`#`#`#`#`# $ $ $ $ $ $.$.$.$.$.$.$+$+$+$+$+$+$@$@$@$@$@$#$#$#$#$#$#$$$$$$$$$$$$$%$%$%$%$%$%$&$&$&$&$&$&$Y#Y#Y#Y#Y#*$*$*$*$*$*$=$=$=$=$=$=$#@#@#@#@#@#@-$-$-$-$-$-$;$;$;$;$;$>$>$>$>$>$>$,$,$,$,$,$,$'$'$'$'$'$'$)$)$)$)$)$)$!$!$!$!$!$!$",
"~$~$~$~$~${${${${${${$]$]$]$]$]$]$^$^$^$^$^$^$/$/$/$/$/$/$($($($($($_$_$_$_$_$_$:$:$:$:$:$:$<$<$<$<$<$<$[$[$[$[$[$[$}$}$}$}$}$|$|$|$|$|$|$1$1$1$1$1$1$2$2$2$2$2$2$3$3$3$3$3$3$4$4$4$4$4$5$5$5$5$5$5$6$6$6$6$6$6$7$7$7$7$7$7$8$8$8$8$8$8$9$9$9$9$9$0$0$0$0$0$0$a$a$a$a$a$a$b$b$b$b$b$b$c$c$c$c$c$c$d$d$d$d$d$e@e@e@e@e@e@e$e$e$e$e$e$f$f$f$f$f$f$g$g$g$g$g$g$h$h$h$h$h$h$",
"~$~$~$~$~${${${${${${$]$]$]$]$]$]$^$^$^$^$^$^$/$/$/$/$/$/$($($($($($_$_$_$_$_$_$:$:$:$:$:$:$<$<$<$<$<$<$[$[$[$[$[$[$}$}$}$}$}$|$|$|$|$|$|$1$1$1$1$1$1$2$2$2$2$2$2$3$3$3$3$3$3$4$4$4$4$4$5$5$5$5$5$5$6$6$6$6$6$6$7$7$7$7$7$7$8$8$8$8$8$8$9$9$9$9$9$0$0$0$0$0$0$a$a$a$a$a$a$b$b$b$b$b$b$c$c$c$c$c$c$d$d$d$d$d$e@e@e@e@e@e@e$e$e$e$e$e$f$f$f$f$f$f$g$g$g$g$g$g$h$h$h$h$h$h$",
"~$~$~$~$~${${${${${${$]$]$]$]$]$]$^$^$^$^$^$^$/$/$/$/$/$/$($($($($($_$_$_$_$_$_$:$:$:$:$:$:$<$<$<$<$<$<$[$[$[$[$[$[$}$}$}$}$}$|$|$|$|$|$|$1$1$1$1$1$1$2$2$2$2$2$2$3$3$3$3$3$3$4$4$4$4$4$5$5$5$5$5$5$6$6$6$6$6$6$7$7$7$7$7$7$8$8$8$8$8$8$9$9$9$9$9$0$0$0$0$0$0$a$a$a$a$a$a$b$b$b$b$b$b$c$c$c$c$c$c$d$d$d$d$d$e@e@e@e@e@e@e$e$e$e$e$e$f$f$f$f$f$f$g$g$g$g$g$g$h$h$h$h$h$h$",
"~$~$~$~$~${${${${${${$]$]$]$]$]$]$^$^$^$^$^$^$/$/$/$/$/$/$($($($($($_$_$_$_$_$_$:$:$:$:$:$:$<$<$<$<$<$<$[$[$[$[$[$[$}$}$}$}$}$|$|$|$|$|$|$1$1$1$1$1$1$2$2$2$2$2$2$3$3$3$3$3$3$4$4$4$4$4$5$5$5$5$5$5$6$6$6$6$6$6$7$7$7$7$7$7$8$8$8$8$8$8$9$9$9$9$9$0$0$0$0$0$0$a$a$a$a$a$a$b$b$b$b$b$b$c$c$c$c$c$c$d$d$d$d$d$e@e@e@e@e@e@e$e$e$e$e$e$f$f$f$f$f$f$g$g$g$g$g$g$h$h$h$h$h$h$",
"~$~$~$~$~${${${${${${$]$]$]$]$]$]$^$^$^$^$^$^$/$/$/$/$/$/$($($($($($_$_$_$_$_$_$:$:$:$:$:$:$<$<$<$<$<$<$[$[$[$[$[$[$}$}$}$}$}$|$|$|$|$|$|$1$1$1$1$1$1$2$2$2$2$2$2$3$3$3$3$3$3$4$4$4$4$4$5$5$5$5$5$5$6$6$6$6$6$6$7$7$7$7$7$7$8$8$8$8$8$8$9$9$9$9$9$0$0$0$0$0$0$a$a$a$a$a$a$b$b$b$b$b$b$c$c$c$c$c$c$d$d$d$d$d$e@e@e@e@e@e@e$e$e$e$e$e$f$f$f$f$f$f$g$g$g$g$g$g$h$h$h$h$h$h$",
"i$i$i$i$i$j$j$j$j$j$j$k$k$k$k$k$k$l$l$l$l$l$l$m$m$m$m$m$m$n$n$n$n$n$o$o$o$o$o$o$p$p$p$p$p$p$q$q$q$q$q$q$r$r$r$r$r$r$4@4@4@4@4@s$s$s$s$s$s$t$t$t$t$t$t$u$u$u$u$u$u$-+-+-+-+-+-+9$9$9$9$9$v$v$v$v$v$v$w$w$w$w$w$w$r$r$r$r$r$r$x$x$x$x$x$x$b@b@b@b@b@y$y$y$y$y$y$z$z$z$z$z$z$A$A$A$A$A$A$B$B$B$B$B$B$C$C$C$C$C$D$D$D$D$D$D$E$E$E$E$E$E$F$F$F$F$F$F$G$G$G$G$G$G$H$H$H$H$H$H$",
"i$i$i$i$i$j$j$j$j$j$j$k$k$k$k$k$k$l$l$l$l$l$l$m$m$m$m$m$m$n$n$n$n$n$o$o$o$o$o$o$p$p$p$p$p$p$q$q$q$q$q$q$r$r$r$r$r$r$4@4@4@4@4@s$s$s$s$s$s$t$t$t$t$t$t$u$u$u$u$u$u$-+-+-+-+-+-+9$9$9$9$9$v$v$v$v$v$v$w$w$w$w$w$w$r$r$r$r$r$r$x$x$x$x$x$x$b@b@b@b@b@y$y$y$y$y$y$z$z$z$z$z$z$A$A$A$A$A$A$B$B$B$B$B$B$C$C$C$C$C$D$D$D$D$D$D$E$E$E$E$E$E$F$F$F$F$F$F$G$G$G$G$G$G$H$H$H$H$H$H$",
"i$i$i$i$i$j$j$j$j$j$j$k$k$k$k$k$k$l$l$l$l$l$l$m$m$m$m$m$m$n$n$n$n$n$o$o$o$o$o$o$p$p$p$p$p$p$q$q$q$q$q$q$r$r$r$r$r$r$4@4@4@4@4@s$s$s$s$s$s$t$t$t$t$t$t$u$u$u$u$u$u$-+-+-+-+-+-+9$9$9$9$9$v$v$v$v$v$v$w$w$w$w$w$w$r$r$r$r$r$r$x$x$x$x$x$x$b@b@b@b@b@y$y$y$y$y$y$z$z$z$z$z$z$A$A$A$A$A$A$B$B$B$B$B$B$C$C$C$C$C$D$D$D$D$D$D$E$E$E$E$E$E$F$F$F$F$F$F$G$G$G$G$G$G$H$H$H$H$H$H$",
"i$i$i$i$i$j$j$j$j$j$j$k$k$k$k$k$k$l$l$l$l$l$l$m$m$m$m$m$m$n$n$n$n$n$o$o$o$o$o$o$p$p$p$p$p$p$q$q$q$q$q$q$r$r$r$r$r$r$4@4@4@4@4@s$s$s$s$s$s$t$t$t$t$t$t$u$u$u$u$u$u$-+-+-+-+-+-+9$9$9$9$9$v$v$v$v$v$v$w$w$w$w$w$w$r$r$r$r$r$r$x$x$x$x$x$x$b@b@b@b@b@y$y$y$y$y$y$z$z$z$z$z$z$A$A$A$A$A$A$B$B$B$B$B$B$C$C$C$C$C$D$D$D$D$D$D$E$E$E$E$E$E$F$F$F$F$F$F$G$G$G$G$G$G$H$H$H$H$H$H$",
"i$i$i$i$i$j$j$j$j$j$j$k$k$k$k$k$k$l$l$l$l$l$l$m$m$m$m$m$m$n$n$n$n$n$o$o$o$o$o$o$p$p$p$p$p$p$q$q$q$q$q$q$r$r$r$r$r$r$4@4@4@4@4@s$s$s$s$s$s$t$t$t$t$t$t$u$u$u$u$u$u$-+-+-+-+-+-+9$9$9$9$9$v$v$v$v$v$v$w$w$w$w$w$w$r$r$r$r$r$r$x$x$x$x$x$x$b@b@b@b@b@y$y$y$y$y$y$z$z$z$z$z$z$A$A$A$A$A$A$B$B$B$B$B$B$C$C$C$C$C$D$D$D$D$D$D$E$E$E$E$E$E$F$F$F$F$F$F$G$G$G$G$G$G$H$H$H$H$H$H$",
"i$i$i$i$i$j$j$j$j$j$j$k$k$k$k$k$k$l$l$l$l$l$l$m$m$m$m$m$m$n$n$n$n$n$o$o$o$o$o$o$p$p$p$p$p$p$q$q$q$q$q$q$r$r$r$r$r$r$4@4@4@4@4@s$s$s$s$s$s$t$t$t$t$t$t$u$u$u$u$u$u$-+-+-+-+-+-+9$9$9$9$9$v$v$v$v$v$v$w$w$w$w$w$w$r$r$r$r$r$r$x$x$x$x$x$x$b@b@b@b@b@y$y$y$y$y$y$z$z$z$z$z$z$A$A$A$A$A$A$B$B$B$B$B$B$C$C$C$C$C$D$D$D$D$D$D$E$E$E$E$E$E$F$F$F$F$F$F$G$G$G$G$G$G$H$H$H$H$H$H$",
"I$I$I$I$I$J$J$J$J$J$J$K$K$K$K$K$K$L$L$L$L$L$L$M$M$M$M$M$M$N$N$N$N$N$O$O$O$O$O$O$P$P$P$P$P$P$Q$Q$Q$Q$Q$Q$R$R$R$R$R$R$S$S$S$S$S$T$T$T$T$T$T$U$U$U$U$U$U$V$V$V$V$V$V$W$W$W$W$W$W$X$X$X$X$X$Y$Y$Y$Y$Y$Y$Z$Z$Z$Z$Z$Z$`$`$`$`$`$`$ % % % % % %n.n.n.n.n.d@d@d@d@d@d@d@d@d@d@d@d@.%.%.%.%.%.%R.R.R.R.R.R.|+|+|+|+|++%+%+%+%+%+%@%@%@%@%@%@%#%#%#%#%#%#%]#]#]#]#]#]#$%$%$%$%$%$%",
"I$I$I$I$I$J$J$J$J$J$J$K$K$K$K$K$K$L$L$L$L$L$L$M$M$M$M$M$M$N$N$N$N$N$O$O$O$O$O$O$P$P$P$P$P$P$Q$Q$Q$Q$Q$Q$R$R$R$R$R$R$S$S$S$S$S$T$T$T$T$T$T$U$U$U$U$U$U$V$V$V$V$V$V$W$W$W$W$W$W$X$X$X$X$X$Y$Y$Y$Y$Y$Y$Z$Z$Z$Z$Z$Z$`$`$`$`$`$`$ % % % % % %n.n.n.n.n.d@d@d@d@d@d@d@d@d@d@d@d@.%.%.%.%.%.%R.R.R.R.R.R.|+|+|+|+|++%+%+%+%+%+%@%@%@%@%@%@%#%#%#%#%#%#%]#]#]#]#]#]#$%$%$%$%$%$%",
"I$I$I$I$I$J$J$J$J$J$J$K$K$K$K$K$K$L$L$L$L$L$L$M$M$M$M$M$M$N$N$N$N$N$O$O$O$O$O$O$P$P$P$P$P$P$Q$Q$Q$Q$Q$Q$R$R$R$R$R$R$S$S$S$S$S$T$T$T$T$T$T$U$U$U$U$U$U$V$V$V$V$V$V$W$W$W$W$W$W$X$X$X$X$X$Y$Y$Y$Y$Y$Y$Z$Z$Z$Z$Z$Z$`$`$`$`$`$`$ % % % % % %n.n.n.n.n.d@d@d@d@d@d@d@d@d@d@d@d@.%.%.%.%.%.%R.R.R.R.R.R.|+|+|+|+|++%+%+%+%+%+%@%@%@%@%@%@%#%#%#%#%#%#%]#]#]#]#]#]#$%$%$%$%$%$%",
"I$I$I$I$I$J$J$J$J$J$J$K$K$K$K$K$K$L$L$L$L$L$L$M$M$M$M$M$M$N$N$N$N$N$O$O$O$O$O$O$P$P$P$P$P$P$Q$Q$Q$Q$Q$Q$R$R$R$R$R$R$S$S$S$S$S$T$T$T$T$T$T$U$U$U$U$U$U$V$V$V$V$V$V$W$W$W$W$W$W$X$X$X$X$X$Y$Y$Y$Y$Y$Y$Z$Z$Z$Z$Z$Z$`$`$`$`$`$`$ % % % % % %n.n.n.n.n.d@d@d@d@d@d@d@d@d@d@d@d@.%.%.%.%.%.%R.R.R.R.R.R.|+|+|+|+|++%+%+%+%+%+%@%@%@%@%@%@%#%#%#%#%#%#%]#]#]#]#]#]#$%$%$%$%$%$%",
"I$I$I$I$I$J$J$J$J$J$J$K$K$K$K$K$K$L$L$L$L$L$L$M$M$M$M$M$M$N$N$N$N$N$O$O$O$O$O$O$P$P$P$P$P$P$Q$Q$Q$Q$Q$Q$R$R$R$R$R$R$S$S$S$S$S$T$T$T$T$T$T$U$U$U$U$U$U$V$V$V$V$V$V$W$W$W$W$W$W$X$X$X$X$X$Y$Y$Y$Y$Y$Y$Z$Z$Z$Z$Z$Z$`$`$`$`$`$`$ % % % % % %n.n.n.n.n.d@d@d@d@d@d@d@d@d@d@d@d@.%.%.%.%.%.%R.R.R.R.R.R.|+|+|+|+|++%+%+%+%+%+%@%@%@%@%@%@%#%#%#%#%#%#%]#]#]#]#]#]#$%$%$%$%$%$%",
"I$I$I$I$I$J$J$J$J$J$J$K$K$K$K$K$K$L$L$L$L$L$L$M$M$M$M$M$M$N$N$N$N$N$O$O$O$O$O$O$P$P$P$P$P$P$Q$Q$Q$Q$Q$Q$R$R$R$R$R$R$S$S$S$S$S$T$T$T$T$T$T$U$U$U$U$U$U$V$V$V$V$V$V$W$W$W$W$W$W$X$X$X$X$X$Y$Y$Y$Y$Y$Y$Z$Z$Z$Z$Z$Z$`$`$`$`$`$`$ % % % % % %n.n.n.n.n.d@d@d@d@d@d@d@d@d@d@d@d@.%.%.%.%.%.%R.R.R.R.R.R.|+|+|+|+|++%+%+%+%+%+%@%@%@%@%@%@%#%#%#%#%#%#%]#]#]#]#]#]#$%$%$%$%$%$%",
"%%%%%%%%%%&%&%&%&%&%&%i@i@i@i@i@i@*%*%*%*%*%*%=%=%=%=%=%=%c c c c c ,+,+,+,+,+,+-%-%-%-%-%-%;%;%;%;%;%;%>%>%>%>%>%>%,%,%,%,%,%'%'%'%'%'%'%)%)%)%)%)%)%!%!%!%!%!%!%s+s+s+s+s+s+E#E#E#E#E#E E E E E E D D D D D D ~%~%~%~%~%~%{%{%{%{%{%{%]%]%]%]%]%^%^%^%^%^%^%V$V$V$V$V$V$,+,+,+,+,+,+/%/%/%/%/%/%:#:#:#:#:#a#a#a#a#a#a#{%{%{%{%{%{%(%(%(%(%(%(%f+f+f+f+f+f+_%_%_%_%_%_%",
"%%%%%%%%%%&%&%&%&%&%&%i@i@i@i@i@i@*%*%*%*%*%*%=%=%=%=%=%=%c c c c c ,+,+,+,+,+,+-%-%-%-%-%-%;%;%;%;%;%;%>%>%>%>%>%>%,%,%,%,%,%'%'%'%'%'%'%)%)%)%)%)%)%!%!%!%!%!%!%s+s+s+s+s+s+E#E#E#E#E#E E E E E E D D D D D D ~%~%~%~%~%~%{%{%{%{%{%{%]%]%]%]%]%^%^%^%^%^%^%V$V$V$V$V$V$,+,+,+,+,+,+/%/%/%/%/%/%:#:#:#:#:#a#a#a#a#a#a#{%{%{%{%{%{%(%(%(%(%(%(%f+f+f+f+f+f+_%_%_%_%_%_%",
"%%%%%%%%%%&%&%&%&%&%&%i@i@i@i@i@i@*%*%*%*%*%*%=%=%=%=%=%=%c c c c c ,+,+,+,+,+,+-%-%-%-%-%-%;%;%;%;%;%;%>%>%>%>%>%>%,%,%,%,%,%'%'%'%'%'%'%)%)%)%)%)%)%!%!%!%!%!%!%s+s+s+s+s+s+E#E#E#E#E#E E E E E E D D D D D D ~%~%~%~%~%~%{%{%{%{%{%{%]%]%]%]%]%^%^%^%^%^%^%V$V$V$V$V$V$,+,+,+,+,+,+/%/%/%/%/%/%:#:#:#:#:#a#a#a#a#a#a#{%{%{%{%{%{%(%(%(%(%(%(%f+f+f+f+f+f+_%_%_%_%_%_%",
"%%%%%%%%%%&%&%&%&%&%&%i@i@i@i@i@i@*%*%*%*%*%*%=%=%=%=%=%=%c c c c c ,+,+,+,+,+,+-%-%-%-%-%-%;%;%;%;%;%;%>%>%>%>%>%>%,%,%,%,%,%'%'%'%'%'%'%)%)%)%)%)%)%!%!%!%!%!%!%s+s+s+s+s+s+E#E#E#E#E#E E E E E E D D D D D D ~%~%~%~%~%~%{%{%{%{%{%{%]%]%]%]%]%^%^%^%^%^%^%V$V$V$V$V$V$,+,+,+,+,+,+/%/%/%/%/%/%:#:#:#:#:#a#a#a#a#a#a#{%{%{%{%{%{%(%(%(%(%(%(%f+f+f+f+f+f+_%_%_%_%_%_%",
"%%%%%%%%%%&%&%&%&%&%&%i@i@i@i@i@i@*%*%*%*%*%*%=%=%=%=%=%=%c c c c c ,+,+,+,+,+,+-%-%-%-%-%-%;%;%;%;%;%;%>%>%>%>%>%>%,%,%,%,%,%'%'%'%'%'%'%)%)%)%)%)%)%!%!%!%!%!%!%s+s+s+s+s+s+E#E#E#E#E#E E E E E E D D D D D D ~%~%~%~%~%~%{%{%{%{%{%{%]%]%]%]%]%^%^%^%^%^%^%V$V$V$V$V$V$,+,+,+,+,+,+/%/%/%/%/%/%:#:#:#:#:#a#a#a#a#a#a#{%{%{%{%{%{%(%(%(%(%(%(%f+f+f+f+f+f+_%_%_%_%_%_%",
"%%%%%%%%%%&%&%&%&%&%&%i@i@i@i@i@i@*%*%*%*%*%*%=%=%=%=%=%=%c c c c c ,+,+,+,+,+,+-%-%-%-%-%-%;%;%;%;%;%;%>%>%>%>%>%>%,%,%,%,%,%'%'%'%'%'%'%)%)%)%)%)%)%!%!%!%!%!%!%s+s+s+s+s+s+E#E#E#E#E#E E E E E E D D D D D D ~%~%~%~%~%~%{%{%{%{%{%{%]%]%]%]%]%^%^%^%^%^%^%V$V$V$V$V$V$,+,+,+,+,+,+/%/%/%/%/%/%:#:#:#:#:#a#a#a#a#a#a#{%{%{%{%{%{%(%(%(%(%(%(%f+f+f+f+f+f+_%_%_%_%_%_%",
"B+B+B+B+B+D D D D D D D D D D D D :%:%:%:%:%:%D D D D D D D D D D D <%<%<%<%<%<%[%[%[%[%[%[%}%}%}%}%}%}%n#n#n#n#n#n#D D D D D x x x x x x D D D D D D D D D D D D D D D D D D D D D D D D D D D D D D D D D D D |%|%|%|%|%|%f+f+f+f+f+f+I+I+I+I+I+w#w#w#w#w#w#x x x x x x 6#6#6#6#6#6#1%1%1%1%1%1%n#n#n#n#n#c#c#c#c#c#c#x x x x x x D D D D D D v#v#v#v#v#v#s+s+s+s+s+s+",
"B+B+B+B+B+D D D D D D D D D D D D :%:%:%:%:%:%D D D D D D D D D D D <%<%<%<%<%<%[%[%[%[%[%[%}%}%}%}%}%}%n#n#n#n#n#n#D D D D D x x x x x x D D D D D D D D D D D D D D D D D D D D D D D D D D D D D D D D D D D |%|%|%|%|%|%f+f+f+f+f+f+I+I+I+I+I+w#w#w#w#w#w#x x x x x x 6#6#6#6#6#6#1%1%1%1%1%1%n#n#n#n#n#c#c#c#c#c#c#x x x x x x D D D D D D v#v#v#v#v#v#s+s+s+s+s+s+",
"B+B+B+B+B+D D D D D D D D D D D D :%:%:%:%:%:%D D D D D D D D D D D <%<%<%<%<%<%[%[%[%[%[%[%}%}%}%}%}%}%n#n#n#n#n#n#D D D D D x x x x x x D D D D D D D D D D D D D D D D D D D D D D D D D D D D D D D D D D D |%|%|%|%|%|%f+f+f+f+f+f+I+I+I+I+I+w#w#w#w#w#w#x x x x x x 6#6#6#6#6#6#1%1%1%1%1%1%n#n#n#n#n#c#c#c#c#c#c#x x x x x x D D D D D D v#v#v#v#v#v#s+s+s+s+s+s+",
"B+B+B+B+B+D D D D D D D D D D D D :%:%:%:%:%:%D D D D D D D D D D D <%<%<%<%<%<%[%[%[%[%[%[%}%}%}%}%}%}%n#n#n#n#n#n#D D D D D x x x x x x D D D D D D D D D D D D D D D D D D D D D D D D D D D D D D D D D D D |%|%|%|%|%|%f+f+f+f+f+f+I+I+I+I+I+w#w#w#w#w#w#x x x x x x 6#6#6#6#6#6#1%1%1%1%1%1%n#n#n#n#n#c#c#c#c#c#c#x x x x x x D D D D D D v#v#v#v#v#v#s+s+s+s+s+s+",
"B+B+B+B+B+D D D D D D D D D D D D :%:%:%:%:%:%D D D D D D D D D D D <%<%<%<%<%<%[%[%[%[%[%[%}%}%}%}%}%}%n#n#n#n#n#n#D D D D D x x x x x x D D D D D D D D D D D D D D D D D D D D D D D D D D D D D D D D D D D |%|%|%|%|%|%f+f+f+f+f+f+I+I+I+I+I+w#w#w#w#w#w#x x x x x x 6#6#6#6#6#6#1%1%1%1%1%1%n#n#n#n#n#c#c#c#c#c#c#x x x x x x D D D D D D v#v#v#v#v#v#s+s+s+s+s+s+",
"B+B+B+B+B+D D D D D D D D D D D D :%:%:%:%:%:%D D D D D D D D D D D <%<%<%<%<%<%[%[%[%[%[%[%}%}%}%}%}%}%n#n#n#n#n#n#D D D D D x x x x x x D D D D D D D D D D D D D D D D D D D D D D D D D D D D D D D D D D D |%|%|%|%|%|%f+f+f+f+f+f+I+I+I+I+I+w#w#w#w#w#w#x x x x x x 6#6#6#6#6#6#1%1%1%1%1%1%n#n#n#n#n#c#c#c#c#c#c#x x x x x x D D D D D D v#v#v#v#v#v#s+s+s+s+s+s+",
"B+B+B+B+B+D D D D D D D D D D D D c+c+c+c+c+c+D D D D D D D D D D D N N N N N N 2%2%2%2%2%2%{#{#{#{#{#{#q q q q q q p+p+p+p+p+f+f+f+f+f+f+D D D D D D D D D D D D D D D D D D D D D D D D D D D D D D D D D D D N N N N N N N N N N N N E E E E E r+r+r+r+r+r+f+f+f+f+f+f+3%3%3%3%3%3%4%4%4%4%4%4%<%<%<%<%<%c#c#c#c#c#c#c+c+c+c+c+c+D D D D D D N N N N N N I+I+I+I+I+I+",
"B+B+B+B+B+D D D D D D D D D D D D c+c+c+c+c+c+D D D D D D D D D D D N N N N N N 2%2%2%2%2%2%{#{#{#{#{#{#q q q q q q p+p+p+p+p+f+f+f+f+f+f+D D D D D D D D D D D D D D D D D D D D D D D D D D D D D D D D D D D N N N N N N N N N N N N E E E E E r+r+r+r+r+r+f+f+f+f+f+f+3%3%3%3%3%3%4%4%4%4%4%4%<%<%<%<%<%c#c#c#c#c#c#c+c+c+c+c+c+D D D D D D N N N N N N I+I+I+I+I+I+",
"B+B+B+B+B+D D D D D D D D D D D D c+c+c+c+c+c+D D D D D D D D D D D N N N N N N 2%2%2%2%2%2%{#{#{#{#{#{#q q q q q q p+p+p+p+p+f+f+f+f+f+f+D D D D D D D D D D D D D D D D D D D D D D D D D D D D D D D D D D D N N N N N N N N N N N N E E E E E r+r+r+r+r+r+f+f+f+f+f+f+3%3%3%3%3%3%4%4%4%4%4%4%<%<%<%<%<%c#c#c#c#c#c#c+c+c+c+c+c+D D D D D D N N N N N N I+I+I+I+I+I+",
"B+B+B+B+B+D D D D D D D D D D D D c+c+c+c+c+c+D D D D D D D D D D D N N N N N N 2%2%2%2%2%2%{#{#{#{#{#{#q q q q q q p+p+p+p+p+f+f+f+f+f+f+D D D D D D D D D D D D D D D D D D D D D D D D D D D D D D D D D D D N N N N N N N N N N N N E E E E E r+r+r+r+r+r+f+f+f+f+f+f+3%3%3%3%3%3%4%4%4%4%4%4%<%<%<%<%<%c#c#c#c#c#c#c+c+c+c+c+c+D D D D D D N N N N N N I+I+I+I+I+I+",
"B+B+B+B+B+D D D D D D D D D D D D c+c+c+c+c+c+D D D D D D D D D D D N N N N N N 2%2%2%2%2%2%{#{#{#{#{#{#q q q q q q p+p+p+p+p+f+f+f+f+f+f+D D D D D D D D D D D D D D D D D D D D D D D D D D D D D D D D D D D N N N N N N N N N N N N E E E E E r+r+r+r+r+r+f+f+f+f+f+f+3%3%3%3%3%3%4%4%4%4%4%4%<%<%<%<%<%c#c#c#c#c#c#c+c+c+c+c+c+D D D D D D N N N N N N I+I+I+I+I+I+",
"5%5%5%5%5%6%6%6%6%6%6%{@{@{@{@{@{@7%7%7%7%7%7%8%8%8%8%8%8%y y y y y [.[.[.[.[.[.9%9%9%9%9%9%>@>@>@>@>@>@2@2@2@2@2@2@'%'%'%'%'%0%0%0%0%0%0%a%a%a%a%a%a%,.,.,.,.,.,.b%b%b%b%b%b%c%c%c%c%c%,.,.,.,.,.,.b.b.b.b.b.b.b.b.b.b.b.b.D D D D D D b.b.b.b.b.d%d%d%d%d%d%e%e%e%e%e%e%f%f%f%f%f%f%,#,#,#,#,#,#g%g%g%g%g%h%h%h%h%h%h%N N N N N N i%i%i%i%i%i%,.,.,.,.,.,.j%j%j%j%j%j%",
"5%5%5%5%5%6%6%6%6%6%6%{@{@{@{@{@{@7%7%7%7%7%7%8%8%8%8%8%8%y y y y y [.[.[.[.[.[.9%9%9%9%9%9%>@>@>@>@>@>@2@2@2@2@2@2@'%'%'%'%'%0%0%0%0%0%0%a%a%a%a%a%a%,.,.,.,.,.,.b%b%b%b%b%b%c%c%c%c%c%,.,.,.,.,.,.b.b.b.b.b.b.b.b.b.b.b.b.D D D D D D b.b.b.b.b.d%d%d%d%d%d%e%e%e%e%e%e%f%f%f%f%f%f%,#,#,#,#,#,#g%g%g%g%g%h%h%h%h%h%h%N N N N N N i%i%i%i%i%i%,.,.,.,.,.,.j%j%j%j%j%j%",
"5%5%5%5%5%6%6%6%6%6%6%{@{@{@{@{@{@7%7%7%7%7%7%8%8%8%8%8%8%y y y y y [.[.[.[.[.[.9%9%9%9%9%9%>@>@>@>@>@>@2@2@2@2@2@2@'%'%'%'%'%0%0%0%0%0%0%a%a%a%a%a%a%,.,.,.,.,.,.b%b%b%b%b%b%c%c%c%c%c%,.,.,.,.,.,.b.b.b.b.b.b.b.b.b.b.b.b.D D D D D D b.b.b.b.b.d%d%d%d%d%d%e%e%e%e%e%e%f%f%f%f%f%f%,#,#,#,#,#,#g%g%g%g%g%h%h%h%h%h%h%N N N N N N i%i%i%i%i%i%,.,.,.,.,.,.j%j%j%j%j%j%",
"5%5%5%5%5%6%6%6%6%6%6%{@{@{@{@{@{@7%7%7%7%7%7%8%8%8%8%8%8%y y y y y [.[.[.[.[.[.9%9%9%9%9%9%>@>@>@>@>@>@2@2@2@2@2@2@'%'%'%'%'%0%0%0%0%0%0%a%a%a%a%a%a%,.,.,.,.,.,.b%b%b%b%b%b%c%c%c%c%c%,.,.,.,.,.,.b.b.b.b.b.b.b.b.b.b.b.b.D D D D D D b.b.b.b.b.d%d%d%d%d%d%e%e%e%e%e%e%f%f%f%f%f%f%,#,#,#,#,#,#g%g%g%g%g%h%h%h%h%h%h%N N N N N N i%i%i%i%i%i%,.,.,.,.,.,.j%j%j%j%j%j%",
"5%5%5%5%5%6%6%6%6%6%6%{@{@{@{@{@{@7%7%7%7%7%7%8%8%8%8%8%8%y y y y y [.[.[.[.[.[.9%9%9%9%9%9%>@>@>@>@>@>@2@2@2@2@2@2@'%'%'%'%'%0%0%0%0%0%0%a%a%a%a%a%a%,.,.,.,.,.,.b%b%b%b%b%b%c%c%c%c%c%,.,.,.,.,.,.b.b.b.b.b.b.b.b.b.b.b.b.D D D D D D b.b.b.b.b.d%d%d%d%d%d%e%e%e%e%e%e%f%f%f%f%f%f%,#,#,#,#,#,#g%g%g%g%g%h%h%h%h%h%h%N N N N N N i%i%i%i%i%i%,.,.,.,.,.,.j%j%j%j%j%j%",
"5%5%5%5%5%6%6%6%6%6%6%{@{@{@{@{@{@7%7%7%7%7%7%8%8%8%8%8%8%y y y y y [.[.[.[.[.[.9%9%9%9%9%9%>@>@>@>@>@>@2@2@2@2@2@2@'%'%'%'%'%0%0%0%0%0%0%a%a%a%a%a%a%,.,.,.,.,.,.b%b%b%b%b%b%c%c%c%c%c%,.,.,.,.,.,.b.b.b.b.b.b.b.b.b.b.b.b.D D D D D D b.b.b.b.b.d%d%d%d%d%d%e%e%e%e%e%e%f%f%f%f%f%f%,#,#,#,#,#,#g%g%g%g%g%h%h%h%h%h%h%N N N N N N i%i%i%i%i%i%,.,.,.,.,.,.j%j%j%j%j%j%",
"k%k%k%k%k%l%l%l%l%l%l%m%m%m%m%m%m%n%n%n%n%n%n%o%o%o%o%o%o%4.4.4.4.4.p%p%p%p%p%p%q%q%q%q%q%q%r%r%r%r%r%r%s%s%s%s%s%s%Y Y Y Y Y t%t%t%t%t%t%u%u%u%u%u%u%Q Q Q Q Q Q v%v%v%v%v%v%w%w%w%w%w%x%x%x%x%x%x%y%y%y%y%y%y%z%z%z%z%z%z%c+c+c+c+c+c+3.3.3.3.3.A%A%A%A%A%A%B%B%B%B%B%B%C%C%C%C%C%C%D%D%D%D%D%D%E%E%E%E%E%F%F%F%F%F%F%G%G%G%G%G%G%H%H%H%H%H%H%I%I%I%I%I%I%J%J%J%J%J%J%",
"k%k%k%k%k%l%l%l%l%l%l%m%m%m%m%m%m%n%n%n%n%n%n%o%o%o%o%o%o%4.4.4.4.4.p%p%p%p%p%p%q%q%q%q%q%q%r%r%r%r%r%r%s%s%s%s%s%s%Y Y Y Y Y t%t%t%t%t%t%u%u%u%u%u%u%Q Q Q Q Q Q v%v%v%v%v%v%w%w%w%w%w%x%x%x%x%x%x%y%y%y%y%y%y%z%z%z%z%z%z%c+c+c+c+c+c+3.3.3.3.3.A%A%A%A%A%A%B%B%B%B%B%B%C%C%C%C%C%C%D%D%D%D%D%D%E%E%E%E%E%F%F%F%F%F%F%G%G%G%G%G%G%H%H%H%H%H%H%I%I%I%I%I%I%J%J%J%J%J%J%",
"k%k%k%k%k%l%l%l%l%l%l%m%m%m%m%m%m%n%n%n%n%n%n%o%o%o%o%o%o%4.4.4.4.4.p%p%p%p%p%p%q%q%q%q%q%q%r%r%r%r%r%r%s%s%s%s%s%s%Y Y Y Y Y t%t%t%t%t%t%u%u%u%u%u%u%Q Q Q Q Q Q v%v%v%v%v%v%w%w%w%w%w%x%x%x%x%x%x%y%y%y%y%y%y%z%z%z%z%z%z%c+c+c+c+c+c+3.3.3.3.3.A%A%A%A%A%A%B%B%B%B%B%B%C%C%C%C%C%C%D%D%D%D%D%D%E%E%E%E%E%F%F%F%F%F%F%G%G%G%G%G%G%H%H%H%H%H%H%I%I%I%I%I%I%J%J%J%J%J%J%",
"k%k%k%k%k%l%l%l%l%l%l%m%m%m%m%m%m%n%n%n%n%n%n%o%o%o%o%o%o%4.4.4.4.4.p%p%p%p%p%p%q%q%q%q%q%q%r%r%r%r%r%r%s%s%s%s%s%s%Y Y Y Y Y t%t%t%t%t%t%u%u%u%u%u%u%Q Q Q Q Q Q v%v%v%v%v%v%w%w%w%w%w%x%x%x%x%x%x%y%y%y%y%y%y%z%z%z%z%z%z%c+c+c+c+c+c+3.3.3.3.3.A%A%A%A%A%A%B%B%B%B%B%B%C%C%C%C%C%C%D%D%D%D%D%D%E%E%E%E%E%F%F%F%F%F%F%G%G%G%G%G%G%H%H%H%H%H%H%I%I%I%I%I%I%J%J%J%J%J%J%",
"k%k%k%k%k%l%l%l%l%l%l%m%m%m%m%m%m%n%n%n%n%n%n%o%o%o%o%o%o%4.4.4.4.4.p%p%p%p%p%p%q%q%q%q%q%q%r%r%r%r%r%r%s%s%s%s%s%s%Y Y Y Y Y t%t%t%t%t%t%u%u%u%u%u%u%Q Q Q Q Q Q v%v%v%v%v%v%w%w%w%w%w%x%x%x%x%x%x%y%y%y%y%y%y%z%z%z%z%z%z%c+c+c+c+c+c+3.3.3.3.3.A%A%A%A%A%A%B%B%B%B%B%B%C%C%C%C%C%C%D%D%D%D%D%D%E%E%E%E%E%F%F%F%F%F%F%G%G%G%G%G%G%H%H%H%H%H%H%I%I%I%I%I%I%J%J%J%J%J%J%",
"k%k%k%k%k%l%l%l%l%l%l%m%m%m%m%m%m%n%n%n%n%n%n%o%o%o%o%o%o%4.4.4.4.4.p%p%p%p%p%p%q%q%q%q%q%q%r%r%r%r%r%r%s%s%s%s%s%s%Y Y Y Y Y t%t%t%t%t%t%u%u%u%u%u%u%Q Q Q Q Q Q v%v%v%v%v%v%w%w%w%w%w%x%x%x%x%x%x%y%y%y%y%y%y%z%z%z%z%z%z%c+c+c+c+c+c+3.3.3.3.3.A%A%A%A%A%A%B%B%B%B%B%B%C%C%C%C%C%C%D%D%D%D%D%D%E%E%E%E%E%F%F%F%F%F%F%G%G%G%G%G%G%H%H%H%H%H%H%I%I%I%I%I%I%J%J%J%J%J%J%",
"m m m m m 6+6+6+6+6+6+K%K%K%K%K%K%b.b.b.b.b.b.Q Q Q Q Q Q L%L%L%L%L%v.v.v.v.v.v.M%M%M%M%M%M%X.X.X.X.X.X./%/%/%/%/%/%]@]@]@]@]@N%N%N%N%N%N%O%O%O%O%O%O%j@j@j@j@j@j@P%P%P%P%P%P%Q%Q%Q%Q%Q%R%R%R%R%R%R%S%S%S%S%S%S%T%T%T%T%T%T%U%U%U%U%U%U%V%V%V%V%V%F#F#F#F#F#F#W%W%W%W%W%W%X%X%X%X%X%X%/#/#/#/#/#/#Y%Y%Y%Y%Y%Z%Z%Z%Z%Z%Z%`%`%`%`%`%`% & & & & & &{.{.{.{.{.{..&.&.&.&.&.&",
"m m m m m 6+6+6+6+6+6+K%K%K%K%K%K%b.b.b.b.b.b.Q Q Q Q Q Q L%L%L%L%L%v.v.v.v.v.v.M%M%M%M%M%M%X.X.X.X.X.X./%/%/%/%/%/%]@]@]@]@]@N%N%N%N%N%N%O%O%O%O%O%O%j@j@j@j@j@j@P%P%P%P%P%P%Q%Q%Q%Q%Q%R%R%R%R%R%R%S%S%S%S%S%S%T%T%T%T%T%T%U%U%U%U%U%U%V%V%V%V%V%F#F#F#F#F#F#W%W%W%W%W%W%X%X%X%X%X%X%/#/#/#/#/#/#Y%Y%Y%Y%Y%Z%Z%Z%Z%Z%Z%`%`%`%`%`%`% & & & & & &{.{.{.{.{.{..&.&.&.&.&.&",
"m m m m m 6+6+6+6+6+6+K%K%K%K%K%K%b.b.b.b.b.b.Q Q Q Q Q Q L%L%L%L%L%v.v.v.v.v.v.M%M%M%M%M%M%X.X.X.X.X.X./%/%/%/%/%/%]@]@]@]@]@N%N%N%N%N%N%O%O%O%O%O%O%j@j@j@j@j@j@P%P%P%P%P%P%Q%Q%Q%Q%Q%R%R%R%R%R%R%S%S%S%S%S%S%T%T%T%T%T%T%U%U%U%U%U%U%V%V%V%V%V%F#F#F#F#F#F#W%W%W%W%W%W%X%X%X%X%X%X%/#/#/#/#/#/#Y%Y%Y%Y%Y%Z%Z%Z%Z%Z%Z%`%`%`%`%`%`% & & & & & &{.{.{.{.{.{..&.&.&.&.&.&",
"m m m m m 6+6+6+6+6+6+K%K%K%K%K%K%b.b.b.b.b.b.Q Q Q Q Q Q L%L%L%L%L%v.v.v.v.v.v.M%M%M%M%M%M%X.X.X.X.X.X./%/%/%/%/%/%]@]@]@]@]@N%N%N%N%N%N%O%O%O%O%O%O%j@j@j@j@j@j@P%P%P%P%P%P%Q%Q%Q%Q%Q%R%R%R%R%R%R%S%S%S%S%S%S%T%T%T%T%T%T%U%U%U%U%U%U%V%V%V%V%V%F#F#F#F#F#F#W%W%W%W%W%W%X%X%X%X%X%X%/#/#/#/#/#/#Y%Y%Y%Y%Y%Z%Z%Z%Z%Z%Z%`%`%`%`%`%`% & & & & & &{.{.{.{.{.{..&.&.&.&.&.&",
"m m m m m 6+6+6+6+6+6+K%K%K%K%K%K%b.b.b.b.b.b.Q Q Q Q Q Q L%L%L%L%L%v.v.v.v.v.v.M%M%M%M%M%M%X.X.X.X.X.X./%/%/%/%/%/%]@]@]@]@]@N%N%N%N%N%N%O%O%O%O%O%O%j@j@j@j@j@j@P%P%P%P%P%P%Q%Q%Q%Q%Q%R%R%R%R%R%R%S%S%S%S%S%S%T%T%T%T%T%T%U%U%U%U%U%U%V%V%V%V%V%F#F#F#F#F#F#W%W%W%W%W%W%X%X%X%X%X%X%/#/#/#/#/#/#Y%Y%Y%Y%Y%Z%Z%Z%Z%Z%Z%`%`%`%`%`%`% & & & & & &{.{.{.{.{.{..&.&.&.&.&.&",
"m m m m m 6+6+6+6+6+6+K%K%K%K%K%K%b.b.b.b.b.b.Q Q Q Q Q Q L%L%L%L%L%v.v.v.v.v.v.M%M%M%M%M%M%X.X.X.X.X.X./%/%/%/%/%/%]@]@]@]@]@N%N%N%N%N%N%O%O%O%O%O%O%j@j@j@j@j@j@P%P%P%P%P%P%Q%Q%Q%Q%Q%R%R%R%R%R%R%S%S%S%S%S%S%T%T%T%T%T%T%U%U%U%U%U%U%V%V%V%V%V%F#F#F#F#F#F#W%W%W%W%W%W%X%X%X%X%X%X%/#/#/#/#/#/#Y%Y%Y%Y%Y%Z%Z%Z%Z%Z%Z%`%`%`%`%`%`% & & & & & &{.{.{.{.{.{..&.&.&.&.&.&",
"+&+&+&+&+&E.E.E.E.E.E.@&@&@&@&@&@&D.D.D.D.D.D.#&#&#&#&#&#&$&$&$&$&$&%&%&%&%&%&%&&&&&&&&&&&&&*&*&*&*&*&*&=&=&=&=&=&=&-&-&-&-&-&;&;&;&;&;&;&>&>&>&>&>&>&,&,&,&,&,&,&'&'&'&'&'&'&)&)&)&)&)&!&!&!&!&!&!&%&%&%&%&%&%&f@f@f@f@f@f@~&~&~&~&~&~&{&{&{&{&{&]&]&]&]&]&]&^&^&^&^&^&^&J$J$J$J$J$J$/&/&/&/&/&/&(&(&(&(&(&_&_&_&_&_&_&<@<@<@<@<@<@:&:&:&:&:&:&<&<&<&<&<&<&[&[&[&[&[&[&",
"+&+&+&+&+&E.E.E.E.E.E.@&@&@&@&@&@&D.D.D.D.D.D.#&#&#&#&#&#&$&$&$&$&$&%&%&%&%&%&%&&&&&&&&&&&&&*&*&*&*&*&*&=&=&=&=&=&=&-&-&-&-&-&;&;&;&;&;&;&>&>&>&>&>&>&,&,&,&,&,&,&'&'&'&'&'&'&)&)&)&)&)&!&!&!&!&!&!&%&%&%&%&%&%&f@f@f@f@f@f@~&~&~&~&~&~&{&{&{&{&{&]&]&]&]&]&]&^&^&^&^&^&^&J$J$J$J$J$J$/&/&/&/&/&/&(&(&(&(&(&_&_&_&_&_&_&<@<@<@<@<@<@:&:&:&:&:&:&<&<&<&<&<&<&[&[&[&[&[&[&",
"+&+&+&+&+&E.E.E.E.E.E.@&@&@&@&@&@&D.D.D.D.D.D.#&#&#&#&#&#&$&$&$&$&$&%&%&%&%&%&%&&&&&&&&&&&&&*&*&*&*&*&*&=&=&=&=&=&=&-&-&-&-&-&;&;&;&;&;&;&>&>&>&>&>&>&,&,&,&,&,&,&'&'&'&'&'&'&)&)&)&)&)&!&!&!&!&!&!&%&%&%&%&%&%&f@f@f@f@f@f@~&~&~&~&~&~&{&{&{&{&{&]&]&]&]&]&]&^&^&^&^&^&^&J$J$J$J$J$J$/&/&/&/&/&/&(&(&(&(&(&_&_&_&_&_&_&<@<@<@<@<@<@:&:&:&:&:&:&<&<&<&<&<&<&[&[&[&[&[&[&",
"+&+&+&+&+&E.E.E.E.E.E.@&@&@&@&@&@&D.D.D.D.D.D.#&#&#&#&#&#&$&$&$&$&$&%&%&%&%&%&%&&&&&&&&&&&&&*&*&*&*&*&*&=&=&=&=&=&=&-&-&-&-&-&;&;&;&;&;&;&>&>&>&>&>&>&,&,&,&,&,&,&'&'&'&'&'&'&)&)&)&)&)&!&!&!&!&!&!&%&%&%&%&%&%&f@f@f@f@f@f@~&~&~&~&~&~&{&{&{&{&{&]&]&]&]&]&]&^&^&^&^&^&^&J$J$J$J$J$J$/&/&/&/&/&/&(&(&(&(&(&_&_&_&_&_&_&<@<@<@<@<@<@:&:&:&:&:&:&<&<&<&<&<&<&[&[&[&[&[&[&",
"+&+&+&+&+&E.E.E.E.E.E.@&@&@&@&@&@&D.D.D.D.D.D.#&#&#&#&#&#&$&$&$&$&$&%&%&%&%&%&%&&&&&&&&&&&&&*&*&*&*&*&*&=&=&=&=&=&=&-&-&-&-&-&;&;&;&;&;&;&>&>&>&>&>&>&,&,&,&,&,&,&'&'&'&'&'&'&)&)&)&)&)&!&!&!&!&!&!&%&%&%&%&%&%&f@f@f@f@f@f@~&~&~&~&~&~&{&{&{&{&{&]&]&]&]&]&]&^&^&^&^&^&^&J$J$J$J$J$J$/&/&/&/&/&/&(&(&(&(&(&_&_&_&_&_&_&<@<@<@<@<@<@:&:&:&:&:&:&<&<&<&<&<&<&[&[&[&[&[&[&",
"+&+&+&+&+&E.E.E.E.E.E.@&@&@&@&@&@&D.D.D.D.D.D.#&#&#&#&#&#&$&$&$&$&$&%&%&%&%&%&%&&&&&&&&&&&&&*&*&*&*&*&*&=&=&=&=&=&=&-&-&-&-&-&;&;&;&;&;&;&>&>&>&>&>&>&,&,&,&,&,&,&'&'&'&'&'&'&)&)&)&)&)&!&!&!&!&!&!&%&%&%&%&%&%&f@f@f@f@f@f@~&~&~&~&~&~&{&{&{&{&{&]&]&]&]&]&]&^&^&^&^&^&^&J$J$J$J$J$J$/&/&/&/&/&/&(&(&(&(&(&_&_&_&_&_&_&<@<@<@<@<@<@:&:&:&:&:&:&<&<&<&<&<&<&[&[&[&[&[&[&",
"}&}&}&}&}&|&|&|&|&|&|&1&1&1&1&1&1&2&2&2&2&2&2&3&3&3&3&3&3&4&4&4&4&4&5&5&5&5&5&5&6&6&6&6&6&6&7&7&7&7&7&7&8&8&8&8&8&8&9&9&9&9&9&(#(#(#(#(#(#z.z.z.z.z.z.0&0&0&0&0&0&a&a&a&a&a&a&b&b&b&b&b&c&c&c&c&c&c&Y.Y.Y.Y.Y.Y.d&d&d&d&d&d&e&e&e&e&e&e&1%1%1%1%1%}.}.}.}.}.}.f&f&f&f&f&f&D%D%D%D%D%D%g&g&g&g&g&g&)#)#)#)#)#)#)#)#)#)#)#Q#Q#Q#Q#Q#Q#h&h&h&h&h&h&i&i&i&i&i&i&j&j&j&j&j&j&",
"}&}&}&}&}&|&|&|&|&|&|&1&1&1&1&1&1&2&2&2&2&2&2&3&3&3&3&3&3&4&4&4&4&4&5&5&5&5&5&5&6&6&6&6&6&6&7&7&7&7&7&7&8&8&8&8&8&8&9&9&9&9&9&(#(#(#(#(#(#z.z.z.z.z.z.0&0&0&0&0&0&a&a&a&a&a&a&b&b&b&b&b&c&c&c&c&c&c&Y.Y.Y.Y.Y.Y.d&d&d&d&d&d&e&e&e&e&e&e&1%1%1%1%1%}.}.}.}.}.}.f&f&f&f&f&f&D%D%D%D%D%D%g&g&g&g&g&g&)#)#)#)#)#)#)#)#)#)#)#Q#Q#Q#Q#Q#Q#h&h&h&h&h&h&i&i&i&i&i&i&j&j&j&j&j&j&",
"}&}&}&}&}&|&|&|&|&|&|&1&1&1&1&1&1&2&2&2&2&2&2&3&3&3&3&3&3&4&4&4&4&4&5&5&5&5&5&5&6&6&6&6&6&6&7&7&7&7&7&7&8&8&8&8&8&8&9&9&9&9&9&(#(#(#(#(#(#z.z.z.z.z.z.0&0&0&0&0&0&a&a&a&a&a&a&b&b&b&b&b&c&c&c&c&c&c&Y.Y.Y.Y.Y.Y.d&d&d&d&d&d&e&e&e&e&e&e&1%1%1%1%1%}.}.}.}.}.}.f&f&f&f&f&f&D%D%D%D%D%D%g&g&g&g&g&g&)#)#)#)#)#)#)#)#)#)#)#Q#Q#Q#Q#Q#Q#h&h&h&h&h&h&i&i&i&i&i&i&j&j&j&j&j&j&",
"}&}&}&}&}&|&|&|&|&|&|&1&1&1&1&1&1&2&2&2&2&2&2&3&3&3&3&3&3&4&4&4&4&4&5&5&5&5&5&5&6&6&6&6&6&6&7&7&7&7&7&7&8&8&8&8&8&8&9&9&9&9&9&(#(#(#(#(#(#z.z.z.z.z.z.0&0&0&0&0&0&a&a&a&a&a&a&b&b&b&b&b&c&c&c&c&c&c&Y.Y.Y.Y.Y.Y.d&d&d&d&d&d&e&e&e&e&e&e&1%1%1%1%1%}.}.}.}.}.}.f&f&f&f&f&f&D%D%D%D%D%D%g&g&g&g&g&g&)#)#)#)#)#)#)#)#)#)#)#Q#Q#Q#Q#Q#Q#h&h&h&h&h&h&i&i&i&i&i&i&j&j&j&j&j&j&",
"}&}&}&}&}&|&|&|&|&|&|&1&1&1&1&1&1&2&2&2&2&2&2&3&3&3&3&3&3&4&4&4&4&4&5&5&5&5&5&5&6&6&6&6&6&6&7&7&7&7&7&7&8&8&8&8&8&8&9&9&9&9&9&(#(#(#(#(#(#z.z.z.z.z.z.0&0&0&0&0&0&a&a&a&a&a&a&b&b&b&b&b&c&c&c&c&c&c&Y.Y.Y.Y.Y.Y.d&d&d&d&d&d&e&e&e&e&e&e&1%1%1%1%1%}.}.}.}.}.}.f&f&f&f&f&f&D%D%D%D%D%D%g&g&g&g&g&g&)#)#)#)#)#)#)#)#)#)#)#Q#Q#Q#Q#Q#Q#h&h&h&h&h&h&i&i&i&i&i&i&j&j&j&j&j&j&",
"}&}&}&}&}&|&|&|&|&|&|&1&1&1&1&1&1&2&2&2&2&2&2&3&3&3&3&3&3&4&4&4&4&4&5&5&5&5&5&5&6&6&6&6&6&6&7&7&7&7&7&7&8&8&8&8&8&8&9&9&9&9&9&(#(#(#(#(#(#z.z.z.z.z.z.0&0&0&0&0&0&a&a&a&a&a&a&b&b&b&b&b&c&c&c&c&c&c&Y.Y.Y.Y.Y.Y.d&d&d&d&d&d&e&e&e&e&e&e&1%1%1%1%1%}.}.}.}.}.}.f&f&f&f&f&f&D%D%D%D%D%D%g&g&g&g&g&g&)#)#)#)#)#)#)#)#)#)#)#Q#Q#Q#Q#Q#Q#h&h&h&h&h&h&i&i&i&i&i&i&j&j&j&j&j&j&"};
