/* XPM */
static char * PixelTexture (17)_xpm[] = {
"180 180 615 2",
"  	c #826056",
". 	c #824938",
"+ 	c #94624B",
"@ 	c #8C4A34",
"# 	c #8A4130",
"$ 	c #894F37",
"% 	c #8F4D35",
"& 	c #4C3337",
"* 	c #4B3236",
"= 	c #BA876C",
"- 	c #914D36",
"; 	c #8E4E33",
"> 	c #85492D",
", 	c #927450",
"' 	c #726B35",
") 	c #8F5F39",
"! 	c #8E4D39",
"~ 	c #8F4D33",
"{ 	c #5C3633",
"] 	c #473036",
"^ 	c #825A4E",
"/ 	c #A36F4A",
"( 	c #56442E",
"_ 	c #524B31",
": 	c #6F562E",
"< 	c #A68653",
"[ 	c #854231",
"} 	c #835243",
"| 	c #9A6D56",
"1 	c #8C3F2D",
"2 	c #823C30",
"3 	c #923C2F",
"4 	c #655E32",
"5 	c #8E3F30",
"6 	c #8D4030",
"7 	c #5A3C3A",
"8 	c #472D36",
"9 	c #986A49",
"0 	c #913E30",
"a 	c #8C4032",
"b 	c #903E32",
"c 	c #824334",
"d 	c #4B461E",
"e 	c #4E3F22",
"f 	c #834135",
"g 	c #8E3F32",
"h 	c #633535",
"i 	c #472D38",
"j 	c #CDAF8D",
"k 	c #AB6B50",
"l 	c #8E4234",
"m 	c #863D2A",
"n 	c #84443A",
"o 	c #81453A",
"p 	c #583E2F",
"q 	c #50391A",
"r 	c #554514",
"s 	c #9B8F5B",
"t 	c #9E6C53",
"u 	c #89412B",
"v 	c #903E30",
"w 	c #58332D",
"x 	c #949D4A",
"y 	c #663531",
"z 	c #8D3E2F",
"A 	c #603A39",
"B 	c #422B33",
"C 	c #A46947",
"D 	c #874233",
"E 	c #692E2A",
"F 	c #8C4833",
"G 	c #9A804F",
"H 	c #604D23",
"I 	c #854239",
"J 	c #653531",
"K 	c #452F32",
"L 	c #C4AD8B",
"M 	c #8A4331",
"N 	c #873B2D",
"O 	c #8D3F32",
"P 	c #894435",
"Q 	c #8B473E",
"R 	c #634137",
"S 	c #603E32",
"T 	c #432F31",
"U 	c #5C3A38",
"V 	c #633734",
"W 	c #5F353F",
"X 	c #4C5F28",
"Y 	c #613937",
"Z 	c #442F34",
"` 	c #452E34",
" .	c #443031",
"..	c #633832",
"+.	c #603934",
"@.	c #54442B",
"#.	c #546135",
"$.	c #57422D",
"%.	c #633736",
"&.	c #462D31",
"*.	c #A06A48",
"=.	c #8A412E",
"-.	c #7E3F38",
";.	c #482F33",
">.	c #472D30",
",.	c #979C48",
"'.	c #464D21",
").	c #482A32",
"!.	c #492C30",
"~.	c #422F33",
"{.	c #432C32",
"].	c #442E30",
"^.	c #472E32",
"/.	c #462F37",
"(.	c #453133",
"_.	c #4D4C30",
":.	c #40312A",
"<.	c #443032",
"[.	c #884236",
"}.	c #613834",
"|.	c #8D4133",
"1.	c #432E33",
"2.	c #9C6B4D",
"3.	c #58672C",
"4.	c #643B35",
"5.	c #8D3D32",
"6.	c #945D3E",
"7.	c #A06B49",
"8.	c #C6AC87",
"9.	c #C9A686",
"0.	c #A16C4D",
"a.	c #412E34",
"b.	c #433036",
"c.	c #9E6C49",
"d.	c #9C6A47",
"e.	c #8F4031",
"f.	c #8D402E",
"g.	c #8D422F",
"h.	c #8C4030",
"i.	c #844138",
"j.	c #5D3734",
"k.	c #A16B53",
"l.	c #914537",
"m.	c #979B44",
"n.	c #5E3D36",
"o.	c #833B2F",
"p.	c #8F4134",
"q.	c #8C4033",
"r.	c #884334",
"s.	c #452F31",
"t.	c #84453C",
"u.	c #63372E",
"v.	c #546437",
"w.	c #546634",
"x.	c #949947",
"y.	c #89402D",
"z.	c #8C3E31",
"A.	c #8D3F33",
"B.	c #8B3D30",
"C.	c #923B31",
"D.	c #824034",
"E.	c #A06B4C",
"F.	c #904037",
"G.	c #55662F",
"H.	c #5F3C36",
"I.	c #864131",
"J.	c #843C2E",
"K.	c #8B3F31",
"L.	c #8A4132",
"M.	c #5B3938",
"N.	c #4C3138",
"O.	c #764342",
"P.	c #8E3F2E",
"Q.	c #683C33",
"R.	c #3C2833",
"S.	c #5F3A34",
"T.	c #556630",
"U.	c #8D9B44",
"V.	c #8E3C2E",
"W.	c #923E34",
"X.	c #8A3E2E",
"Y.	c #883E31",
"Z.	c #7F3E38",
"`.	c #9F6E5D",
" +	c #7E3F30",
".+	c #5B683A",
"++	c #5B3A35",
"@+	c #854136",
"#+	c #8D3D36",
"$+	c #673939",
"%+	c #913F34",
"&+	c #853B32",
"*+	c #8E3F38",
"=+	c #593B3B",
"-+	c #463136",
";+	c #532726",
">+	c #8D3E31",
",+	c #8C3D38",
"'+	c #944332",
")+	c #A46755",
"!+	c #472E34",
"~+	c #9D6A4F",
"{+	c #613A33",
"]+	c #5C6232",
"^+	c #959A48",
"/+	c #884034",
"(+	c #603836",
"_+	c #8E4036",
":+	c #7B4239",
"<+	c #4A2C34",
"[+	c #576335",
"}+	c #514D32",
"|+	c #5F3C40",
"1+	c #5F3D3E",
"2+	c #603C3E",
"3+	c #563B28",
"4+	c #623B40",
"5+	c #623B3C",
"6+	c #5A3837",
"7+	c #482F35",
"8+	c #643F39",
"9+	c #8A5F56",
"0+	c #5D3A38",
"a+	c #986E5E",
"b+	c #A26F5A",
"c+	c #4B2A31",
"d+	c #432F38",
"e+	c #442F36",
"f+	c #5A3B36",
"g+	c #4C4B2D",
"h+	c #563F1F",
"i+	c #5F3D3B",
"j+	c #603C40",
"k+	c #56363B",
"l+	c #53362E",
"m+	c #55302A",
"n+	c #5C4A26",
"o+	c #583426",
"p+	c #563B32",
"q+	c #452E36",
"r+	c #472F2F",
"s+	c #59692A",
"t+	c #58382D",
"u+	c #53382F",
"v+	c #533127",
"w+	c #533128",
"x+	c #572E2A",
"y+	c #57352C",
"z+	c #54382D",
"A+	c #55392D",
"B+	c #59342B",
"C+	c #8C9552",
"D+	c #4E3231",
"E+	c #5A332C",
"F+	c #592D2A",
"G+	c #59392E",
"H+	c #573B30",
"I+	c #5A342B",
"J+	c #89493F",
"K+	c #893D2F",
"L+	c #94483A",
"M+	c #8D4634",
"N+	c #8E5541",
"O+	c #553936",
"P+	c #546F28",
"Q+	c #A0984F",
"R+	c #884E38",
"S+	c #874F38",
"T+	c #8A4236",
"U+	c #8B4734",
"V+	c #884B38",
"W+	c #874431",
"X+	c #8A4734",
"Y+	c #56352E",
"Z+	c #3D3131",
"`+	c #566639",
" @	c #5D3A36",
".@	c #904532",
"+@	c #824532",
"@@	c #945744",
"#@	c #8E4532",
"$@	c #88453C",
"%@	c #8E3E33",
"&@	c #8A3E30",
"*@	c #5A3B39",
"=@	c #462D33",
"-@	c #504027",
";@	c #4F5F1E",
">@	c #69342C",
",@	c #82382B",
"'@	c #5E3732",
")@	c #423233",
"!@	c #603735",
"~@	c #903F2E",
"{@	c #86463C",
"]@	c #8A3D33",
"^@	c #8C3C31",
"/@	c #9E6844",
"(@	c #475023",
"_@	c #8C3F35",
":@	c #703A30",
"<@	c #673737",
"[@	c #643835",
"}@	c #86433B",
"|@	c #663330",
"1@	c #873D32",
"2@	c #583A30",
"3@	c #586539",
"4@	c #43511C",
"5@	c #5C3B34",
"6@	c #874135",
"7@	c #6A332E",
"8@	c #5F3C38",
"9@	c #623839",
"0@	c #5F3938",
"a@	c #5E3D38",
"b@	c #613A3B",
"c@	c #45313C",
"d@	c #4B2C31",
"e@	c #5C3A2E",
"f@	c #485124",
"g@	c #5B6533",
"h@	c #5E3B35",
"i@	c #5E3B37",
"j@	c #603A37",
"k@	c #5F3738",
"l@	c #5A3733",
"m@	c #5E3835",
"n@	c #5A3930",
"o@	c #623D37",
"p@	c #603B35",
"q@	c #483137",
"r@	c #526933",
"s@	c #463233",
"t@	c #5C3937",
"u@	c #5D3C33",
"v@	c #613939",
"w@	c #613A35",
"x@	c #422F31",
"y@	c #462F39",
"z@	c #526B32",
"A@	c #443135",
"B@	c #413036",
"C@	c #423137",
"D@	c #492E37",
"E@	c #482E37",
"F@	c #545F37",
"G@	c #453035",
"H@	c #412B37",
"I@	c #422D32",
"J@	c #432E37",
"K@	c #453039",
"L@	c #442834",
"M@	c #546B37",
"N@	c #462C35",
"O@	c #46313A",
"P@	c #442F38",
"Q@	c #462F35",
"R@	c #AB6647",
"S@	c #52672F",
"T@	c #A1674F",
"U@	c #8B4134",
"V@	c #A16948",
"W@	c #A06B4B",
"X@	c #A2694B",
"Y@	c #A16A4B",
"Z@	c #C9AB85",
"`@	c #A16C4A",
" #	c #976D57",
".#	c #986F59",
"+#	c #915E3F",
"@#	c #CDAB88",
"##	c #9F6E4D",
"$#	c #9F6D4A",
"%#	c #A26B42",
"&#	c #9A9B4B",
"*#	c #455129",
"=#	c #9F6943",
"-#	c #CAAD8B",
";#	c #A2694C",
">#	c #894132",
",#	c #863F2B",
"'#	c #A16D48",
")#	c #996C55",
"!#	c #8D4433",
"~#	c #546837",
"{#	c #969948",
"]#	c #913F33",
"^#	c #A06847",
"/#	c #8C412E",
"(#	c #A56A4C",
"_#	c #864436",
":#	c #54373B",
"<#	c #8D655B",
"[#	c #8B422F",
"}#	c #87402A",
"|#	c #8F9B47",
"1#	c #526A30",
"2#	c #8B3F2F",
"3#	c #8B3E2E",
"4#	c #903E33",
"5#	c #7D4338",
"6#	c #9D6E42",
"7#	c #8E4235",
"8#	c #959646",
"9#	c #643A3C",
"0#	c #8D3F35",
"a#	c #824439",
"b#	c #563637",
"c#	c #8F6559",
"d#	c #8A462F",
"e#	c #89422E",
"f#	c #85372A",
"g#	c #51662E",
"h#	c #576532",
"i#	c #623B36",
"j#	c #8A4633",
"k#	c #3E312B",
"l#	c #A7A26A",
"m#	c #596734",
"n#	c #4B4F2C",
"o#	c #864235",
"p#	c #5F3B2F",
"q#	c #543837",
"r#	c #8E6257",
"s#	c #824529",
"t#	c #854634",
"u#	c #94944C",
"v#	c #464A29",
"w#	c #643430",
"x#	c #8C4334",
"y#	c #8D402C",
"z#	c #8D4134",
"A#	c #7E4A3F",
"B#	c #5B6741",
"C#	c #534B27",
"D#	c #613A2B",
"E#	c #653630",
"F#	c #834337",
"G#	c #583637",
"H#	c #6C4A3E",
"I#	c #A6915C",
"J#	c #60632E",
"K#	c #5A6239",
"L#	c #613326",
"M#	c #633528",
"N#	c #843A31",
"O#	c #7E4430",
"P#	c #5B4C21",
"Q#	c #484033",
"R#	c #715842",
"S#	c #8B4334",
"T#	c #854337",
"U#	c #534135",
"V#	c #4E562F",
"W#	c #4C4C28",
"X#	c #694231",
"Y#	c #703E33",
"Z#	c #8F3F34",
"`#	c #A26048",
" $	c #853B2E",
".$	c #7F4D32",
"+$	c #7E8250",
"@$	c #413134",
"#$	c #97735D",
"$$	c #8E4034",
"%$	c #863E32",
"&$	c #6E3C31",
"*$	c #54462C",
"=$	c #484421",
"-$	c #754539",
";$	c #8C4239",
">$	c #8F4137",
",$	c #70382B",
"'$	c #874232",
")$	c #99885A",
"!$	c #524C2C",
"~$	c #9A6C54",
"{$	c #A3674B",
"]$	c #673832",
"^$	c #894739",
"/$	c #88685B",
"($	c #884731",
"_$	c #693730",
":$	c #8A4033",
"<$	c #643732",
"[$	c #643930",
"}$	c #8F4033",
"|$	c #7F4531",
"1$	c #656239",
"2$	c #593D31",
"3$	c #C6AC91",
"4$	c #84432F",
"5$	c #8E4131",
"6$	c #996B51",
"7$	c #874839",
"8$	c #442B2F",
"9$	c #5C3530",
"0$	c #5E3930",
"a$	c #633630",
"b$	c #5F3930",
"c$	c #603932",
"d$	c #5F3A31",
"e$	c #4E4C26",
"f$	c #603838",
"g$	c #946A52",
"h$	c #A26A4F",
"i$	c #8C442E",
"j$	c #914235",
"k$	c #8B3D31",
"l$	c #633631",
"m$	c #893C32",
"n$	c #824236",
"o$	c #463032",
"p$	c #412F2D",
"q$	c #514A2E",
"r$	c #9A6D50",
"s$	c #9E6C47",
"t$	c #894031",
"u$	c #9E6846",
"v$	c #834435",
"w$	c #553737",
"x$	c #9F9E5E",
"y$	c #53621F",
"z$	c #43322B",
"A$	c #546B35",
"B$	c #433032",
"C$	c #A06E4B",
"D$	c #A06F4F",
"E$	c #5B3125",
"F$	c #9F754F",
"G$	c #A06954",
"H$	c #904132",
"I$	c #8E3E35",
"J$	c #8B4231",
"K$	c #763A2F",
"L$	c #5C403C",
"M$	c #978962",
"N$	c #4B5016",
"O$	c #3C3324",
"P$	c #432A2E",
"Q$	c #492F38",
"R$	c #3E292E",
"S$	c #3C2C36",
"T$	c #9C9C46",
"U$	c #452D2D",
"V$	c #A06749",
"W$	c #7C4133",
"X$	c #9C6853",
"Y$	c #8E4033",
"Z$	c #884238",
"`$	c #844438",
" %	c #5D3A34",
".%	c #894135",
"+%	c #753A32",
"@%	c #83453A",
"#%	c #893F32",
"$%	c #8A4138",
"%%	c #783F36",
"&%	c #61522B",
"*%	c #555A20",
"=%	c #473727",
"-%	c #432D2F",
";%	c #88412F",
">%	c #753A2A",
",%	c #81392A",
"'%	c #9E9F4F",
")%	c #526931",
"!%	c #A06A52",
"~%	c #8B3F32",
"{%	c #7E413C",
"]%	c #4E3435",
"^%	c #523633",
"/%	c #533533",
"(%	c #503230",
"_%	c #513532",
":%	c #523432",
"<%	c #5C3A39",
"[%	c #573836",
"}%	c #513531",
"|%	c #4C3736",
"1%	c #453E2C",
"2%	c #403E29",
"3%	c #4D3535",
"4%	c #845F4F",
"5%	c #895A46",
"6%	c #A1694E",
"7%	c #885A42",
"8%	c #925F42",
"9%	c #5B3937",
"0%	c #48592F",
"a%	c #3F322C",
"b%	c #5B3737",
"c%	c #413235",
"d%	c #433034",
"e%	c #3D2E33",
"f%	c #453236",
"g%	c #423336",
"h%	c #433336",
"i%	c #453238",
"j%	c #3F2E36",
"k%	c #3E2F32",
"l%	c #423235",
"m%	c #483B32",
"n%	c #3A3428",
"o%	c #3D2F2F",
"p%	c #402D2F",
"q%	c #3F2E34",
"r%	c #463339",
"s%	c #3E2E31",
"t%	c #3C3032",
"u%	c #484C29",
"v%	c #57683E",
"w%	c #3E2D35",
"x%	c #45313A",
"          . . . . . . + + + + + + @ @ @ @ @ @ # # # # # # $ $ $ $ $ % % % % % % & & & & & & * * * * * * = = = = = = - - - - - ; ; ; ; ; ; > > > > > > , , , , , , ' ' ' ' ' ' ) ) ) ) ) ! ! ! ! ! ! ~ ~ ~ ~ ~ ~ { { { { { { ] ] ] ] ] ] ^ ^ ^ ^ ^ - - - - - - ; ; ; ; ; ; ; ; ; ; ; ; / / / / / / ( ( ( ( ( _ _ _ _ _ _ : : : : : : < < < < < < [ [ [ [ [ [ } } } } } } ",
"          . . . . . . + + + + + + @ @ @ @ @ @ # # # # # # $ $ $ $ $ % % % % % % & & & & & & * * * * * * = = = = = = - - - - - ; ; ; ; ; ; > > > > > > , , , , , , ' ' ' ' ' ' ) ) ) ) ) ! ! ! ! ! ! ~ ~ ~ ~ ~ ~ { { { { { { ] ] ] ] ] ] ^ ^ ^ ^ ^ - - - - - - ; ; ; ; ; ; ; ; ; ; ; ; / / / / / / ( ( ( ( ( _ _ _ _ _ _ : : : : : : < < < < < < [ [ [ [ [ [ } } } } } } ",
"          . . . . . . + + + + + + @ @ @ @ @ @ # # # # # # $ $ $ $ $ % % % % % % & & & & & & * * * * * * = = = = = = - - - - - ; ; ; ; ; ; > > > > > > , , , , , , ' ' ' ' ' ' ) ) ) ) ) ! ! ! ! ! ! ~ ~ ~ ~ ~ ~ { { { { { { ] ] ] ] ] ] ^ ^ ^ ^ ^ - - - - - - ; ; ; ; ; ; ; ; ; ; ; ; / / / / / / ( ( ( ( ( _ _ _ _ _ _ : : : : : : < < < < < < [ [ [ [ [ [ } } } } } } ",
"          . . . . . . + + + + + + @ @ @ @ @ @ # # # # # # $ $ $ $ $ % % % % % % & & & & & & * * * * * * = = = = = = - - - - - ; ; ; ; ; ; > > > > > > , , , , , , ' ' ' ' ' ' ) ) ) ) ) ! ! ! ! ! ! ~ ~ ~ ~ ~ ~ { { { { { { ] ] ] ] ] ] ^ ^ ^ ^ ^ - - - - - - ; ; ; ; ; ; ; ; ; ; ; ; / / / / / / ( ( ( ( ( _ _ _ _ _ _ : : : : : : < < < < < < [ [ [ [ [ [ } } } } } } ",
"          . . . . . . + + + + + + @ @ @ @ @ @ # # # # # # $ $ $ $ $ % % % % % % & & & & & & * * * * * * = = = = = = - - - - - ; ; ; ; ; ; > > > > > > , , , , , , ' ' ' ' ' ' ) ) ) ) ) ! ! ! ! ! ! ~ ~ ~ ~ ~ ~ { { { { { { ] ] ] ] ] ] ^ ^ ^ ^ ^ - - - - - - ; ; ; ; ; ; ; ; ; ; ; ; / / / / / / ( ( ( ( ( _ _ _ _ _ _ : : : : : : < < < < < < [ [ [ [ [ [ } } } } } } ",
"| | | | | 1 1 1 1 1 1 2 2 2 2 2 2 3 3 3 3 3 3 4 4 4 4 4 4 5 5 5 5 5 6 6 6 6 6 6 7 7 7 7 7 7 8 8 8 8 8 8 9 9 9 9 9 9 0 0 0 0 0 a a a a a a b b b b b b c c c c c c d d d d d d e e e e e f f f f f f g g g g g g h h h h h h i i i i i i j j j j j k k k k k k l l l l l l a a a a a a m m m m m m n n n n n o o o o o o p p p p p p q q q q q q r r r r r r s s s s s s ",
"| | | | | 1 1 1 1 1 1 2 2 2 2 2 2 3 3 3 3 3 3 4 4 4 4 4 4 5 5 5 5 5 6 6 6 6 6 6 7 7 7 7 7 7 8 8 8 8 8 8 9 9 9 9 9 9 0 0 0 0 0 a a a a a a b b b b b b c c c c c c d d d d d d e e e e e f f f f f f g g g g g g h h h h h h i i i i i i j j j j j k k k k k k l l l l l l a a a a a a m m m m m m n n n n n o o o o o o p p p p p p q q q q q q r r r r r r s s s s s s ",
"| | | | | 1 1 1 1 1 1 2 2 2 2 2 2 3 3 3 3 3 3 4 4 4 4 4 4 5 5 5 5 5 6 6 6 6 6 6 7 7 7 7 7 7 8 8 8 8 8 8 9 9 9 9 9 9 0 0 0 0 0 a a a a a a b b b b b b c c c c c c d d d d d d e e e e e f f f f f f g g g g g g h h h h h h i i i i i i j j j j j k k k k k k l l l l l l a a a a a a m m m m m m n n n n n o o o o o o p p p p p p q q q q q q r r r r r r s s s s s s ",
"| | | | | 1 1 1 1 1 1 2 2 2 2 2 2 3 3 3 3 3 3 4 4 4 4 4 4 5 5 5 5 5 6 6 6 6 6 6 7 7 7 7 7 7 8 8 8 8 8 8 9 9 9 9 9 9 0 0 0 0 0 a a a a a a b b b b b b c c c c c c d d d d d d e e e e e f f f f f f g g g g g g h h h h h h i i i i i i j j j j j k k k k k k l l l l l l a a a a a a m m m m m m n n n n n o o o o o o p p p p p p q q q q q q r r r r r r s s s s s s ",
"| | | | | 1 1 1 1 1 1 2 2 2 2 2 2 3 3 3 3 3 3 4 4 4 4 4 4 5 5 5 5 5 6 6 6 6 6 6 7 7 7 7 7 7 8 8 8 8 8 8 9 9 9 9 9 9 0 0 0 0 0 a a a a a a b b b b b b c c c c c c d d d d d d e e e e e f f f f f f g g g g g g h h h h h h i i i i i i j j j j j k k k k k k l l l l l l a a a a a a m m m m m m n n n n n o o o o o o p p p p p p q q q q q q r r r r r r s s s s s s ",
"| | | | | 1 1 1 1 1 1 2 2 2 2 2 2 3 3 3 3 3 3 4 4 4 4 4 4 5 5 5 5 5 6 6 6 6 6 6 7 7 7 7 7 7 8 8 8 8 8 8 9 9 9 9 9 9 0 0 0 0 0 a a a a a a b b b b b b c c c c c c d d d d d d e e e e e f f f f f f g g g g g g h h h h h h i i i i i i j j j j j k k k k k k l l l l l l a a a a a a m m m m m m n n n n n o o o o o o p p p p p p q q q q q q r r r r r r s s s s s s ",
"t t t t t u u u u u u v v v v v v w w w w w w x x x x x x y y y y y z z z z z z A A A A A A B B B B B B C C C C C C g g g g g D D D D D D E E E E E E F F F F F F G G G G G G H H H H H I I I I I I 5 5 5 5 5 5 J J J J J J K K K K K K L L L L L M M M M M M N N N N N N a a a a a a O O O O O O O O O O O O O O O O O P P P P P P Q Q Q Q Q Q R R R R R R S S S S S S ",
"t t t t t u u u u u u v v v v v v w w w w w w x x x x x x y y y y y z z z z z z A A A A A A B B B B B B C C C C C C g g g g g D D D D D D E E E E E E F F F F F F G G G G G G H H H H H I I I I I I 5 5 5 5 5 5 J J J J J J K K K K K K L L L L L M M M M M M N N N N N N a a a a a a O O O O O O O O O O O O O O O O O P P P P P P Q Q Q Q Q Q R R R R R R S S S S S S ",
"t t t t t u u u u u u v v v v v v w w w w w w x x x x x x y y y y y z z z z z z A A A A A A B B B B B B C C C C C C g g g g g D D D D D D E E E E E E F F F F F F G G G G G G H H H H H I I I I I I 5 5 5 5 5 5 J J J J J J K K K K K K L L L L L M M M M M M N N N N N N a a a a a a O O O O O O O O O O O O O O O O O P P P P P P Q Q Q Q Q Q R R R R R R S S S S S S ",
"t t t t t u u u u u u v v v v v v w w w w w w x x x x x x y y y y y z z z z z z A A A A A A B B B B B B C C C C C C g g g g g D D D D D D E E E E E E F F F F F F G G G G G G H H H H H I I I I I I 5 5 5 5 5 5 J J J J J J K K K K K K L L L L L M M M M M M N N N N N N a a a a a a O O O O O O O O O O O O O O O O O P P P P P P Q Q Q Q Q Q R R R R R R S S S S S S ",
"t t t t t u u u u u u v v v v v v w w w w w w x x x x x x y y y y y z z z z z z A A A A A A B B B B B B C C C C C C g g g g g D D D D D D E E E E E E F F F F F F G G G G G G H H H H H I I I I I I 5 5 5 5 5 5 J J J J J J K K K K K K L L L L L M M M M M M N N N N N N a a a a a a O O O O O O O O O O O O O O O O O P P P P P P Q Q Q Q Q Q R R R R R R S S S S S S ",
"t t t t t u u u u u u v v v v v v w w w w w w x x x x x x y y y y y z z z z z z A A A A A A B B B B B B C C C C C C g g g g g D D D D D D E E E E E E F F F F F F G G G G G G H H H H H I I I I I I 5 5 5 5 5 5 J J J J J J K K K K K K L L L L L M M M M M M N N N N N N a a a a a a O O O O O O O O O O O O O O O O O P P P P P P Q Q Q Q Q Q R R R R R R S S S S S S ",
"T T T T T U U U U U U V V V V V V W W W W W W X X X X X X Y Y Y Y Y V V V V V V Z Z Z Z Z Z ` ` ` ` ` `  . . . . . ...........+.+.+.+.+.+.+.+.+.+.+.+.+.+.+.+.+.+.@.@.@.@.@.@.#.#.#.#.#.$.$.$.$.$.$.%.%.%.%.%.%.&.&.&.&.&.&. . . . . . .*.*.*.*.*.5 5 5 5 5 5 O O O O O O O O O O O O O O O O O O =.=.=.=.=.5 5 5 5 5 5 a a a a a a O O O O O O O O O O O O -.-.-.-.-.-.",
"T T T T T U U U U U U V V V V V V W W W W W W X X X X X X Y Y Y Y Y V V V V V V Z Z Z Z Z Z ` ` ` ` ` `  . . . . . ...........+.+.+.+.+.+.+.+.+.+.+.+.+.+.+.+.+.+.@.@.@.@.@.@.#.#.#.#.#.$.$.$.$.$.$.%.%.%.%.%.%.&.&.&.&.&.&. . . . . . .*.*.*.*.*.5 5 5 5 5 5 O O O O O O O O O O O O O O O O O O =.=.=.=.=.5 5 5 5 5 5 a a a a a a O O O O O O O O O O O O -.-.-.-.-.-.",
"T T T T T U U U U U U V V V V V V W W W W W W X X X X X X Y Y Y Y Y V V V V V V Z Z Z Z Z Z ` ` ` ` ` `  . . . . . ...........+.+.+.+.+.+.+.+.+.+.+.+.+.+.+.+.+.+.@.@.@.@.@.@.#.#.#.#.#.$.$.$.$.$.$.%.%.%.%.%.%.&.&.&.&.&.&. . . . . . .*.*.*.*.*.5 5 5 5 5 5 O O O O O O O O O O O O O O O O O O =.=.=.=.=.5 5 5 5 5 5 a a a a a a O O O O O O O O O O O O -.-.-.-.-.-.",
"T T T T T U U U U U U V V V V V V W W W W W W X X X X X X Y Y Y Y Y V V V V V V Z Z Z Z Z Z ` ` ` ` ` `  . . . . . ...........+.+.+.+.+.+.+.+.+.+.+.+.+.+.+.+.+.+.@.@.@.@.@.@.#.#.#.#.#.$.$.$.$.$.$.%.%.%.%.%.%.&.&.&.&.&.&. . . . . . .*.*.*.*.*.5 5 5 5 5 5 O O O O O O O O O O O O O O O O O O =.=.=.=.=.5 5 5 5 5 5 a a a a a a O O O O O O O O O O O O -.-.-.-.-.-.",
"T T T T T U U U U U U V V V V V V W W W W W W X X X X X X Y Y Y Y Y V V V V V V Z Z Z Z Z Z ` ` ` ` ` `  . . . . . ...........+.+.+.+.+.+.+.+.+.+.+.+.+.+.+.+.+.+.@.@.@.@.@.@.#.#.#.#.#.$.$.$.$.$.$.%.%.%.%.%.%.&.&.&.&.&.&. . . . . . .*.*.*.*.*.5 5 5 5 5 5 O O O O O O O O O O O O O O O O O O =.=.=.=.=.5 5 5 5 5 5 a a a a a a O O O O O O O O O O O O -.-.-.-.-.-.",
"T T T T T U U U U U U V V V V V V W W W W W W X X X X X X Y Y Y Y Y V V V V V V Z Z Z Z Z Z ` ` ` ` ` `  . . . . . ...........+.+.+.+.+.+.+.+.+.+.+.+.+.+.+.+.+.+.@.@.@.@.@.@.#.#.#.#.#.$.$.$.$.$.$.%.%.%.%.%.%.&.&.&.&.&.&. . . . . . .*.*.*.*.*.5 5 5 5 5 5 O O O O O O O O O O O O O O O O O O =.=.=.=.=.5 5 5 5 5 5 a a a a a a O O O O O O O O O O O O -.-.-.-.-.-.",
"T T T T T ;.;.;.;.;.;.>.>.>.>.>.>.,.,.,.,.,.,.'.'.'.'.'.'.).).).).).!.!.!.!.!.!.~.~.~.~.~.~.{.{.{.{.{.{.8 8 8 8 8 8 ].].].].].^.^.^.^.^.^.^.^.^.^.^.^.^.^.^.^.^.^././././././.(.(.(.(.(._._._._._._.:.:.:.:.:.:.<.<.<.<.<.<. . . . . . .*.*.*.*.*.5 5 5 5 5 5 O O O O O O O O O O O O O O O O O O [.[.[.[.[.}.}.}.}.}.}.|.|.|.|.|.|.O O O O O O O O O O O O -.-.-.-.-.-.",
"T T T T T ;.;.;.;.;.;.>.>.>.>.>.>.,.,.,.,.,.,.'.'.'.'.'.'.).).).).).!.!.!.!.!.!.~.~.~.~.~.~.{.{.{.{.{.{.8 8 8 8 8 8 ].].].].].^.^.^.^.^.^.^.^.^.^.^.^.^.^.^.^.^.^././././././.(.(.(.(.(._._._._._._.:.:.:.:.:.:.<.<.<.<.<.<. . . . . . .*.*.*.*.*.5 5 5 5 5 5 O O O O O O O O O O O O O O O O O O [.[.[.[.[.}.}.}.}.}.}.|.|.|.|.|.|.O O O O O O O O O O O O -.-.-.-.-.-.",
"T T T T T ;.;.;.;.;.;.>.>.>.>.>.>.,.,.,.,.,.,.'.'.'.'.'.'.).).).).).!.!.!.!.!.!.~.~.~.~.~.~.{.{.{.{.{.{.8 8 8 8 8 8 ].].].].].^.^.^.^.^.^.^.^.^.^.^.^.^.^.^.^.^.^././././././.(.(.(.(.(._._._._._._.:.:.:.:.:.:.<.<.<.<.<.<. . . . . . .*.*.*.*.*.5 5 5 5 5 5 O O O O O O O O O O O O O O O O O O [.[.[.[.[.}.}.}.}.}.}.|.|.|.|.|.|.O O O O O O O O O O O O -.-.-.-.-.-.",
"T T T T T ;.;.;.;.;.;.>.>.>.>.>.>.,.,.,.,.,.,.'.'.'.'.'.'.).).).).).!.!.!.!.!.!.~.~.~.~.~.~.{.{.{.{.{.{.8 8 8 8 8 8 ].].].].].^.^.^.^.^.^.^.^.^.^.^.^.^.^.^.^.^.^././././././.(.(.(.(.(._._._._._._.:.:.:.:.:.:.<.<.<.<.<.<. . . . . . .*.*.*.*.*.5 5 5 5 5 5 O O O O O O O O O O O O O O O O O O [.[.[.[.[.}.}.}.}.}.}.|.|.|.|.|.|.O O O O O O O O O O O O -.-.-.-.-.-.",
"T T T T T ;.;.;.;.;.;.>.>.>.>.>.>.,.,.,.,.,.,.'.'.'.'.'.'.).).).).).!.!.!.!.!.!.~.~.~.~.~.~.{.{.{.{.{.{.8 8 8 8 8 8 ].].].].].^.^.^.^.^.^.^.^.^.^.^.^.^.^.^.^.^.^././././././.(.(.(.(.(._._._._._._.:.:.:.:.:.:.<.<.<.<.<.<. . . . . . .*.*.*.*.*.5 5 5 5 5 5 O O O O O O O O O O O O O O O O O O [.[.[.[.[.}.}.}.}.}.}.|.|.|.|.|.|.O O O O O O O O O O O O -.-.-.-.-.-.",
"T T T T T ;.;.;.;.;.;.>.>.>.>.>.>.,.,.,.,.,.,.'.'.'.'.'.'.).).).).).!.!.!.!.!.!.~.~.~.~.~.~.{.{.{.{.{.{.8 8 8 8 8 8 ].].].].].^.^.^.^.^.^.^.^.^.^.^.^.^.^.^.^.^.^././././././.(.(.(.(.(._._._._._._.:.:.:.:.:.:.<.<.<.<.<.<. . . . . . .*.*.*.*.*.5 5 5 5 5 5 O O O O O O O O O O O O O O O O O O [.[.[.[.[.}.}.}.}.}.}.|.|.|.|.|.|.O O O O O O O O O O O O -.-.-.-.-.-.",
"1.1.1.1.1.` ` ` ` ` ` 2.2.2.2.2.2.3.3.3.3.3.3.4.4.4.4.4.4.5.5.5.5.5.6.6.6.6.6.6.7.7.7.7.7.7.8.8.8.8.8.8.9.9.9.9.9.9.0.0.0.0.0.&.&.&.&.&.&.` ` ` ` ` ` ` ` ` ` ` ` ` ` ` ` ` ` ` ` ` ` ` K K K K K K a.a.a.a.a.a.b.b.b.b.b.b.b.b.b.b.b.b.c.c.c.c.c.d.d.d.d.d.d.e.e.e.e.e.e.f.f.f.f.f.f.O O O O O O g.g.g.g.g.7.7.7.7.7.7.O O O O O O h.h.h.h.h.h.i.i.i.i.i.i.j.j.j.j.j.j.",
"1.1.1.1.1.` ` ` ` ` ` 2.2.2.2.2.2.3.3.3.3.3.3.4.4.4.4.4.4.5.5.5.5.5.6.6.6.6.6.6.7.7.7.7.7.7.8.8.8.8.8.8.9.9.9.9.9.9.0.0.0.0.0.&.&.&.&.&.&.` ` ` ` ` ` ` ` ` ` ` ` ` ` ` ` ` ` ` ` ` ` ` K K K K K K a.a.a.a.a.a.b.b.b.b.b.b.b.b.b.b.b.b.c.c.c.c.c.d.d.d.d.d.d.e.e.e.e.e.e.f.f.f.f.f.f.O O O O O O g.g.g.g.g.7.7.7.7.7.7.O O O O O O h.h.h.h.h.h.i.i.i.i.i.i.j.j.j.j.j.j.",
"1.1.1.1.1.` ` ` ` ` ` 2.2.2.2.2.2.3.3.3.3.3.3.4.4.4.4.4.4.5.5.5.5.5.6.6.6.6.6.6.7.7.7.7.7.7.8.8.8.8.8.8.9.9.9.9.9.9.0.0.0.0.0.&.&.&.&.&.&.` ` ` ` ` ` ` ` ` ` ` ` ` ` ` ` ` ` ` ` ` ` ` K K K K K K a.a.a.a.a.a.b.b.b.b.b.b.b.b.b.b.b.b.c.c.c.c.c.d.d.d.d.d.d.e.e.e.e.e.e.f.f.f.f.f.f.O O O O O O g.g.g.g.g.7.7.7.7.7.7.O O O O O O h.h.h.h.h.h.i.i.i.i.i.i.j.j.j.j.j.j.",
"1.1.1.1.1.` ` ` ` ` ` 2.2.2.2.2.2.3.3.3.3.3.3.4.4.4.4.4.4.5.5.5.5.5.6.6.6.6.6.6.7.7.7.7.7.7.8.8.8.8.8.8.9.9.9.9.9.9.0.0.0.0.0.&.&.&.&.&.&.` ` ` ` ` ` ` ` ` ` ` ` ` ` ` ` ` ` ` ` ` ` ` K K K K K K a.a.a.a.a.a.b.b.b.b.b.b.b.b.b.b.b.b.c.c.c.c.c.d.d.d.d.d.d.e.e.e.e.e.e.f.f.f.f.f.f.O O O O O O g.g.g.g.g.7.7.7.7.7.7.O O O O O O h.h.h.h.h.h.i.i.i.i.i.i.j.j.j.j.j.j.",
"1.1.1.1.1.` ` ` ` ` ` 2.2.2.2.2.2.3.3.3.3.3.3.4.4.4.4.4.4.5.5.5.5.5.6.6.6.6.6.6.7.7.7.7.7.7.8.8.8.8.8.8.9.9.9.9.9.9.0.0.0.0.0.&.&.&.&.&.&.` ` ` ` ` ` ` ` ` ` ` ` ` ` ` ` ` ` ` ` ` ` ` K K K K K K a.a.a.a.a.a.b.b.b.b.b.b.b.b.b.b.b.b.c.c.c.c.c.d.d.d.d.d.d.e.e.e.e.e.e.f.f.f.f.f.f.O O O O O O g.g.g.g.g.7.7.7.7.7.7.O O O O O O h.h.h.h.h.h.i.i.i.i.i.i.j.j.j.j.j.j.",
"1.1.1.1.1.k.k.k.k.k.k.l.l.l.l.l.l.m.m.m.m.m.m.n.n.n.n.n.n.g g g g g z z z z z z o.o.o.o.o.o.p.p.p.p.p.p.q.q.q.q.q.q.r.r.r.r.r.U U U U U U K K K K K K ` ` ` ` ` ` Z Z Z Z Z Z K K K K K s.s.s.s.s.s.t.t.t.t.t.t.u.u.u.u.u.u.v.v.v.v.v.v.w.w.w.w.w.x.x.x.x.x.x.y.y.y.y.y.y.O O O O O O 6 6 6 6 6 6 z.z.z.z.z.A.A.A.A.A.A.B.B.B.B.B.B.g g g g g g C.C.C.C.C.C.D.D.D.D.D.D.",
"1.1.1.1.1.k.k.k.k.k.k.l.l.l.l.l.l.m.m.m.m.m.m.n.n.n.n.n.n.g g g g g z z z z z z o.o.o.o.o.o.p.p.p.p.p.p.q.q.q.q.q.q.r.r.r.r.r.U U U U U U K K K K K K ` ` ` ` ` ` Z Z Z Z Z Z K K K K K s.s.s.s.s.s.t.t.t.t.t.t.u.u.u.u.u.u.v.v.v.v.v.v.w.w.w.w.w.x.x.x.x.x.x.y.y.y.y.y.y.O O O O O O 6 6 6 6 6 6 z.z.z.z.z.A.A.A.A.A.A.B.B.B.B.B.B.g g g g g g C.C.C.C.C.C.D.D.D.D.D.D.",
"1.1.1.1.1.k.k.k.k.k.k.l.l.l.l.l.l.m.m.m.m.m.m.n.n.n.n.n.n.g g g g g z z z z z z o.o.o.o.o.o.p.p.p.p.p.p.q.q.q.q.q.q.r.r.r.r.r.U U U U U U K K K K K K ` ` ` ` ` ` Z Z Z Z Z Z K K K K K s.s.s.s.s.s.t.t.t.t.t.t.u.u.u.u.u.u.v.v.v.v.v.v.w.w.w.w.w.x.x.x.x.x.x.y.y.y.y.y.y.O O O O O O 6 6 6 6 6 6 z.z.z.z.z.A.A.A.A.A.A.B.B.B.B.B.B.g g g g g g C.C.C.C.C.C.D.D.D.D.D.D.",
"1.1.1.1.1.k.k.k.k.k.k.l.l.l.l.l.l.m.m.m.m.m.m.n.n.n.n.n.n.g g g g g z z z z z z o.o.o.o.o.o.p.p.p.p.p.p.q.q.q.q.q.q.r.r.r.r.r.U U U U U U K K K K K K ` ` ` ` ` ` Z Z Z Z Z Z K K K K K s.s.s.s.s.s.t.t.t.t.t.t.u.u.u.u.u.u.v.v.v.v.v.v.w.w.w.w.w.x.x.x.x.x.x.y.y.y.y.y.y.O O O O O O 6 6 6 6 6 6 z.z.z.z.z.A.A.A.A.A.A.B.B.B.B.B.B.g g g g g g C.C.C.C.C.C.D.D.D.D.D.D.",
"1.1.1.1.1.k.k.k.k.k.k.l.l.l.l.l.l.m.m.m.m.m.m.n.n.n.n.n.n.g g g g g z z z z z z o.o.o.o.o.o.p.p.p.p.p.p.q.q.q.q.q.q.r.r.r.r.r.U U U U U U K K K K K K ` ` ` ` ` ` Z Z Z Z Z Z K K K K K s.s.s.s.s.s.t.t.t.t.t.t.u.u.u.u.u.u.v.v.v.v.v.v.w.w.w.w.w.x.x.x.x.x.x.y.y.y.y.y.y.O O O O O O 6 6 6 6 6 6 z.z.z.z.z.A.A.A.A.A.A.B.B.B.B.B.B.g g g g g g C.C.C.C.C.C.D.D.D.D.D.D.",
"1.1.1.1.1.k.k.k.k.k.k.l.l.l.l.l.l.m.m.m.m.m.m.n.n.n.n.n.n.g g g g g z z z z z z o.o.o.o.o.o.p.p.p.p.p.p.q.q.q.q.q.q.r.r.r.r.r.U U U U U U K K K K K K ` ` ` ` ` ` Z Z Z Z Z Z K K K K K s.s.s.s.s.s.t.t.t.t.t.t.u.u.u.u.u.u.v.v.v.v.v.v.w.w.w.w.w.x.x.x.x.x.x.y.y.y.y.y.y.O O O O O O 6 6 6 6 6 6 z.z.z.z.z.A.A.A.A.A.A.B.B.B.B.B.B.g g g g g g C.C.C.C.C.C.D.D.D.D.D.D.",
"1.1.1.1.1.E.E.E.E.E.E.F.F.F.F.F.F.G.G.G.G.G.G.H.H.H.H.H.H.5 5 5 5 5 b b b b b b I.I.I.I.I.I.J.J.J.J.J.J.K.K.K.K.K.K.L.L.L.L.L.M.M.M.M.M.M.^.^.^.^.^.^.N.N.N.N.N.N.` ` ` ` ` ` O.O.O.O.O.O O O O O O P.P.P.P.P.P.Q.Q.Q.Q.Q.Q.R.R.R.R.R.R.S.S.S.S.S.T.T.T.T.T.T.U.U.U.U.U.U.V.V.V.V.V.V.W.W.W.W.W.W.X.X.X.X.X.X.X.X.X.X.X.Y.Y.Y.Y.Y.Y.O O O O O O O O O O O O Z.Z.Z.Z.Z.Z.",
"1.1.1.1.1.E.E.E.E.E.E.F.F.F.F.F.F.G.G.G.G.G.G.H.H.H.H.H.H.5 5 5 5 5 b b b b b b I.I.I.I.I.I.J.J.J.J.J.J.K.K.K.K.K.K.L.L.L.L.L.M.M.M.M.M.M.^.^.^.^.^.^.N.N.N.N.N.N.` ` ` ` ` ` O.O.O.O.O.O O O O O O P.P.P.P.P.P.Q.Q.Q.Q.Q.Q.R.R.R.R.R.R.S.S.S.S.S.T.T.T.T.T.T.U.U.U.U.U.U.V.V.V.V.V.V.W.W.W.W.W.W.X.X.X.X.X.X.X.X.X.X.X.Y.Y.Y.Y.Y.Y.O O O O O O O O O O O O Z.Z.Z.Z.Z.Z.",
"1.1.1.1.1.E.E.E.E.E.E.F.F.F.F.F.F.G.G.G.G.G.G.H.H.H.H.H.H.5 5 5 5 5 b b b b b b I.I.I.I.I.I.J.J.J.J.J.J.K.K.K.K.K.K.L.L.L.L.L.M.M.M.M.M.M.^.^.^.^.^.^.N.N.N.N.N.N.` ` ` ` ` ` O.O.O.O.O.O O O O O O P.P.P.P.P.P.Q.Q.Q.Q.Q.Q.R.R.R.R.R.R.S.S.S.S.S.T.T.T.T.T.T.U.U.U.U.U.U.V.V.V.V.V.V.W.W.W.W.W.W.X.X.X.X.X.X.X.X.X.X.X.Y.Y.Y.Y.Y.Y.O O O O O O O O O O O O Z.Z.Z.Z.Z.Z.",
"1.1.1.1.1.E.E.E.E.E.E.F.F.F.F.F.F.G.G.G.G.G.G.H.H.H.H.H.H.5 5 5 5 5 b b b b b b I.I.I.I.I.I.J.J.J.J.J.J.K.K.K.K.K.K.L.L.L.L.L.M.M.M.M.M.M.^.^.^.^.^.^.N.N.N.N.N.N.` ` ` ` ` ` O.O.O.O.O.O O O O O O P.P.P.P.P.P.Q.Q.Q.Q.Q.Q.R.R.R.R.R.R.S.S.S.S.S.T.T.T.T.T.T.U.U.U.U.U.U.V.V.V.V.V.V.W.W.W.W.W.W.X.X.X.X.X.X.X.X.X.X.X.Y.Y.Y.Y.Y.Y.O O O O O O O O O O O O Z.Z.Z.Z.Z.Z.",
"1.1.1.1.1.E.E.E.E.E.E.F.F.F.F.F.F.G.G.G.G.G.G.H.H.H.H.H.H.5 5 5 5 5 b b b b b b I.I.I.I.I.I.J.J.J.J.J.J.K.K.K.K.K.K.L.L.L.L.L.M.M.M.M.M.M.^.^.^.^.^.^.N.N.N.N.N.N.` ` ` ` ` ` O.O.O.O.O.O O O O O O P.P.P.P.P.P.Q.Q.Q.Q.Q.Q.R.R.R.R.R.R.S.S.S.S.S.T.T.T.T.T.T.U.U.U.U.U.U.V.V.V.V.V.V.W.W.W.W.W.W.X.X.X.X.X.X.X.X.X.X.X.Y.Y.Y.Y.Y.Y.O O O O O O O O O O O O Z.Z.Z.Z.Z.Z.",
"1.1.1.1.1.E.E.E.E.E.E.F.F.F.F.F.F.G.G.G.G.G.G.H.H.H.H.H.H.5 5 5 5 5 b b b b b b I.I.I.I.I.I.J.J.J.J.J.J.K.K.K.K.K.K.L.L.L.L.L.M.M.M.M.M.M.^.^.^.^.^.^.N.N.N.N.N.N.` ` ` ` ` ` O.O.O.O.O.O O O O O O P.P.P.P.P.P.Q.Q.Q.Q.Q.Q.R.R.R.R.R.R.S.S.S.S.S.T.T.T.T.T.T.U.U.U.U.U.U.V.V.V.V.V.V.W.W.W.W.W.W.X.X.X.X.X.X.X.X.X.X.X.Y.Y.Y.Y.Y.Y.O O O O O O O O O O O O Z.Z.Z.Z.Z.Z.",
"T T T T T `.`.`.`.`.`. + + + + + +.+.+.+.+.+.+++++++++++++@+@+@+@+@+#+#+#+#+#+#+$+$+$+$+$+$+%+%+%+%+%+%+&+&+&+&+&+&+*+*+*+*+*+=+=+=+=+=+=+-+-+-+-+-+-+;+;+;+;+;+;+>+>+>+>+>+>+,+,+,+,+,+'+'+'+'+'+'+3 3 3 3 3 3 )+)+)+)+)+)+!+!+!+!+!+!+~+~+~+~+~+{+{+{+{+{+{+]+]+]+]+]+]+^+^+^+^+^+^+/+/+/+/+/+/+(+(+(+(+(+(+(+(+(+(+(+............_+_+_+_+_+_+_+_+_+_+_+_+:+:+:+:+:+:+",
"T T T T T `.`.`.`.`.`. + + + + + +.+.+.+.+.+.+++++++++++++@+@+@+@+@+#+#+#+#+#+#+$+$+$+$+$+$+%+%+%+%+%+%+&+&+&+&+&+&+*+*+*+*+*+=+=+=+=+=+=+-+-+-+-+-+-+;+;+;+;+;+;+>+>+>+>+>+>+,+,+,+,+,+'+'+'+'+'+'+3 3 3 3 3 3 )+)+)+)+)+)+!+!+!+!+!+!+~+~+~+~+~+{+{+{+{+{+{+]+]+]+]+]+]+^+^+^+^+^+^+/+/+/+/+/+/+(+(+(+(+(+(+(+(+(+(+(+............_+_+_+_+_+_+_+_+_+_+_+_+:+:+:+:+:+:+",
"T T T T T `.`.`.`.`.`. + + + + + +.+.+.+.+.+.+++++++++++++@+@+@+@+@+#+#+#+#+#+#+$+$+$+$+$+$+%+%+%+%+%+%+&+&+&+&+&+&+*+*+*+*+*+=+=+=+=+=+=+-+-+-+-+-+-+;+;+;+;+;+;+>+>+>+>+>+>+,+,+,+,+,+'+'+'+'+'+'+3 3 3 3 3 3 )+)+)+)+)+)+!+!+!+!+!+!+~+~+~+~+~+{+{+{+{+{+{+]+]+]+]+]+]+^+^+^+^+^+^+/+/+/+/+/+/+(+(+(+(+(+(+(+(+(+(+(+............_+_+_+_+_+_+_+_+_+_+_+_+:+:+:+:+:+:+",
"T T T T T `.`.`.`.`.`. + + + + + +.+.+.+.+.+.+++++++++++++@+@+@+@+@+#+#+#+#+#+#+$+$+$+$+$+$+%+%+%+%+%+%+&+&+&+&+&+&+*+*+*+*+*+=+=+=+=+=+=+-+-+-+-+-+-+;+;+;+;+;+;+>+>+>+>+>+>+,+,+,+,+,+'+'+'+'+'+'+3 3 3 3 3 3 )+)+)+)+)+)+!+!+!+!+!+!+~+~+~+~+~+{+{+{+{+{+{+]+]+]+]+]+]+^+^+^+^+^+^+/+/+/+/+/+/+(+(+(+(+(+(+(+(+(+(+(+............_+_+_+_+_+_+_+_+_+_+_+_+:+:+:+:+:+:+",
"T T T T T `.`.`.`.`.`. + + + + + +.+.+.+.+.+.+++++++++++++@+@+@+@+@+#+#+#+#+#+#+$+$+$+$+$+$+%+%+%+%+%+%+&+&+&+&+&+&+*+*+*+*+*+=+=+=+=+=+=+-+-+-+-+-+-+;+;+;+;+;+;+>+>+>+>+>+>+,+,+,+,+,+'+'+'+'+'+'+3 3 3 3 3 3 )+)+)+)+)+)+!+!+!+!+!+!+~+~+~+~+~+{+{+{+{+{+{+]+]+]+]+]+]+^+^+^+^+^+^+/+/+/+/+/+/+(+(+(+(+(+(+(+(+(+(+(+............_+_+_+_+_+_+_+_+_+_+_+_+:+:+:+:+:+:+",
"T T T T T `.`.`.`.`.`. + + + + + +.+.+.+.+.+.+++++++++++++@+@+@+@+@+#+#+#+#+#+#+$+$+$+$+$+$+%+%+%+%+%+%+&+&+&+&+&+&+*+*+*+*+*+=+=+=+=+=+=+-+-+-+-+-+-+;+;+;+;+;+;+>+>+>+>+>+>+,+,+,+,+,+'+'+'+'+'+'+3 3 3 3 3 3 )+)+)+)+)+)+!+!+!+!+!+!+~+~+~+~+~+{+{+{+{+{+{+]+]+]+]+]+]+^+^+^+^+^+^+/+/+/+/+/+/+(+(+(+(+(+(+(+(+(+(+(+............_+_+_+_+_+_+_+_+_+_+_+_+:+:+:+:+:+:+",
"T T T T T <+<+<+<+<+<+[+[+[+[+[+[+}+}+}+}+}+}+|+|+|+|+|+|+1+1+1+1+1+2+2+2+2+2+2+3+3+3+3+3+3+4+4+4+4+4+4+5+5+5+5+5+5+6+6+6+6+6+` ` ` ` ` ` 7+7+7+7+7+7+8+8+8+8+8+8+9+9+9+9+9+9+0+0+0+0+0+a+a+a+a+a+a+b+b+b+b+b+b+c+c+c+c+c+c+d+d+d+d+d+d+e+e+e+e+e+=+=+=+=+=+=+f+f+f+f+f+f+g+g+g+g+g+g+h+h+h+h+h+h+1+1+1+1+1+1+1+1+1+1+1+i+i+i+i+i+i+j+j+j+j+j+j+j+j+j+j+j+j+k+k+k+k+k+k+",
"T T T T T <+<+<+<+<+<+[+[+[+[+[+[+}+}+}+}+}+}+|+|+|+|+|+|+1+1+1+1+1+2+2+2+2+2+2+3+3+3+3+3+3+4+4+4+4+4+4+5+5+5+5+5+5+6+6+6+6+6+` ` ` ` ` ` 7+7+7+7+7+7+8+8+8+8+8+8+9+9+9+9+9+9+0+0+0+0+0+a+a+a+a+a+a+b+b+b+b+b+b+c+c+c+c+c+c+d+d+d+d+d+d+e+e+e+e+e+=+=+=+=+=+=+f+f+f+f+f+f+g+g+g+g+g+g+h+h+h+h+h+h+1+1+1+1+1+1+1+1+1+1+1+i+i+i+i+i+i+j+j+j+j+j+j+j+j+j+j+j+j+k+k+k+k+k+k+",
"T T T T T <+<+<+<+<+<+[+[+[+[+[+[+}+}+}+}+}+}+|+|+|+|+|+|+1+1+1+1+1+2+2+2+2+2+2+3+3+3+3+3+3+4+4+4+4+4+4+5+5+5+5+5+5+6+6+6+6+6+` ` ` ` ` ` 7+7+7+7+7+7+8+8+8+8+8+8+9+9+9+9+9+9+0+0+0+0+0+a+a+a+a+a+a+b+b+b+b+b+b+c+c+c+c+c+c+d+d+d+d+d+d+e+e+e+e+e+=+=+=+=+=+=+f+f+f+f+f+f+g+g+g+g+g+g+h+h+h+h+h+h+1+1+1+1+1+1+1+1+1+1+1+i+i+i+i+i+i+j+j+j+j+j+j+j+j+j+j+j+j+k+k+k+k+k+k+",
"T T T T T <+<+<+<+<+<+[+[+[+[+[+[+}+}+}+}+}+}+|+|+|+|+|+|+1+1+1+1+1+2+2+2+2+2+2+3+3+3+3+3+3+4+4+4+4+4+4+5+5+5+5+5+5+6+6+6+6+6+` ` ` ` ` ` 7+7+7+7+7+7+8+8+8+8+8+8+9+9+9+9+9+9+0+0+0+0+0+a+a+a+a+a+a+b+b+b+b+b+b+c+c+c+c+c+c+d+d+d+d+d+d+e+e+e+e+e+=+=+=+=+=+=+f+f+f+f+f+f+g+g+g+g+g+g+h+h+h+h+h+h+1+1+1+1+1+1+1+1+1+1+1+i+i+i+i+i+i+j+j+j+j+j+j+j+j+j+j+j+j+k+k+k+k+k+k+",
"T T T T T <+<+<+<+<+<+[+[+[+[+[+[+}+}+}+}+}+}+|+|+|+|+|+|+1+1+1+1+1+2+2+2+2+2+2+3+3+3+3+3+3+4+4+4+4+4+4+5+5+5+5+5+5+6+6+6+6+6+` ` ` ` ` ` 7+7+7+7+7+7+8+8+8+8+8+8+9+9+9+9+9+9+0+0+0+0+0+a+a+a+a+a+a+b+b+b+b+b+b+c+c+c+c+c+c+d+d+d+d+d+d+e+e+e+e+e+=+=+=+=+=+=+f+f+f+f+f+f+g+g+g+g+g+g+h+h+h+h+h+h+1+1+1+1+1+1+1+1+1+1+1+i+i+i+i+i+i+j+j+j+j+j+j+j+j+j+j+j+j+k+k+k+k+k+k+",
"T T T T T <+<+<+<+<+<+[+[+[+[+[+[+}+}+}+}+}+}+|+|+|+|+|+|+1+1+1+1+1+2+2+2+2+2+2+3+3+3+3+3+3+4+4+4+4+4+4+5+5+5+5+5+5+6+6+6+6+6+` ` ` ` ` ` 7+7+7+7+7+7+8+8+8+8+8+8+9+9+9+9+9+9+0+0+0+0+0+a+a+a+a+a+a+b+b+b+b+b+b+c+c+c+c+c+c+d+d+d+d+d+d+e+e+e+e+e+=+=+=+=+=+=+f+f+f+f+f+f+g+g+g+g+g+g+h+h+h+h+h+h+1+1+1+1+1+1+1+1+1+1+1+i+i+i+i+i+i+j+j+j+j+j+j+j+j+j+j+j+j+k+k+k+k+k+k+",
"l+l+l+l+l+m+m+m+m+m+m+n+n+n+n+n+n+o+o+o+o+o+o+p+p+p+p+p+p+q+q+q+q+q+r+r+r+r+r+r+s+s+s+s+s+s+t+t+t+t+t+t+u+u+u+u+u+u+u+u+u+u+u+v+v+v+v+v+v+w+w+w+w+w+w+x+x+x+x+x+x+y+y+y+y+y+y+y+y+y+y+y+z+z+z+z+z+z+A+A+A+A+A+A+B+B+B+B+B+B+y+y+y+y+y+y+y+y+y+y+y+y+y+y+y+y+y+` ` ` ` ` `  . . . . . .C+C+C+C+C+C+D+D+D+D+D+E+E+E+E+E+E+F+F+F+F+F+F+G+G+G+G+G+G+H+H+H+H+H+H+I+I+I+I+I+I+",
"l+l+l+l+l+m+m+m+m+m+m+n+n+n+n+n+n+o+o+o+o+o+o+p+p+p+p+p+p+q+q+q+q+q+r+r+r+r+r+r+s+s+s+s+s+s+t+t+t+t+t+t+u+u+u+u+u+u+u+u+u+u+u+v+v+v+v+v+v+w+w+w+w+w+w+x+x+x+x+x+x+y+y+y+y+y+y+y+y+y+y+y+z+z+z+z+z+z+A+A+A+A+A+A+B+B+B+B+B+B+y+y+y+y+y+y+y+y+y+y+y+y+y+y+y+y+y+` ` ` ` ` `  . . . . . .C+C+C+C+C+C+D+D+D+D+D+E+E+E+E+E+E+F+F+F+F+F+F+G+G+G+G+G+G+H+H+H+H+H+H+I+I+I+I+I+I+",
"l+l+l+l+l+m+m+m+m+m+m+n+n+n+n+n+n+o+o+o+o+o+o+p+p+p+p+p+p+q+q+q+q+q+r+r+r+r+r+r+s+s+s+s+s+s+t+t+t+t+t+t+u+u+u+u+u+u+u+u+u+u+u+v+v+v+v+v+v+w+w+w+w+w+w+x+x+x+x+x+x+y+y+y+y+y+y+y+y+y+y+y+z+z+z+z+z+z+A+A+A+A+A+A+B+B+B+B+B+B+y+y+y+y+y+y+y+y+y+y+y+y+y+y+y+y+y+` ` ` ` ` `  . . . . . .C+C+C+C+C+C+D+D+D+D+D+E+E+E+E+E+E+F+F+F+F+F+F+G+G+G+G+G+G+H+H+H+H+H+H+I+I+I+I+I+I+",
"l+l+l+l+l+m+m+m+m+m+m+n+n+n+n+n+n+o+o+o+o+o+o+p+p+p+p+p+p+q+q+q+q+q+r+r+r+r+r+r+s+s+s+s+s+s+t+t+t+t+t+t+u+u+u+u+u+u+u+u+u+u+u+v+v+v+v+v+v+w+w+w+w+w+w+x+x+x+x+x+x+y+y+y+y+y+y+y+y+y+y+y+z+z+z+z+z+z+A+A+A+A+A+A+B+B+B+B+B+B+y+y+y+y+y+y+y+y+y+y+y+y+y+y+y+y+y+` ` ` ` ` `  . . . . . .C+C+C+C+C+C+D+D+D+D+D+E+E+E+E+E+E+F+F+F+F+F+F+G+G+G+G+G+G+H+H+H+H+H+H+I+I+I+I+I+I+",
"l+l+l+l+l+m+m+m+m+m+m+n+n+n+n+n+n+o+o+o+o+o+o+p+p+p+p+p+p+q+q+q+q+q+r+r+r+r+r+r+s+s+s+s+s+s+t+t+t+t+t+t+u+u+u+u+u+u+u+u+u+u+u+v+v+v+v+v+v+w+w+w+w+w+w+x+x+x+x+x+x+y+y+y+y+y+y+y+y+y+y+y+z+z+z+z+z+z+A+A+A+A+A+A+B+B+B+B+B+B+y+y+y+y+y+y+y+y+y+y+y+y+y+y+y+y+y+` ` ` ` ` `  . . . . . .C+C+C+C+C+C+D+D+D+D+D+E+E+E+E+E+E+F+F+F+F+F+F+G+G+G+G+G+G+H+H+H+H+H+H+I+I+I+I+I+I+",
"J+J+J+J+J+K+K+K+K+K+K+L+L+L+L+L+L+M+M+M+M+M+M+N+N+N+N+N+N+O+O+O+O+O+` ` ` ` ` ` P+P+P+P+P+P+Q+Q+Q+Q+Q+Q+R+R+R+R+R+R+S+S+S+S+S+M+M+M+M+M+M+T+T+T+T+T+T+O O O O O O M+M+M+M+M+M+U+U+U+U+U+V+V+V+V+V+V+W+W+W+W+W+W+X+X+X+X+X+X+M+M+M+M+M+M+M+M+M+M+M+M+M+M+M+M+M+Y+Y+Y+Y+Y+Y+Z+Z+Z+Z+Z+Z+`+`+`+`+`+`+ @ @ @ @ @.@.@.@.@.@.@a a a a a a +@+@+@+@+@+@@@@@@@@@@@@@#@#@#@#@#@#@",
"J+J+J+J+J+K+K+K+K+K+K+L+L+L+L+L+L+M+M+M+M+M+M+N+N+N+N+N+N+O+O+O+O+O+` ` ` ` ` ` P+P+P+P+P+P+Q+Q+Q+Q+Q+Q+R+R+R+R+R+R+S+S+S+S+S+M+M+M+M+M+M+T+T+T+T+T+T+O O O O O O M+M+M+M+M+M+U+U+U+U+U+V+V+V+V+V+V+W+W+W+W+W+W+X+X+X+X+X+X+M+M+M+M+M+M+M+M+M+M+M+M+M+M+M+M+M+Y+Y+Y+Y+Y+Y+Z+Z+Z+Z+Z+Z+`+`+`+`+`+`+ @ @ @ @ @.@.@.@.@.@.@a a a a a a +@+@+@+@+@+@@@@@@@@@@@@@#@#@#@#@#@#@",
"J+J+J+J+J+K+K+K+K+K+K+L+L+L+L+L+L+M+M+M+M+M+M+N+N+N+N+N+N+O+O+O+O+O+` ` ` ` ` ` P+P+P+P+P+P+Q+Q+Q+Q+Q+Q+R+R+R+R+R+R+S+S+S+S+S+M+M+M+M+M+M+T+T+T+T+T+T+O O O O O O M+M+M+M+M+M+U+U+U+U+U+V+V+V+V+V+V+W+W+W+W+W+W+X+X+X+X+X+X+M+M+M+M+M+M+M+M+M+M+M+M+M+M+M+M+M+Y+Y+Y+Y+Y+Y+Z+Z+Z+Z+Z+Z+`+`+`+`+`+`+ @ @ @ @ @.@.@.@.@.@.@a a a a a a +@+@+@+@+@+@@@@@@@@@@@@@#@#@#@#@#@#@",
"J+J+J+J+J+K+K+K+K+K+K+L+L+L+L+L+L+M+M+M+M+M+M+N+N+N+N+N+N+O+O+O+O+O+` ` ` ` ` ` P+P+P+P+P+P+Q+Q+Q+Q+Q+Q+R+R+R+R+R+R+S+S+S+S+S+M+M+M+M+M+M+T+T+T+T+T+T+O O O O O O M+M+M+M+M+M+U+U+U+U+U+V+V+V+V+V+V+W+W+W+W+W+W+X+X+X+X+X+X+M+M+M+M+M+M+M+M+M+M+M+M+M+M+M+M+M+Y+Y+Y+Y+Y+Y+Z+Z+Z+Z+Z+Z+`+`+`+`+`+`+ @ @ @ @ @.@.@.@.@.@.@a a a a a a +@+@+@+@+@+@@@@@@@@@@@@@#@#@#@#@#@#@",
"J+J+J+J+J+K+K+K+K+K+K+L+L+L+L+L+L+M+M+M+M+M+M+N+N+N+N+N+N+O+O+O+O+O+` ` ` ` ` ` P+P+P+P+P+P+Q+Q+Q+Q+Q+Q+R+R+R+R+R+R+S+S+S+S+S+M+M+M+M+M+M+T+T+T+T+T+T+O O O O O O M+M+M+M+M+M+U+U+U+U+U+V+V+V+V+V+V+W+W+W+W+W+W+X+X+X+X+X+X+M+M+M+M+M+M+M+M+M+M+M+M+M+M+M+M+M+Y+Y+Y+Y+Y+Y+Z+Z+Z+Z+Z+Z+`+`+`+`+`+`+ @ @ @ @ @.@.@.@.@.@.@a a a a a a +@+@+@+@+@+@@@@@@@@@@@@@#@#@#@#@#@#@",
"J+J+J+J+J+K+K+K+K+K+K+L+L+L+L+L+L+M+M+M+M+M+M+N+N+N+N+N+N+O+O+O+O+O+` ` ` ` ` ` P+P+P+P+P+P+Q+Q+Q+Q+Q+Q+R+R+R+R+R+R+S+S+S+S+S+M+M+M+M+M+M+T+T+T+T+T+T+O O O O O O M+M+M+M+M+M+U+U+U+U+U+V+V+V+V+V+V+W+W+W+W+W+W+X+X+X+X+X+X+M+M+M+M+M+M+M+M+M+M+M+M+M+M+M+M+M+Y+Y+Y+Y+Y+Y+Z+Z+Z+Z+Z+Z+`+`+`+`+`+`+ @ @ @ @ @.@.@.@.@.@.@a a a a a a +@+@+@+@+@+@@@@@@@@@@@@@#@#@#@#@#@#@",
"$@$@$@$@$@a a a a a a a a a a a a %@%@%@%@%@%@&@&@&@&@&@&@*@*@*@*@*@=@=@=@=@=@=@-@-@-@-@-@-@;@;@;@;@;@;@>@>@>@>@>@>@6 6 6 6 6 %@%@%@%@%@%@O O O O O O ,@,@,@,@,@,@%@%@%@%@%@%@A.A.A.A.A.L.L.L.L.L.L.%@%@%@%@%@%@%@%@%@%@%@%@%@%@%@%@%@%@%@%@%@%@%@%@%@%@%@%@%@'@'@'@'@'@'@)@)@)@)@)@)@`+`+`+`+`+`+!@!@!@!@!@~@~@~@~@~@~@a a a a a a L.L.L.L.L.L.L.L.L.L.L.L.v v v v v v ",
"$@$@$@$@$@a a a a a a a a a a a a %@%@%@%@%@%@&@&@&@&@&@&@*@*@*@*@*@=@=@=@=@=@=@-@-@-@-@-@-@;@;@;@;@;@;@>@>@>@>@>@>@6 6 6 6 6 %@%@%@%@%@%@O O O O O O ,@,@,@,@,@,@%@%@%@%@%@%@A.A.A.A.A.L.L.L.L.L.L.%@%@%@%@%@%@%@%@%@%@%@%@%@%@%@%@%@%@%@%@%@%@%@%@%@%@%@%@%@'@'@'@'@'@'@)@)@)@)@)@)@`+`+`+`+`+`+!@!@!@!@!@~@~@~@~@~@~@a a a a a a L.L.L.L.L.L.L.L.L.L.L.L.v v v v v v ",
"$@$@$@$@$@a a a a a a a a a a a a %@%@%@%@%@%@&@&@&@&@&@&@*@*@*@*@*@=@=@=@=@=@=@-@-@-@-@-@-@;@;@;@;@;@;@>@>@>@>@>@>@6 6 6 6 6 %@%@%@%@%@%@O O O O O O ,@,@,@,@,@,@%@%@%@%@%@%@A.A.A.A.A.L.L.L.L.L.L.%@%@%@%@%@%@%@%@%@%@%@%@%@%@%@%@%@%@%@%@%@%@%@%@%@%@%@%@%@'@'@'@'@'@'@)@)@)@)@)@)@`+`+`+`+`+`+!@!@!@!@!@~@~@~@~@~@~@a a a a a a L.L.L.L.L.L.L.L.L.L.L.L.v v v v v v ",
"$@$@$@$@$@a a a a a a a a a a a a %@%@%@%@%@%@&@&@&@&@&@&@*@*@*@*@*@=@=@=@=@=@=@-@-@-@-@-@-@;@;@;@;@;@;@>@>@>@>@>@>@6 6 6 6 6 %@%@%@%@%@%@O O O O O O ,@,@,@,@,@,@%@%@%@%@%@%@A.A.A.A.A.L.L.L.L.L.L.%@%@%@%@%@%@%@%@%@%@%@%@%@%@%@%@%@%@%@%@%@%@%@%@%@%@%@%@%@'@'@'@'@'@'@)@)@)@)@)@)@`+`+`+`+`+`+!@!@!@!@!@~@~@~@~@~@~@a a a a a a L.L.L.L.L.L.L.L.L.L.L.L.v v v v v v ",
"$@$@$@$@$@a a a a a a a a a a a a %@%@%@%@%@%@&@&@&@&@&@&@*@*@*@*@*@=@=@=@=@=@=@-@-@-@-@-@-@;@;@;@;@;@;@>@>@>@>@>@>@6 6 6 6 6 %@%@%@%@%@%@O O O O O O ,@,@,@,@,@,@%@%@%@%@%@%@A.A.A.A.A.L.L.L.L.L.L.%@%@%@%@%@%@%@%@%@%@%@%@%@%@%@%@%@%@%@%@%@%@%@%@%@%@%@%@%@'@'@'@'@'@'@)@)@)@)@)@)@`+`+`+`+`+`+!@!@!@!@!@~@~@~@~@~@~@a a a a a a L.L.L.L.L.L.L.L.L.L.L.L.v v v v v v ",
"$@$@$@$@$@a a a a a a a a a a a a %@%@%@%@%@%@&@&@&@&@&@&@*@*@*@*@*@=@=@=@=@=@=@-@-@-@-@-@-@;@;@;@;@;@;@>@>@>@>@>@>@6 6 6 6 6 %@%@%@%@%@%@O O O O O O ,@,@,@,@,@,@%@%@%@%@%@%@A.A.A.A.A.L.L.L.L.L.L.%@%@%@%@%@%@%@%@%@%@%@%@%@%@%@%@%@%@%@%@%@%@%@%@%@%@%@%@%@'@'@'@'@'@'@)@)@)@)@)@)@`+`+`+`+`+`+!@!@!@!@!@~@~@~@~@~@~@a a a a a a L.L.L.L.L.L.L.L.L.L.L.L.v v v v v v ",
"{@{@{@{@{@%@%@%@%@%@%@J J J J J J ]@]@]@]@]@]@^@^@^@^@^@^@*@*@*@*@*@=@=@=@=@=@=@/@/@/@/@/@/@(@(@(@(@(@(@v.v.v.v.v.v.J J J J J _@_@_@_@_@_@A.A.A.A.A.A.A.A.A.A.A.A.:@:@:@:@:@:@<@<@<@<@<@[@[@[@[@[@[@}@}@}@}@}@}@|@|@|@|@|@|@1@1@1@1@1@1@A.A.A.A.A.A.A.A.A.A.A.2@2@2@2@2@2@3@3@3@3@3@3@4@4@4@4@4@4@5@5@5@5@5@v v v v v v A.A.A.A.A.A.6@6@6@6@6@6@7@7@7@7@7@7@g g g g g g ",
"{@{@{@{@{@%@%@%@%@%@%@J J J J J J ]@]@]@]@]@]@^@^@^@^@^@^@*@*@*@*@*@=@=@=@=@=@=@/@/@/@/@/@/@(@(@(@(@(@(@v.v.v.v.v.v.J J J J J _@_@_@_@_@_@A.A.A.A.A.A.A.A.A.A.A.A.:@:@:@:@:@:@<@<@<@<@<@[@[@[@[@[@[@}@}@}@}@}@}@|@|@|@|@|@|@1@1@1@1@1@1@A.A.A.A.A.A.A.A.A.A.A.2@2@2@2@2@2@3@3@3@3@3@3@4@4@4@4@4@4@5@5@5@5@5@v v v v v v A.A.A.A.A.A.6@6@6@6@6@6@7@7@7@7@7@7@g g g g g g ",
"{@{@{@{@{@%@%@%@%@%@%@J J J J J J ]@]@]@]@]@]@^@^@^@^@^@^@*@*@*@*@*@=@=@=@=@=@=@/@/@/@/@/@/@(@(@(@(@(@(@v.v.v.v.v.v.J J J J J _@_@_@_@_@_@A.A.A.A.A.A.A.A.A.A.A.A.:@:@:@:@:@:@<@<@<@<@<@[@[@[@[@[@[@}@}@}@}@}@}@|@|@|@|@|@|@1@1@1@1@1@1@A.A.A.A.A.A.A.A.A.A.A.2@2@2@2@2@2@3@3@3@3@3@3@4@4@4@4@4@4@5@5@5@5@5@v v v v v v A.A.A.A.A.A.6@6@6@6@6@6@7@7@7@7@7@7@g g g g g g ",
"{@{@{@{@{@%@%@%@%@%@%@J J J J J J ]@]@]@]@]@]@^@^@^@^@^@^@*@*@*@*@*@=@=@=@=@=@=@/@/@/@/@/@/@(@(@(@(@(@(@v.v.v.v.v.v.J J J J J _@_@_@_@_@_@A.A.A.A.A.A.A.A.A.A.A.A.:@:@:@:@:@:@<@<@<@<@<@[@[@[@[@[@[@}@}@}@}@}@}@|@|@|@|@|@|@1@1@1@1@1@1@A.A.A.A.A.A.A.A.A.A.A.2@2@2@2@2@2@3@3@3@3@3@3@4@4@4@4@4@4@5@5@5@5@5@v v v v v v A.A.A.A.A.A.6@6@6@6@6@6@7@7@7@7@7@7@g g g g g g ",
"{@{@{@{@{@%@%@%@%@%@%@J J J J J J ]@]@]@]@]@]@^@^@^@^@^@^@*@*@*@*@*@=@=@=@=@=@=@/@/@/@/@/@/@(@(@(@(@(@(@v.v.v.v.v.v.J J J J J _@_@_@_@_@_@A.A.A.A.A.A.A.A.A.A.A.A.:@:@:@:@:@:@<@<@<@<@<@[@[@[@[@[@[@}@}@}@}@}@}@|@|@|@|@|@|@1@1@1@1@1@1@A.A.A.A.A.A.A.A.A.A.A.2@2@2@2@2@2@3@3@3@3@3@3@4@4@4@4@4@4@5@5@5@5@5@v v v v v v A.A.A.A.A.A.6@6@6@6@6@6@7@7@7@7@7@7@g g g g g g ",
"{@{@{@{@{@%@%@%@%@%@%@J J J J J J ]@]@]@]@]@]@^@^@^@^@^@^@*@*@*@*@*@=@=@=@=@=@=@/@/@/@/@/@/@(@(@(@(@(@(@v.v.v.v.v.v.J J J J J _@_@_@_@_@_@A.A.A.A.A.A.A.A.A.A.A.A.:@:@:@:@:@:@<@<@<@<@<@[@[@[@[@[@[@}@}@}@}@}@}@|@|@|@|@|@|@1@1@1@1@1@1@A.A.A.A.A.A.A.A.A.A.A.2@2@2@2@2@2@3@3@3@3@3@3@4@4@4@4@4@4@5@5@5@5@5@v v v v v v A.A.A.A.A.A.6@6@6@6@6@6@7@7@7@7@7@7@g g g g g g ",
"8@8@8@8@8@9@9@9@9@9@9@0@0@0@0@0@0@a@a@a@a@a@a@b@b@b@b@b@b@c@c@c@c@c@~.~.~.~.~.~.d@d@d@d@d@d@e@e@e@e@e@e@f@f@f@f@f@f@g@g@g@g@g@h@h@h@h@h@h@i@i@i@i@i@i@j@j@j@j@j@j@k@k@k@k@k@k@l@l@l@l@l@+.+.+.+.+.+.m@m@m@m@m@m@n@n@n@n@n@n@o@o@o@o@o@o@p@p@p@p@p@p@p@p@p@p@p@q@q@q@q@q@q@r@r@r@r@r@r@s@s@s@s@s@s@t@t@t@t@t@u@u@u@u@u@u@j@j@j@j@j@j@v@v@v@v@v@v@A A A A A A w@w@w@w@w@w@",
"8@8@8@8@8@9@9@9@9@9@9@0@0@0@0@0@0@a@a@a@a@a@a@b@b@b@b@b@b@c@c@c@c@c@~.~.~.~.~.~.d@d@d@d@d@d@e@e@e@e@e@e@f@f@f@f@f@f@g@g@g@g@g@h@h@h@h@h@h@i@i@i@i@i@i@j@j@j@j@j@j@k@k@k@k@k@k@l@l@l@l@l@+.+.+.+.+.+.m@m@m@m@m@m@n@n@n@n@n@n@o@o@o@o@o@o@p@p@p@p@p@p@p@p@p@p@p@q@q@q@q@q@q@r@r@r@r@r@r@s@s@s@s@s@s@t@t@t@t@t@u@u@u@u@u@u@j@j@j@j@j@j@v@v@v@v@v@v@A A A A A A w@w@w@w@w@w@",
"8@8@8@8@8@9@9@9@9@9@9@0@0@0@0@0@0@a@a@a@a@a@a@b@b@b@b@b@b@c@c@c@c@c@~.~.~.~.~.~.d@d@d@d@d@d@e@e@e@e@e@e@f@f@f@f@f@f@g@g@g@g@g@h@h@h@h@h@h@i@i@i@i@i@i@j@j@j@j@j@j@k@k@k@k@k@k@l@l@l@l@l@+.+.+.+.+.+.m@m@m@m@m@m@n@n@n@n@n@n@o@o@o@o@o@o@p@p@p@p@p@p@p@p@p@p@p@q@q@q@q@q@q@r@r@r@r@r@r@s@s@s@s@s@s@t@t@t@t@t@u@u@u@u@u@u@j@j@j@j@j@j@v@v@v@v@v@v@A A A A A A w@w@w@w@w@w@",
"8@8@8@8@8@9@9@9@9@9@9@0@0@0@0@0@0@a@a@a@a@a@a@b@b@b@b@b@b@c@c@c@c@c@~.~.~.~.~.~.d@d@d@d@d@d@e@e@e@e@e@e@f@f@f@f@f@f@g@g@g@g@g@h@h@h@h@h@h@i@i@i@i@i@i@j@j@j@j@j@j@k@k@k@k@k@k@l@l@l@l@l@+.+.+.+.+.+.m@m@m@m@m@m@n@n@n@n@n@n@o@o@o@o@o@o@p@p@p@p@p@p@p@p@p@p@p@q@q@q@q@q@q@r@r@r@r@r@r@s@s@s@s@s@s@t@t@t@t@t@u@u@u@u@u@u@j@j@j@j@j@j@v@v@v@v@v@v@A A A A A A w@w@w@w@w@w@",
"8@8@8@8@8@9@9@9@9@9@9@0@0@0@0@0@0@a@a@a@a@a@a@b@b@b@b@b@b@c@c@c@c@c@~.~.~.~.~.~.d@d@d@d@d@d@e@e@e@e@e@e@f@f@f@f@f@f@g@g@g@g@g@h@h@h@h@h@h@i@i@i@i@i@i@j@j@j@j@j@j@k@k@k@k@k@k@l@l@l@l@l@+.+.+.+.+.+.m@m@m@m@m@m@n@n@n@n@n@n@o@o@o@o@o@o@p@p@p@p@p@p@p@p@p@p@p@q@q@q@q@q@q@r@r@r@r@r@r@s@s@s@s@s@s@t@t@t@t@t@u@u@u@u@u@u@j@j@j@j@j@j@v@v@v@v@v@v@A A A A A A w@w@w@w@w@w@",
"8@8@8@8@8@9@9@9@9@9@9@0@0@0@0@0@0@a@a@a@a@a@a@b@b@b@b@b@b@c@c@c@c@c@~.~.~.~.~.~.d@d@d@d@d@d@e@e@e@e@e@e@f@f@f@f@f@f@g@g@g@g@g@h@h@h@h@h@h@i@i@i@i@i@i@j@j@j@j@j@j@k@k@k@k@k@k@l@l@l@l@l@+.+.+.+.+.+.m@m@m@m@m@m@n@n@n@n@n@n@o@o@o@o@o@o@p@p@p@p@p@p@p@p@p@p@p@q@q@q@q@q@q@r@r@r@r@r@r@s@s@s@s@s@s@t@t@t@t@t@u@u@u@u@u@u@j@j@j@j@j@j@v@v@v@v@v@v@A A A A A A w@w@w@w@w@w@",
"x@x@x@x@x@K K K K K K {.{.{.{.{.{.y@y@y@y@y@y@z@z@z@z@z@z@A@A@A@A@A@B@B@B@B@B@B@C@C@C@C@C@C@/./././././.D@D@D@D@D@D@E@E@E@E@E@F@F@F@F@F@F@G@G@G@G@G@G@H@H@H@H@H@H@` ` ` ` ` ` ` ` ` ` ` I@I@I@I@I@I@I@I@I@I@I@I@-+-+-+-+-+-+J@J@J@J@J@J@K@K@K@K@K@K@K@K@K@K@K@L@L@L@L@L@L@M@M@M@M@M@M@N@N@N@N@N@N@~.~.~.~.~.G@G@G@G@G@G@G@G@G@G@G@G@O@O@O@O@O@O@P@P@P@P@P@P@Q@Q@Q@Q@Q@Q@",
"x@x@x@x@x@K K K K K K {.{.{.{.{.{.y@y@y@y@y@y@z@z@z@z@z@z@A@A@A@A@A@B@B@B@B@B@B@C@C@C@C@C@C@/./././././.D@D@D@D@D@D@E@E@E@E@E@F@F@F@F@F@F@G@G@G@G@G@G@H@H@H@H@H@H@` ` ` ` ` ` ` ` ` ` ` I@I@I@I@I@I@I@I@I@I@I@I@-+-+-+-+-+-+J@J@J@J@J@J@K@K@K@K@K@K@K@K@K@K@K@L@L@L@L@L@L@M@M@M@M@M@M@N@N@N@N@N@N@~.~.~.~.~.G@G@G@G@G@G@G@G@G@G@G@G@O@O@O@O@O@O@P@P@P@P@P@P@Q@Q@Q@Q@Q@Q@",
"x@x@x@x@x@K K K K K K {.{.{.{.{.{.y@y@y@y@y@y@z@z@z@z@z@z@A@A@A@A@A@B@B@B@B@B@B@C@C@C@C@C@C@/./././././.D@D@D@D@D@D@E@E@E@E@E@F@F@F@F@F@F@G@G@G@G@G@G@H@H@H@H@H@H@` ` ` ` ` ` ` ` ` ` ` I@I@I@I@I@I@I@I@I@I@I@I@-+-+-+-+-+-+J@J@J@J@J@J@K@K@K@K@K@K@K@K@K@K@K@L@L@L@L@L@L@M@M@M@M@M@M@N@N@N@N@N@N@~.~.~.~.~.G@G@G@G@G@G@G@G@G@G@G@G@O@O@O@O@O@O@P@P@P@P@P@P@Q@Q@Q@Q@Q@Q@",
"x@x@x@x@x@K K K K K K {.{.{.{.{.{.y@y@y@y@y@y@z@z@z@z@z@z@A@A@A@A@A@B@B@B@B@B@B@C@C@C@C@C@C@/./././././.D@D@D@D@D@D@E@E@E@E@E@F@F@F@F@F@F@G@G@G@G@G@G@H@H@H@H@H@H@` ` ` ` ` ` ` ` ` ` ` I@I@I@I@I@I@I@I@I@I@I@I@-+-+-+-+-+-+J@J@J@J@J@J@K@K@K@K@K@K@K@K@K@K@K@L@L@L@L@L@L@M@M@M@M@M@M@N@N@N@N@N@N@~.~.~.~.~.G@G@G@G@G@G@G@G@G@G@G@G@O@O@O@O@O@O@P@P@P@P@P@P@Q@Q@Q@Q@Q@Q@",
"x@x@x@x@x@K K K K K K {.{.{.{.{.{.y@y@y@y@y@y@z@z@z@z@z@z@A@A@A@A@A@B@B@B@B@B@B@C@C@C@C@C@C@/./././././.D@D@D@D@D@D@E@E@E@E@E@F@F@F@F@F@F@G@G@G@G@G@G@H@H@H@H@H@H@` ` ` ` ` ` ` ` ` ` ` I@I@I@I@I@I@I@I@I@I@I@I@-+-+-+-+-+-+J@J@J@J@J@J@K@K@K@K@K@K@K@K@K@K@K@L@L@L@L@L@L@M@M@M@M@M@M@N@N@N@N@N@N@~.~.~.~.~.G@G@G@G@G@G@G@G@G@G@G@G@O@O@O@O@O@O@P@P@P@P@P@P@Q@Q@Q@Q@Q@Q@",
"1.1.1.1.1.<.<.<.<.<.<.t t t t t t R@R@R@R@R@R@S@S@S@S@S@S@T@T@T@T@T@U@U@U@U@U@U@V@V@V@V@V@V@W@W@W@W@W@W@X@X@X@X@X@X@Y@Y@Y@Y@Y@Z@Z@Z@Z@Z@Z@`@`@`@`@`@`@ # # # # # #e+e+e+e+e+e+!+!+!+!+!+.#.#.#.#.#.#+#+#+#+#+#+#@#@#@#@#@#@#############$#$#$#$#$#%#%#%#%#%#%#&#&#&#&#&#&#*#*#*#*#*#*#=#=#=#=#=#=#-#-#-#-#-#W@W@W@W@W@W@;#;#;#;#;#;#>#>#>#>#>#>#,#,#,#,#,#,#'#'#'#'#'#'#",
"1.1.1.1.1.<.<.<.<.<.<.t t t t t t R@R@R@R@R@R@S@S@S@S@S@S@T@T@T@T@T@U@U@U@U@U@U@V@V@V@V@V@V@W@W@W@W@W@W@X@X@X@X@X@X@Y@Y@Y@Y@Y@Z@Z@Z@Z@Z@Z@`@`@`@`@`@`@ # # # # # #e+e+e+e+e+e+!+!+!+!+!+.#.#.#.#.#.#+#+#+#+#+#+#@#@#@#@#@#@#############$#$#$#$#$#%#%#%#%#%#%#&#&#&#&#&#&#*#*#*#*#*#*#=#=#=#=#=#=#-#-#-#-#-#W@W@W@W@W@W@;#;#;#;#;#;#>#>#>#>#>#>#,#,#,#,#,#,#'#'#'#'#'#'#",
"1.1.1.1.1.<.<.<.<.<.<.t t t t t t R@R@R@R@R@R@S@S@S@S@S@S@T@T@T@T@T@U@U@U@U@U@U@V@V@V@V@V@V@W@W@W@W@W@W@X@X@X@X@X@X@Y@Y@Y@Y@Y@Z@Z@Z@Z@Z@Z@`@`@`@`@`@`@ # # # # # #e+e+e+e+e+e+!+!+!+!+!+.#.#.#.#.#.#+#+#+#+#+#+#@#@#@#@#@#@#############$#$#$#$#$#%#%#%#%#%#%#&#&#&#&#&#&#*#*#*#*#*#*#=#=#=#=#=#=#-#-#-#-#-#W@W@W@W@W@W@;#;#;#;#;#;#>#>#>#>#>#>#,#,#,#,#,#,#'#'#'#'#'#'#",
"1.1.1.1.1.<.<.<.<.<.<.t t t t t t R@R@R@R@R@R@S@S@S@S@S@S@T@T@T@T@T@U@U@U@U@U@U@V@V@V@V@V@V@W@W@W@W@W@W@X@X@X@X@X@X@Y@Y@Y@Y@Y@Z@Z@Z@Z@Z@Z@`@`@`@`@`@`@ # # # # # #e+e+e+e+e+e+!+!+!+!+!+.#.#.#.#.#.#+#+#+#+#+#+#@#@#@#@#@#@#############$#$#$#$#$#%#%#%#%#%#%#&#&#&#&#&#&#*#*#*#*#*#*#=#=#=#=#=#=#-#-#-#-#-#W@W@W@W@W@W@;#;#;#;#;#;#>#>#>#>#>#>#,#,#,#,#,#,#'#'#'#'#'#'#",
"1.1.1.1.1.<.<.<.<.<.<.t t t t t t R@R@R@R@R@R@S@S@S@S@S@S@T@T@T@T@T@U@U@U@U@U@U@V@V@V@V@V@V@W@W@W@W@W@W@X@X@X@X@X@X@Y@Y@Y@Y@Y@Z@Z@Z@Z@Z@Z@`@`@`@`@`@`@ # # # # # #e+e+e+e+e+e+!+!+!+!+!+.#.#.#.#.#.#+#+#+#+#+#+#@#@#@#@#@#@#############$#$#$#$#$#%#%#%#%#%#%#&#&#&#&#&#&#*#*#*#*#*#*#=#=#=#=#=#=#-#-#-#-#-#W@W@W@W@W@W@;#;#;#;#;#;#>#>#>#>#>#>#,#,#,#,#,#,#'#'#'#'#'#'#",
"1.1.1.1.1.<.<.<.<.<.<.t t t t t t R@R@R@R@R@R@S@S@S@S@S@S@T@T@T@T@T@U@U@U@U@U@U@V@V@V@V@V@V@W@W@W@W@W@W@X@X@X@X@X@X@Y@Y@Y@Y@Y@Z@Z@Z@Z@Z@Z@`@`@`@`@`@`@ # # # # # #e+e+e+e+e+e+!+!+!+!+!+.#.#.#.#.#.#+#+#+#+#+#+#@#@#@#@#@#@#############$#$#$#$#$#%#%#%#%#%#%#&#&#&#&#&#&#*#*#*#*#*#*#=#=#=#=#=#=#-#-#-#-#-#W@W@W@W@W@W@;#;#;#;#;#;#>#>#>#>#>#>#,#,#,#,#,#,#'#'#'#'#'#'#",
"1.1.1.1.1.)#)#)#)#)#)#!#!#!#!#!#!#~#~#~#~#~#~#{#{#{#{#{#{#]#]#]#]#]#O O O O O O O O O O O O ^#^#^#^#^#^#/#/#/#/#/#/#(#(#(#(#(#z.z.z.z.z.z.6 6 6 6 6 6 _#_#_#_#_#_#:#:#:#:#:#:#<#<#<#<#<#[#[#[#[#[#[#5 5 5 5 5 5 N N N N N N O O O O O O }#}#}#}#}#|#|#|#|#|#|#1#1#1#1#1#1#0@0@0@0@0@0@2#2#2#2#2#2#3#3#3#3#3#g g g g g g h.h.h.h.h.h.v v v v v v 4#4#4#4#4#4#5#5#5#5#5#5#",
"1.1.1.1.1.)#)#)#)#)#)#!#!#!#!#!#!#~#~#~#~#~#~#{#{#{#{#{#{#]#]#]#]#]#O O O O O O O O O O O O ^#^#^#^#^#^#/#/#/#/#/#/#(#(#(#(#(#z.z.z.z.z.z.6 6 6 6 6 6 _#_#_#_#_#_#:#:#:#:#:#:#<#<#<#<#<#[#[#[#[#[#[#5 5 5 5 5 5 N N N N N N O O O O O O }#}#}#}#}#|#|#|#|#|#|#1#1#1#1#1#1#0@0@0@0@0@0@2#2#2#2#2#2#3#3#3#3#3#g g g g g g h.h.h.h.h.h.v v v v v v 4#4#4#4#4#4#5#5#5#5#5#5#",
"1.1.1.1.1.)#)#)#)#)#)#!#!#!#!#!#!#~#~#~#~#~#~#{#{#{#{#{#{#]#]#]#]#]#O O O O O O O O O O O O ^#^#^#^#^#^#/#/#/#/#/#/#(#(#(#(#(#z.z.z.z.z.z.6 6 6 6 6 6 _#_#_#_#_#_#:#:#:#:#:#:#<#<#<#<#<#[#[#[#[#[#[#5 5 5 5 5 5 N N N N N N O O O O O O }#}#}#}#}#|#|#|#|#|#|#1#1#1#1#1#1#0@0@0@0@0@0@2#2#2#2#2#2#3#3#3#3#3#g g g g g g h.h.h.h.h.h.v v v v v v 4#4#4#4#4#4#5#5#5#5#5#5#",
"1.1.1.1.1.)#)#)#)#)#)#!#!#!#!#!#!#~#~#~#~#~#~#{#{#{#{#{#{#]#]#]#]#]#O O O O O O O O O O O O ^#^#^#^#^#^#/#/#/#/#/#/#(#(#(#(#(#z.z.z.z.z.z.6 6 6 6 6 6 _#_#_#_#_#_#:#:#:#:#:#:#<#<#<#<#<#[#[#[#[#[#[#5 5 5 5 5 5 N N N N N N O O O O O O }#}#}#}#}#|#|#|#|#|#|#1#1#1#1#1#1#0@0@0@0@0@0@2#2#2#2#2#2#3#3#3#3#3#g g g g g g h.h.h.h.h.h.v v v v v v 4#4#4#4#4#4#5#5#5#5#5#5#",
"1.1.1.1.1.)#)#)#)#)#)#!#!#!#!#!#!#~#~#~#~#~#~#{#{#{#{#{#{#]#]#]#]#]#O O O O O O O O O O O O ^#^#^#^#^#^#/#/#/#/#/#/#(#(#(#(#(#z.z.z.z.z.z.6 6 6 6 6 6 _#_#_#_#_#_#:#:#:#:#:#:#<#<#<#<#<#[#[#[#[#[#[#5 5 5 5 5 5 N N N N N N O O O O O O }#}#}#}#}#|#|#|#|#|#|#1#1#1#1#1#1#0@0@0@0@0@0@2#2#2#2#2#2#3#3#3#3#3#g g g g g g h.h.h.h.h.h.v v v v v v 4#4#4#4#4#4#5#5#5#5#5#5#",
"1.1.1.1.1.)#)#)#)#)#)#!#!#!#!#!#!#~#~#~#~#~#~#{#{#{#{#{#{#]#]#]#]#]#O O O O O O O O O O O O ^#^#^#^#^#^#/#/#/#/#/#/#(#(#(#(#(#z.z.z.z.z.z.6 6 6 6 6 6 _#_#_#_#_#_#:#:#:#:#:#:#<#<#<#<#<#[#[#[#[#[#[#5 5 5 5 5 5 N N N N N N O O O O O O }#}#}#}#}#|#|#|#|#|#|#1#1#1#1#1#1#0@0@0@0@0@0@2#2#2#2#2#2#3#3#3#3#3#g g g g g g h.h.h.h.h.h.v v v v v v 4#4#4#4#4#4#5#5#5#5#5#5#",
"x@x@x@x@x@6#6#6#6#6#6#7#7#7#7#7#7#8#8#8#8#8#8#9#9#9#9#9#9#0#0#0#0#0#O O O O O O O O O O O O p.p.p.p.p.p.z.z.z.z.z.z.z.z.z.z.z.O O O O O O O O O O O O a#a#a#a#a#a#b#b#b#b#b#b#c#c#c#c#c#d#d#d#d#d#d#O O O O O O e#e#e#e#e#e#f#f#f#f#f#f#g#g#g#g#g#h#h#h#h#h#h#i#i#i#i#i#i#j#j#j#j#j#j#a a a a a a O O O O O O O O O O O O O O O O O O O O O O O O O O O O O Z.Z.Z.Z.Z.Z.",
"x@x@x@x@x@6#6#6#6#6#6#7#7#7#7#7#7#8#8#8#8#8#8#9#9#9#9#9#9#0#0#0#0#0#O O O O O O O O O O O O p.p.p.p.p.p.z.z.z.z.z.z.z.z.z.z.z.O O O O O O O O O O O O a#a#a#a#a#a#b#b#b#b#b#b#c#c#c#c#c#d#d#d#d#d#d#O O O O O O e#e#e#e#e#e#f#f#f#f#f#f#g#g#g#g#g#h#h#h#h#h#h#i#i#i#i#i#i#j#j#j#j#j#j#a a a a a a O O O O O O O O O O O O O O O O O O O O O O O O O O O O O Z.Z.Z.Z.Z.Z.",
"x@x@x@x@x@6#6#6#6#6#6#7#7#7#7#7#7#8#8#8#8#8#8#9#9#9#9#9#9#0#0#0#0#0#O O O O O O O O O O O O p.p.p.p.p.p.z.z.z.z.z.z.z.z.z.z.z.O O O O O O O O O O O O a#a#a#a#a#a#b#b#b#b#b#b#c#c#c#c#c#d#d#d#d#d#d#O O O O O O e#e#e#e#e#e#f#f#f#f#f#f#g#g#g#g#g#h#h#h#h#h#h#i#i#i#i#i#i#j#j#j#j#j#j#a a a a a a O O O O O O O O O O O O O O O O O O O O O O O O O O O O O Z.Z.Z.Z.Z.Z.",
"x@x@x@x@x@6#6#6#6#6#6#7#7#7#7#7#7#8#8#8#8#8#8#9#9#9#9#9#9#0#0#0#0#0#O O O O O O O O O O O O p.p.p.p.p.p.z.z.z.z.z.z.z.z.z.z.z.O O O O O O O O O O O O a#a#a#a#a#a#b#b#b#b#b#b#c#c#c#c#c#d#d#d#d#d#d#O O O O O O e#e#e#e#e#e#f#f#f#f#f#f#g#g#g#g#g#h#h#h#h#h#h#i#i#i#i#i#i#j#j#j#j#j#j#a a a a a a O O O O O O O O O O O O O O O O O O O O O O O O O O O O O Z.Z.Z.Z.Z.Z.",
"x@x@x@x@x@6#6#6#6#6#6#7#7#7#7#7#7#8#8#8#8#8#8#9#9#9#9#9#9#0#0#0#0#0#O O O O O O O O O O O O p.p.p.p.p.p.z.z.z.z.z.z.z.z.z.z.z.O O O O O O O O O O O O a#a#a#a#a#a#b#b#b#b#b#b#c#c#c#c#c#d#d#d#d#d#d#O O O O O O e#e#e#e#e#e#f#f#f#f#f#f#g#g#g#g#g#h#h#h#h#h#h#i#i#i#i#i#i#j#j#j#j#j#j#a a a a a a O O O O O O O O O O O O O O O O O O O O O O O O O O O O O Z.Z.Z.Z.Z.Z.",
"x@x@x@x@x@6#6#6#6#6#6#7#7#7#7#7#7#8#8#8#8#8#8#9#9#9#9#9#9#0#0#0#0#0#O O O O O O O O O O O O p.p.p.p.p.p.z.z.z.z.z.z.z.z.z.z.z.O O O O O O O O O O O O a#a#a#a#a#a#b#b#b#b#b#b#c#c#c#c#c#d#d#d#d#d#d#O O O O O O e#e#e#e#e#e#f#f#f#f#f#f#g#g#g#g#g#h#h#h#h#h#h#i#i#i#i#i#i#j#j#j#j#j#j#a a a a a a O O O O O O O O O O O O O O O O O O O O O O O O O O O O O Z.Z.Z.Z.Z.Z.",
"k#k#k#k#k#l#l#l#l#l#l#m#m#m#m#m#m#n#n#n#n#n#n#O O O O O O O O O O O O O O O O O O O O O O O O O O O O O O O O O O O O O O O O O O O O O O o#o#o#o#o#o#p#p#p#p#p#p#q#q#q#q#q#q#r#r#r#r#r#s#s#s#s#s#s#t#t#t#t#t#t#u#u#u#u#u#u#h#h#h#h#h#h#v#v#v#v#v#w#w#w#w#w#w#x#x#x#x#x#x#g g g g g g O O O O O O O O O O O O O O O O O O O O O O O y#y#y#y#y#y#z#z#z#z#z#z#A#A#A#A#A#A#",
"k#k#k#k#k#l#l#l#l#l#l#m#m#m#m#m#m#n#n#n#n#n#n#O O O O O O O O O O O O O O O O O O O O O O O O O O O O O O O O O O O O O O O O O O O O O O o#o#o#o#o#o#p#p#p#p#p#p#q#q#q#q#q#q#r#r#r#r#r#s#s#s#s#s#s#t#t#t#t#t#t#u#u#u#u#u#u#h#h#h#h#h#h#v#v#v#v#v#w#w#w#w#w#w#x#x#x#x#x#x#g g g g g g O O O O O O O O O O O O O O O O O O O O O O O y#y#y#y#y#y#z#z#z#z#z#z#A#A#A#A#A#A#",
"k#k#k#k#k#l#l#l#l#l#l#m#m#m#m#m#m#n#n#n#n#n#n#O O O O O O O O O O O O O O O O O O O O O O O O O O O O O O O O O O O O O O O O O O O O O O o#o#o#o#o#o#p#p#p#p#p#p#q#q#q#q#q#q#r#r#r#r#r#s#s#s#s#s#s#t#t#t#t#t#t#u#u#u#u#u#u#h#h#h#h#h#h#v#v#v#v#v#w#w#w#w#w#w#x#x#x#x#x#x#g g g g g g O O O O O O O O O O O O O O O O O O O O O O O y#y#y#y#y#y#z#z#z#z#z#z#A#A#A#A#A#A#",
"k#k#k#k#k#l#l#l#l#l#l#m#m#m#m#m#m#n#n#n#n#n#n#O O O O O O O O O O O O O O O O O O O O O O O O O O O O O O O O O O O O O O O O O O O O O O o#o#o#o#o#o#p#p#p#p#p#p#q#q#q#q#q#q#r#r#r#r#r#s#s#s#s#s#s#t#t#t#t#t#t#u#u#u#u#u#u#h#h#h#h#h#h#v#v#v#v#v#w#w#w#w#w#w#x#x#x#x#x#x#g g g g g g O O O O O O O O O O O O O O O O O O O O O O O y#y#y#y#y#y#z#z#z#z#z#z#A#A#A#A#A#A#",
"k#k#k#k#k#l#l#l#l#l#l#m#m#m#m#m#m#n#n#n#n#n#n#O O O O O O O O O O O O O O O O O O O O O O O O O O O O O O O O O O O O O O O O O O O O O O o#o#o#o#o#o#p#p#p#p#p#p#q#q#q#q#q#q#r#r#r#r#r#s#s#s#s#s#s#t#t#t#t#t#t#u#u#u#u#u#u#h#h#h#h#h#h#v#v#v#v#v#w#w#w#w#w#w#x#x#x#x#x#x#g g g g g g O O O O O O O O O O O O O O O O O O O O O O O y#y#y#y#y#y#z#z#z#z#z#z#A#A#A#A#A#A#",
"k#k#k#k#k#l#l#l#l#l#l#m#m#m#m#m#m#n#n#n#n#n#n#O O O O O O O O O O O O O O O O O O O O O O O O O O O O O O O O O O O O O O O O O O O O O O o#o#o#o#o#o#p#p#p#p#p#p#q#q#q#q#q#q#r#r#r#r#r#s#s#s#s#s#s#t#t#t#t#t#t#u#u#u#u#u#u#h#h#h#h#h#h#v#v#v#v#v#w#w#w#w#w#w#x#x#x#x#x#x#g g g g g g O O O O O O O O O O O O O O O O O O O O O O O y#y#y#y#y#y#z#z#z#z#z#z#A#A#A#A#A#A#",
"B#B#B#B#B#C#C#C#C#C#C#D#D#D#D#D#D#E#E#E#E#E#E#O O O O O O O O O O O O O O O O O O O O O O O O O O O O O O O O O O O O O O O O O O O O O O h.h.h.h.h.h.F#F#F#F#F#F#G#G#G#G#G#G#H#H#H#H#H#I#I#I#I#I#I#J#J#J#J#J#J#K#K#K#K#K#K#L#L#L#L#L#L#M#M#M#M#M#N#N#N#N#N#N#L.L.L.L.L.L.g g g g g g O O O O O O O O O O O O O O O O O O O O O O O A.A.A.A.A.A.O#O#O#O#O#O#P#P#P#P#P#P#",
"B#B#B#B#B#C#C#C#C#C#C#D#D#D#D#D#D#E#E#E#E#E#E#O O O O O O O O O O O O O O O O O O O O O O O O O O O O O O O O O O O O O O O O O O O O O O h.h.h.h.h.h.F#F#F#F#F#F#G#G#G#G#G#G#H#H#H#H#H#I#I#I#I#I#I#J#J#J#J#J#J#K#K#K#K#K#K#L#L#L#L#L#L#M#M#M#M#M#N#N#N#N#N#N#L.L.L.L.L.L.g g g g g g O O O O O O O O O O O O O O O O O O O O O O O A.A.A.A.A.A.O#O#O#O#O#O#P#P#P#P#P#P#",
"B#B#B#B#B#C#C#C#C#C#C#D#D#D#D#D#D#E#E#E#E#E#E#O O O O O O O O O O O O O O O O O O O O O O O O O O O O O O O O O O O O O O O O O O O O O O h.h.h.h.h.h.F#F#F#F#F#F#G#G#G#G#G#G#H#H#H#H#H#I#I#I#I#I#I#J#J#J#J#J#J#K#K#K#K#K#K#L#L#L#L#L#L#M#M#M#M#M#N#N#N#N#N#N#L.L.L.L.L.L.g g g g g g O O O O O O O O O O O O O O O O O O O O O O O A.A.A.A.A.A.O#O#O#O#O#O#P#P#P#P#P#P#",
"B#B#B#B#B#C#C#C#C#C#C#D#D#D#D#D#D#E#E#E#E#E#E#O O O O O O O O O O O O O O O O O O O O O O O O O O O O O O O O O O O O O O O O O O O O O O h.h.h.h.h.h.F#F#F#F#F#F#G#G#G#G#G#G#H#H#H#H#H#I#I#I#I#I#I#J#J#J#J#J#J#K#K#K#K#K#K#L#L#L#L#L#L#M#M#M#M#M#N#N#N#N#N#N#L.L.L.L.L.L.g g g g g g O O O O O O O O O O O O O O O O O O O O O O O A.A.A.A.A.A.O#O#O#O#O#O#P#P#P#P#P#P#",
"B#B#B#B#B#C#C#C#C#C#C#D#D#D#D#D#D#E#E#E#E#E#E#O O O O O O O O O O O O O O O O O O O O O O O O O O O O O O O O O O O O O O O O O O O O O O h.h.h.h.h.h.F#F#F#F#F#F#G#G#G#G#G#G#H#H#H#H#H#I#I#I#I#I#I#J#J#J#J#J#J#K#K#K#K#K#K#L#L#L#L#L#L#M#M#M#M#M#N#N#N#N#N#N#L.L.L.L.L.L.g g g g g g O O O O O O O O O O O O O O O O O O O O O O O A.A.A.A.A.A.O#O#O#O#O#O#P#P#P#P#P#P#",
"Q#Q#Q#Q#Q#R#R#R#R#R#R#S#S#S#S#S#S#O O O O O O O O O O O O O O O O O O O O O O O O O O O O O O O O O O O O O O O O O O O O O O O O O O O O a a a a a a T#T#T#T#T#T#U#U#U#U#U#U#V#V#V#V#V#W#W#W#W#W#W#X#X#X#X#X#X#Y#Y#Y#Y#Y#Y#Z#Z#Z#Z#Z#Z#`#`#`#`#`#6 6 6 6 6 6  $ $ $ $ $ $z.z.z.z.z.z.O O O O O O O O O O O b b b b b b O O O O O O O O O O O O .$.$.$.$.$.$+$+$+$+$+$+$",
"Q#Q#Q#Q#Q#R#R#R#R#R#R#S#S#S#S#S#S#O O O O O O O O O O O O O O O O O O O O O O O O O O O O O O O O O O O O O O O O O O O O O O O O O O O O a a a a a a T#T#T#T#T#T#U#U#U#U#U#U#V#V#V#V#V#W#W#W#W#W#W#X#X#X#X#X#X#Y#Y#Y#Y#Y#Y#Z#Z#Z#Z#Z#Z#`#`#`#`#`#6 6 6 6 6 6  $ $ $ $ $ $z.z.z.z.z.z.O O O O O O O O O O O b b b b b b O O O O O O O O O O O O .$.$.$.$.$.$+$+$+$+$+$+$",
"Q#Q#Q#Q#Q#R#R#R#R#R#R#S#S#S#S#S#S#O O O O O O O O O O O O O O O O O O O O O O O O O O O O O O O O O O O O O O O O O O O O O O O O O O O O a a a a a a T#T#T#T#T#T#U#U#U#U#U#U#V#V#V#V#V#W#W#W#W#W#W#X#X#X#X#X#X#Y#Y#Y#Y#Y#Y#Z#Z#Z#Z#Z#Z#`#`#`#`#`#6 6 6 6 6 6  $ $ $ $ $ $z.z.z.z.z.z.O O O O O O O O O O O b b b b b b O O O O O O O O O O O O .$.$.$.$.$.$+$+$+$+$+$+$",
"Q#Q#Q#Q#Q#R#R#R#R#R#R#S#S#S#S#S#S#O O O O O O O O O O O O O O O O O O O O O O O O O O O O O O O O O O O O O O O O O O O O O O O O O O O O a a a a a a T#T#T#T#T#T#U#U#U#U#U#U#V#V#V#V#V#W#W#W#W#W#W#X#X#X#X#X#X#Y#Y#Y#Y#Y#Y#Z#Z#Z#Z#Z#Z#`#`#`#`#`#6 6 6 6 6 6  $ $ $ $ $ $z.z.z.z.z.z.O O O O O O O O O O O b b b b b b O O O O O O O O O O O O .$.$.$.$.$.$+$+$+$+$+$+$",
"Q#Q#Q#Q#Q#R#R#R#R#R#R#S#S#S#S#S#S#O O O O O O O O O O O O O O O O O O O O O O O O O O O O O O O O O O O O O O O O O O O O O O O O O O O O a a a a a a T#T#T#T#T#T#U#U#U#U#U#U#V#V#V#V#V#W#W#W#W#W#W#X#X#X#X#X#X#Y#Y#Y#Y#Y#Y#Z#Z#Z#Z#Z#Z#`#`#`#`#`#6 6 6 6 6 6  $ $ $ $ $ $z.z.z.z.z.z.O O O O O O O O O O O b b b b b b O O O O O O O O O O O O .$.$.$.$.$.$+$+$+$+$+$+$",
"Q#Q#Q#Q#Q#R#R#R#R#R#R#S#S#S#S#S#S#O O O O O O O O O O O O O O O O O O O O O O O O O O O O O O O O O O O O O O O O O O O O O O O O O O O O a a a a a a T#T#T#T#T#T#U#U#U#U#U#U#V#V#V#V#V#W#W#W#W#W#W#X#X#X#X#X#X#Y#Y#Y#Y#Y#Y#Z#Z#Z#Z#Z#Z#`#`#`#`#`#6 6 6 6 6 6  $ $ $ $ $ $z.z.z.z.z.z.O O O O O O O O O O O b b b b b b O O O O O O O O O O O O .$.$.$.$.$.$+$+$+$+$+$+$",
"@$@$@$@$@$#$#$#$#$#$#$$$$$$$$$$$$$O O O O O O O O O O O O O O O O O O O O O O O O O O O O O O O O O O O O O O O O O O O O O O O O O O O O %$%$%$%$%$%$&$&$&$&$&$&$*$*$*$*$*$*$=$=$=$=$=$-$-$-$-$-$-$;$;$;$;$;$;$v v v v v v A.A.A.A.A.A.a a a a a 5 5 5 5 5 5 O O O O O O ,@,@,@,@,@,@O O O O O O >$>$>$>$>$,$,$,$,$,$,$O O O O O O '$'$'$'$'$'$)$)$)$)$)$)$!$!$!$!$!$!$",
"@$@$@$@$@$#$#$#$#$#$#$$$$$$$$$$$$$O O O O O O O O O O O O O O O O O O O O O O O O O O O O O O O O O O O O O O O O O O O O O O O O O O O O %$%$%$%$%$%$&$&$&$&$&$&$*$*$*$*$*$*$=$=$=$=$=$-$-$-$-$-$-$;$;$;$;$;$;$v v v v v v A.A.A.A.A.A.a a a a a 5 5 5 5 5 5 O O O O O O ,@,@,@,@,@,@O O O O O O >$>$>$>$>$,$,$,$,$,$,$O O O O O O '$'$'$'$'$'$)$)$)$)$)$)$!$!$!$!$!$!$",
"@$@$@$@$@$#$#$#$#$#$#$$$$$$$$$$$$$O O O O O O O O O O O O O O O O O O O O O O O O O O O O O O O O O O O O O O O O O O O O O O O O O O O O %$%$%$%$%$%$&$&$&$&$&$&$*$*$*$*$*$*$=$=$=$=$=$-$-$-$-$-$-$;$;$;$;$;$;$v v v v v v A.A.A.A.A.A.a a a a a 5 5 5 5 5 5 O O O O O O ,@,@,@,@,@,@O O O O O O >$>$>$>$>$,$,$,$,$,$,$O O O O O O '$'$'$'$'$'$)$)$)$)$)$)$!$!$!$!$!$!$",
"@$@$@$@$@$#$#$#$#$#$#$$$$$$$$$$$$$O O O O O O O O O O O O O O O O O O O O O O O O O O O O O O O O O O O O O O O O O O O O O O O O O O O O %$%$%$%$%$%$&$&$&$&$&$&$*$*$*$*$*$*$=$=$=$=$=$-$-$-$-$-$-$;$;$;$;$;$;$v v v v v v A.A.A.A.A.A.a a a a a 5 5 5 5 5 5 O O O O O O ,@,@,@,@,@,@O O O O O O >$>$>$>$>$,$,$,$,$,$,$O O O O O O '$'$'$'$'$'$)$)$)$)$)$)$!$!$!$!$!$!$",
"@$@$@$@$@$#$#$#$#$#$#$$$$$$$$$$$$$O O O O O O O O O O O O O O O O O O O O O O O O O O O O O O O O O O O O O O O O O O O O O O O O O O O O %$%$%$%$%$%$&$&$&$&$&$&$*$*$*$*$*$*$=$=$=$=$=$-$-$-$-$-$-$;$;$;$;$;$;$v v v v v v A.A.A.A.A.A.a a a a a 5 5 5 5 5 5 O O O O O O ,@,@,@,@,@,@O O O O O O >$>$>$>$>$,$,$,$,$,$,$O O O O O O '$'$'$'$'$'$)$)$)$)$)$)$!$!$!$!$!$!$",
"@$@$@$@$@$#$#$#$#$#$#$$$$$$$$$$$$$O O O O O O O O O O O O O O O O O O O O O O O O O O O O O O O O O O O O O O O O O O O O O O O O O O O O %$%$%$%$%$%$&$&$&$&$&$&$*$*$*$*$*$*$=$=$=$=$=$-$-$-$-$-$-$;$;$;$;$;$;$v v v v v v A.A.A.A.A.A.a a a a a 5 5 5 5 5 5 O O O O O O ,@,@,@,@,@,@O O O O O O >$>$>$>$>$,$,$,$,$,$,$O O O O O O '$'$'$'$'$'$)$)$)$)$)$)$!$!$!$!$!$!$",
"T T T T T ~$~$~$~$~$~${${${${${${$h.h.h.h.h.h.O O O O O O O O O O O a a a a a a ]$]$]$]$]$]$g g g g g g O O O O O O O O O O O O O O O O O ^$^$^$^$^$^$+.+.+.+.+.+.q#q#q#q#q#q#/$/$/$/$/$($($($($($($O O O O O O O O O O O O h.h.h.h.h.h._$_$_$_$_$:$:$:$:$:$:$O O O O O O A.A.A.A.A.A.<$<$<$<$<$<$[$[$[$[$[$0@0@0@0@0@0@}$}$}$}$}$}$|$|$|$|$|$|$1$1$1$1$1$1$2$2$2$2$2$2$",
"T T T T T ~$~$~$~$~$~${${${${${${$h.h.h.h.h.h.O O O O O O O O O O O a a a a a a ]$]$]$]$]$]$g g g g g g O O O O O O O O O O O O O O O O O ^$^$^$^$^$^$+.+.+.+.+.+.q#q#q#q#q#q#/$/$/$/$/$($($($($($($O O O O O O O O O O O O h.h.h.h.h.h._$_$_$_$_$:$:$:$:$:$:$O O O O O O A.A.A.A.A.A.<$<$<$<$<$<$[$[$[$[$[$0@0@0@0@0@0@}$}$}$}$}$}$|$|$|$|$|$|$1$1$1$1$1$1$2$2$2$2$2$2$",
"T T T T T ~$~$~$~$~$~${${${${${${$h.h.h.h.h.h.O O O O O O O O O O O a a a a a a ]$]$]$]$]$]$g g g g g g O O O O O O O O O O O O O O O O O ^$^$^$^$^$^$+.+.+.+.+.+.q#q#q#q#q#q#/$/$/$/$/$($($($($($($O O O O O O O O O O O O h.h.h.h.h.h._$_$_$_$_$:$:$:$:$:$:$O O O O O O A.A.A.A.A.A.<$<$<$<$<$<$[$[$[$[$[$0@0@0@0@0@0@}$}$}$}$}$}$|$|$|$|$|$|$1$1$1$1$1$1$2$2$2$2$2$2$",
"T T T T T ~$~$~$~$~$~${${${${${${$h.h.h.h.h.h.O O O O O O O O O O O a a a a a a ]$]$]$]$]$]$g g g g g g O O O O O O O O O O O O O O O O O ^$^$^$^$^$^$+.+.+.+.+.+.q#q#q#q#q#q#/$/$/$/$/$($($($($($($O O O O O O O O O O O O h.h.h.h.h.h._$_$_$_$_$:$:$:$:$:$:$O O O O O O A.A.A.A.A.A.<$<$<$<$<$<$[$[$[$[$[$0@0@0@0@0@0@}$}$}$}$}$}$|$|$|$|$|$|$1$1$1$1$1$1$2$2$2$2$2$2$",
"T T T T T ~$~$~$~$~$~${${${${${${$h.h.h.h.h.h.O O O O O O O O O O O a a a a a a ]$]$]$]$]$]$g g g g g g O O O O O O O O O O O O O O O O O ^$^$^$^$^$^$+.+.+.+.+.+.q#q#q#q#q#q#/$/$/$/$/$($($($($($($O O O O O O O O O O O O h.h.h.h.h.h._$_$_$_$_$:$:$:$:$:$:$O O O O O O A.A.A.A.A.A.<$<$<$<$<$<$[$[$[$[$[$0@0@0@0@0@0@}$}$}$}$}$}$|$|$|$|$|$|$1$1$1$1$1$1$2$2$2$2$2$2$",
"T T T T T ~$~$~$~$~$~${${${${${${$h.h.h.h.h.h.O O O O O O O O O O O a a a a a a ]$]$]$]$]$]$g g g g g g O O O O O O O O O O O O O O O O O ^$^$^$^$^$^$+.+.+.+.+.+.q#q#q#q#q#q#/$/$/$/$/$($($($($($($O O O O O O O O O O O O h.h.h.h.h.h._$_$_$_$_$:$:$:$:$:$:$O O O O O O A.A.A.A.A.A.<$<$<$<$<$<$[$[$[$[$[$0@0@0@0@0@0@}$}$}$}$}$}$|$|$|$|$|$|$1$1$1$1$1$1$2$2$2$2$2$2$",
"<.<.<.<.<.3$3$3$3$3$3$4$4$4$4$4$4$5$5$5$5$5$5$O O O O O O O O O O O O O O O O O 6$6$6$6$6$6$q.q.q.q.q.q.5 5 5 5 5 5 a a a a a O O O O O O 7$7$7$7$7$7$+.+.+.+.+.+.q#q#q#q#q#q#8$8$8$8$8$9$9$9$9$9$9$0$0$0$0$0$0$0$0$0$0$0$0$a$a$a$a$a$a$S.S.S.S.S.a$a$a$a$a$a$0$0$0$0$0$0$b$b$b$b$b$b$c$c$c$c$c$c$(+(+(+(+(+(+(+(+(+(+(+d$d$d$d$d$d$e@e@e@e@e@e@e$e$e$e$e$e$f$f$f$f$f$f$",
"<.<.<.<.<.3$3$3$3$3$3$4$4$4$4$4$4$5$5$5$5$5$5$O O O O O O O O O O O O O O O O O 6$6$6$6$6$6$q.q.q.q.q.q.5 5 5 5 5 5 a a a a a O O O O O O 7$7$7$7$7$7$+.+.+.+.+.+.q#q#q#q#q#q#8$8$8$8$8$9$9$9$9$9$9$0$0$0$0$0$0$0$0$0$0$0$0$a$a$a$a$a$a$S.S.S.S.S.a$a$a$a$a$a$0$0$0$0$0$0$b$b$b$b$b$b$c$c$c$c$c$c$(+(+(+(+(+(+(+(+(+(+(+d$d$d$d$d$d$e@e@e@e@e@e@e$e$e$e$e$e$f$f$f$f$f$f$",
"<.<.<.<.<.3$3$3$3$3$3$4$4$4$4$4$4$5$5$5$5$5$5$O O O O O O O O O O O O O O O O O 6$6$6$6$6$6$q.q.q.q.q.q.5 5 5 5 5 5 a a a a a O O O O O O 7$7$7$7$7$7$+.+.+.+.+.+.q#q#q#q#q#q#8$8$8$8$8$9$9$9$9$9$9$0$0$0$0$0$0$0$0$0$0$0$0$a$a$a$a$a$a$S.S.S.S.S.a$a$a$a$a$a$0$0$0$0$0$0$b$b$b$b$b$b$c$c$c$c$c$c$(+(+(+(+(+(+(+(+(+(+(+d$d$d$d$d$d$e@e@e@e@e@e@e$e$e$e$e$e$f$f$f$f$f$f$",
"<.<.<.<.<.3$3$3$3$3$3$4$4$4$4$4$4$5$5$5$5$5$5$O O O O O O O O O O O O O O O O O 6$6$6$6$6$6$q.q.q.q.q.q.5 5 5 5 5 5 a a a a a O O O O O O 7$7$7$7$7$7$+.+.+.+.+.+.q#q#q#q#q#q#8$8$8$8$8$9$9$9$9$9$9$0$0$0$0$0$0$0$0$0$0$0$0$a$a$a$a$a$a$S.S.S.S.S.a$a$a$a$a$a$0$0$0$0$0$0$b$b$b$b$b$b$c$c$c$c$c$c$(+(+(+(+(+(+(+(+(+(+(+d$d$d$d$d$d$e@e@e@e@e@e@e$e$e$e$e$e$f$f$f$f$f$f$",
"<.<.<.<.<.3$3$3$3$3$3$4$4$4$4$4$4$5$5$5$5$5$5$O O O O O O O O O O O O O O O O O 6$6$6$6$6$6$q.q.q.q.q.q.5 5 5 5 5 5 a a a a a O O O O O O 7$7$7$7$7$7$+.+.+.+.+.+.q#q#q#q#q#q#8$8$8$8$8$9$9$9$9$9$9$0$0$0$0$0$0$0$0$0$0$0$0$a$a$a$a$a$a$S.S.S.S.S.a$a$a$a$a$a$0$0$0$0$0$0$b$b$b$b$b$b$c$c$c$c$c$c$(+(+(+(+(+(+(+(+(+(+(+d$d$d$d$d$d$e@e@e@e@e@e@e$e$e$e$e$e$f$f$f$f$f$f$",
"<.<.<.<.<.3$3$3$3$3$3$4$4$4$4$4$4$5$5$5$5$5$5$O O O O O O O O O O O O O O O O O 6$6$6$6$6$6$q.q.q.q.q.q.5 5 5 5 5 5 a a a a a O O O O O O 7$7$7$7$7$7$+.+.+.+.+.+.q#q#q#q#q#q#8$8$8$8$8$9$9$9$9$9$9$0$0$0$0$0$0$0$0$0$0$0$0$a$a$a$a$a$a$S.S.S.S.S.a$a$a$a$a$a$0$0$0$0$0$0$b$b$b$b$b$b$c$c$c$c$c$c$(+(+(+(+(+(+(+(+(+(+(+d$d$d$d$d$d$e@e@e@e@e@e@e$e$e$e$e$e$f$f$f$f$f$f$",
"<.<.<.<.<.g$g$g$g$g$g$h$h$h$h$h$h$i$i$i$i$i$i$O O O O O O O O O O O a a a a a a j$j$j$j$j$j$k$k$k$k$k$k$l$l$l$l$l$l$P.P.P.P.P.O O O O O O m$m$m$m$m$m$n$n$n$n$n$n$q#q#q#q#q#q#!+!+!+!+!+/./././././.A@A@A@A@A@A@A@A@A@A@A@A@G@G@G@G@G@G@o$o$o$o$o$7+7+7+7+7+7+A@A@A@A@A@A@G@G@G@G@G@G@Q@Q@Q@Q@Q@Q@(.(.(.(.(.(.(.(.(.(.(.A@A@A@A@A@A@p$p$p$p$p$p$q$q$q$q$q$q$(.(.(.(.(.(.",
"<.<.<.<.<.g$g$g$g$g$g$h$h$h$h$h$h$i$i$i$i$i$i$O O O O O O O O O O O a a a a a a j$j$j$j$j$j$k$k$k$k$k$k$l$l$l$l$l$l$P.P.P.P.P.O O O O O O m$m$m$m$m$m$n$n$n$n$n$n$q#q#q#q#q#q#!+!+!+!+!+/./././././.A@A@A@A@A@A@A@A@A@A@A@A@G@G@G@G@G@G@o$o$o$o$o$7+7+7+7+7+7+A@A@A@A@A@A@G@G@G@G@G@G@Q@Q@Q@Q@Q@Q@(.(.(.(.(.(.(.(.(.(.(.A@A@A@A@A@A@p$p$p$p$p$p$q$q$q$q$q$q$(.(.(.(.(.(.",
"<.<.<.<.<.g$g$g$g$g$g$h$h$h$h$h$h$i$i$i$i$i$i$O O O O O O O O O O O a a a a a a j$j$j$j$j$j$k$k$k$k$k$k$l$l$l$l$l$l$P.P.P.P.P.O O O O O O m$m$m$m$m$m$n$n$n$n$n$n$q#q#q#q#q#q#!+!+!+!+!+/./././././.A@A@A@A@A@A@A@A@A@A@A@A@G@G@G@G@G@G@o$o$o$o$o$7+7+7+7+7+7+A@A@A@A@A@A@G@G@G@G@G@G@Q@Q@Q@Q@Q@Q@(.(.(.(.(.(.(.(.(.(.(.A@A@A@A@A@A@p$p$p$p$p$p$q$q$q$q$q$q$(.(.(.(.(.(.",
"<.<.<.<.<.g$g$g$g$g$g$h$h$h$h$h$h$i$i$i$i$i$i$O O O O O O O O O O O a a a a a a j$j$j$j$j$j$k$k$k$k$k$k$l$l$l$l$l$l$P.P.P.P.P.O O O O O O m$m$m$m$m$m$n$n$n$n$n$n$q#q#q#q#q#q#!+!+!+!+!+/./././././.A@A@A@A@A@A@A@A@A@A@A@A@G@G@G@G@G@G@o$o$o$o$o$7+7+7+7+7+7+A@A@A@A@A@A@G@G@G@G@G@G@Q@Q@Q@Q@Q@Q@(.(.(.(.(.(.(.(.(.(.(.A@A@A@A@A@A@p$p$p$p$p$p$q$q$q$q$q$q$(.(.(.(.(.(.",
"<.<.<.<.<.g$g$g$g$g$g$h$h$h$h$h$h$i$i$i$i$i$i$O O O O O O O O O O O a a a a a a j$j$j$j$j$j$k$k$k$k$k$k$l$l$l$l$l$l$P.P.P.P.P.O O O O O O m$m$m$m$m$m$n$n$n$n$n$n$q#q#q#q#q#q#!+!+!+!+!+/./././././.A@A@A@A@A@A@A@A@A@A@A@A@G@G@G@G@G@G@o$o$o$o$o$7+7+7+7+7+7+A@A@A@A@A@A@G@G@G@G@G@G@Q@Q@Q@Q@Q@Q@(.(.(.(.(.(.(.(.(.(.(.A@A@A@A@A@A@p$p$p$p$p$p$q$q$q$q$q$q$(.(.(.(.(.(.",
"1.1.1.1.1.r$r$r$r$r$r$s$s$s$s$s$s$t$t$t$t$t$t$O O O O O O O O O O O O O O O O O O O O O O O P.P.P.P.P.P.u$u$u$u$u$u$O O O O O O O O O O O a a a a a a v$v$v$v$v$v$w$w$w$w$w$w$K K K K K x$x$x$x$x$x$y$y$y$y$y$y$z$z$z$z$z$z$` ` ` ` ` ` ` ` ` ` ` ` ` ` ` ` ` e+e+e+e+e+e+A$A$A$A$A$A$ . . . . . .B$B$B$B$B$P@P@P@P@P@P@C$C$C$C$C$C$D$D$D$D$D$D$E$E$E$E$E$E$F$F$F$F$F$F$",
"1.1.1.1.1.r$r$r$r$r$r$s$s$s$s$s$s$t$t$t$t$t$t$O O O O O O O O O O O O O O O O O O O O O O O P.P.P.P.P.P.u$u$u$u$u$u$O O O O O O O O O O O a a a a a a v$v$v$v$v$v$w$w$w$w$w$w$K K K K K x$x$x$x$x$x$y$y$y$y$y$y$z$z$z$z$z$z$` ` ` ` ` ` ` ` ` ` ` ` ` ` ` ` ` e+e+e+e+e+e+A$A$A$A$A$A$ . . . . . .B$B$B$B$B$P@P@P@P@P@P@C$C$C$C$C$C$D$D$D$D$D$D$E$E$E$E$E$E$F$F$F$F$F$F$",
"1.1.1.1.1.r$r$r$r$r$r$s$s$s$s$s$s$t$t$t$t$t$t$O O O O O O O O O O O O O O O O O O O O O O O P.P.P.P.P.P.u$u$u$u$u$u$O O O O O O O O O O O a a a a a a v$v$v$v$v$v$w$w$w$w$w$w$K K K K K x$x$x$x$x$x$y$y$y$y$y$y$z$z$z$z$z$z$` ` ` ` ` ` ` ` ` ` ` ` ` ` ` ` ` e+e+e+e+e+e+A$A$A$A$A$A$ . . . . . .B$B$B$B$B$P@P@P@P@P@P@C$C$C$C$C$C$D$D$D$D$D$D$E$E$E$E$E$E$F$F$F$F$F$F$",
"1.1.1.1.1.r$r$r$r$r$r$s$s$s$s$s$s$t$t$t$t$t$t$O O O O O O O O O O O O O O O O O O O O O O O P.P.P.P.P.P.u$u$u$u$u$u$O O O O O O O O O O O a a a a a a v$v$v$v$v$v$w$w$w$w$w$w$K K K K K x$x$x$x$x$x$y$y$y$y$y$y$z$z$z$z$z$z$` ` ` ` ` ` ` ` ` ` ` ` ` ` ` ` ` e+e+e+e+e+e+A$A$A$A$A$A$ . . . . . .B$B$B$B$B$P@P@P@P@P@P@C$C$C$C$C$C$D$D$D$D$D$D$E$E$E$E$E$E$F$F$F$F$F$F$",
"1.1.1.1.1.r$r$r$r$r$r$s$s$s$s$s$s$t$t$t$t$t$t$O O O O O O O O O O O O O O O O O O O O O O O P.P.P.P.P.P.u$u$u$u$u$u$O O O O O O O O O O O a a a a a a v$v$v$v$v$v$w$w$w$w$w$w$K K K K K x$x$x$x$x$x$y$y$y$y$y$y$z$z$z$z$z$z$` ` ` ` ` ` ` ` ` ` ` ` ` ` ` ` ` e+e+e+e+e+e+A$A$A$A$A$A$ . . . . . .B$B$B$B$B$P@P@P@P@P@P@C$C$C$C$C$C$D$D$D$D$D$D$E$E$E$E$E$E$F$F$F$F$F$F$",
"1.1.1.1.1.r$r$r$r$r$r$s$s$s$s$s$s$t$t$t$t$t$t$O O O O O O O O O O O O O O O O O O O O O O O P.P.P.P.P.P.u$u$u$u$u$u$O O O O O O O O O O O a a a a a a v$v$v$v$v$v$w$w$w$w$w$w$K K K K K x$x$x$x$x$x$y$y$y$y$y$y$z$z$z$z$z$z$` ` ` ` ` ` ` ` ` ` ` ` ` ` ` ` ` e+e+e+e+e+e+A$A$A$A$A$A$ . . . . . .B$B$B$B$B$P@P@P@P@P@P@C$C$C$C$C$C$D$D$D$D$D$D$E$E$E$E$E$E$F$F$F$F$F$F$",
"T T T T T G$G$G$G$G$G$H$H$H$H$H$H$I$I$I$I$I$I$6 6 6 6 6 6 J$J$J$J$J$B.B.B.B.B.B.~@~@~@~@~@~@K$K$K$K$K$K$6 6 6 6 6 6 }$}$}$}$}$q.q.q.q.q.q.a a a a a a F#F#F#F#F#F#L$L$L$L$L$L$M$M$M$M$M$N$N$N$N$N$N$O$O$O$O$O$O$` ` ` ` ` ` P$P$P$P$P$P$Q$Q$Q$Q$Q$R$R$R$R$R$R$S$S$S$S$S$S$T$T$T$T$T$T$v@v@v@v@v@v@U$U$U$U$U$V$V$V$V$V$V$7#7#7#7#7#7#A.A.A.A.A.A.A.A.A.A.A.A.W$W$W$W$W$W$",
"T T T T T G$G$G$G$G$G$H$H$H$H$H$H$I$I$I$I$I$I$6 6 6 6 6 6 J$J$J$J$J$B.B.B.B.B.B.~@~@~@~@~@~@K$K$K$K$K$K$6 6 6 6 6 6 }$}$}$}$}$q.q.q.q.q.q.a a a a a a F#F#F#F#F#F#L$L$L$L$L$L$M$M$M$M$M$N$N$N$N$N$N$O$O$O$O$O$O$` ` ` ` ` ` P$P$P$P$P$P$Q$Q$Q$Q$Q$R$R$R$R$R$R$S$S$S$S$S$S$T$T$T$T$T$T$v@v@v@v@v@v@U$U$U$U$U$V$V$V$V$V$V$7#7#7#7#7#7#A.A.A.A.A.A.A.A.A.A.A.A.W$W$W$W$W$W$",
"T T T T T G$G$G$G$G$G$H$H$H$H$H$H$I$I$I$I$I$I$6 6 6 6 6 6 J$J$J$J$J$B.B.B.B.B.B.~@~@~@~@~@~@K$K$K$K$K$K$6 6 6 6 6 6 }$}$}$}$}$q.q.q.q.q.q.a a a a a a F#F#F#F#F#F#L$L$L$L$L$L$M$M$M$M$M$N$N$N$N$N$N$O$O$O$O$O$O$` ` ` ` ` ` P$P$P$P$P$P$Q$Q$Q$Q$Q$R$R$R$R$R$R$S$S$S$S$S$S$T$T$T$T$T$T$v@v@v@v@v@v@U$U$U$U$U$V$V$V$V$V$V$7#7#7#7#7#7#A.A.A.A.A.A.A.A.A.A.A.A.W$W$W$W$W$W$",
"T T T T T G$G$G$G$G$G$H$H$H$H$H$H$I$I$I$I$I$I$6 6 6 6 6 6 J$J$J$J$J$B.B.B.B.B.B.~@~@~@~@~@~@K$K$K$K$K$K$6 6 6 6 6 6 }$}$}$}$}$q.q.q.q.q.q.a a a a a a F#F#F#F#F#F#L$L$L$L$L$L$M$M$M$M$M$N$N$N$N$N$N$O$O$O$O$O$O$` ` ` ` ` ` P$P$P$P$P$P$Q$Q$Q$Q$Q$R$R$R$R$R$R$S$S$S$S$S$S$T$T$T$T$T$T$v@v@v@v@v@v@U$U$U$U$U$V$V$V$V$V$V$7#7#7#7#7#7#A.A.A.A.A.A.A.A.A.A.A.A.W$W$W$W$W$W$",
"T T T T T G$G$G$G$G$G$H$H$H$H$H$H$I$I$I$I$I$I$6 6 6 6 6 6 J$J$J$J$J$B.B.B.B.B.B.~@~@~@~@~@~@K$K$K$K$K$K$6 6 6 6 6 6 }$}$}$}$}$q.q.q.q.q.q.a a a a a a F#F#F#F#F#F#L$L$L$L$L$L$M$M$M$M$M$N$N$N$N$N$N$O$O$O$O$O$O$` ` ` ` ` ` P$P$P$P$P$P$Q$Q$Q$Q$Q$R$R$R$R$R$R$S$S$S$S$S$S$T$T$T$T$T$T$v@v@v@v@v@v@U$U$U$U$U$V$V$V$V$V$V$7#7#7#7#7#7#A.A.A.A.A.A.A.A.A.A.A.A.W$W$W$W$W$W$",
"T T T T T G$G$G$G$G$G$H$H$H$H$H$H$I$I$I$I$I$I$6 6 6 6 6 6 J$J$J$J$J$B.B.B.B.B.B.~@~@~@~@~@~@K$K$K$K$K$K$6 6 6 6 6 6 }$}$}$}$}$q.q.q.q.q.q.a a a a a a F#F#F#F#F#F#L$L$L$L$L$L$M$M$M$M$M$N$N$N$N$N$N$O$O$O$O$O$O$` ` ` ` ` ` P$P$P$P$P$P$Q$Q$Q$Q$Q$R$R$R$R$R$R$S$S$S$S$S$S$T$T$T$T$T$T$v@v@v@v@v@v@U$U$U$U$U$V$V$V$V$V$V$7#7#7#7#7#7#A.A.A.A.A.A.A.A.A.A.A.A.W$W$W$W$W$W$",
"T T T T T X$X$X$X$X$X$Y$Y$Y$Y$Y$Y$Z$Z$Z$Z$Z$Z$`$`$`$`$`$`$ % % % % % @ @ @ @ @ @.%.%.%.%.%.%+%+%+%+%+%+%@%@%@%@%@%@%(+(+(+(+(+#%#%#%#%#%#%$%$%$%$%$%$%%%%%%%%%%%%%&%&%&%&%&%&%*%*%*%*%*%=%=%=%=%=%=%-%-%-%-%-%-%Q@Q@Q@Q@Q@Q@a a a a a a ;%;%;%;%;%>%>%>%>%>%>%,%,%,%,%,%,%'%'%'%'%'%'%)%)%)%)%)%)%G@G@G@G@G@!%!%!%!%!%!%Y.Y.Y.Y.Y.Y.~%~%~%~%~%~%~%~%~%~%~%~%{%{%{%{%{%{%",
"T T T T T X$X$X$X$X$X$Y$Y$Y$Y$Y$Y$Z$Z$Z$Z$Z$Z$`$`$`$`$`$`$ % % % % % @ @ @ @ @ @.%.%.%.%.%.%+%+%+%+%+%+%@%@%@%@%@%@%(+(+(+(+(+#%#%#%#%#%#%$%$%$%$%$%$%%%%%%%%%%%%%&%&%&%&%&%&%*%*%*%*%*%=%=%=%=%=%=%-%-%-%-%-%-%Q@Q@Q@Q@Q@Q@a a a a a a ;%;%;%;%;%>%>%>%>%>%>%,%,%,%,%,%,%'%'%'%'%'%'%)%)%)%)%)%)%G@G@G@G@G@!%!%!%!%!%!%Y.Y.Y.Y.Y.Y.~%~%~%~%~%~%~%~%~%~%~%~%{%{%{%{%{%{%",
"T T T T T X$X$X$X$X$X$Y$Y$Y$Y$Y$Y$Z$Z$Z$Z$Z$Z$`$`$`$`$`$`$ % % % % % @ @ @ @ @ @.%.%.%.%.%.%+%+%+%+%+%+%@%@%@%@%@%@%(+(+(+(+(+#%#%#%#%#%#%$%$%$%$%$%$%%%%%%%%%%%%%&%&%&%&%&%&%*%*%*%*%*%=%=%=%=%=%=%-%-%-%-%-%-%Q@Q@Q@Q@Q@Q@a a a a a a ;%;%;%;%;%>%>%>%>%>%>%,%,%,%,%,%,%'%'%'%'%'%'%)%)%)%)%)%)%G@G@G@G@G@!%!%!%!%!%!%Y.Y.Y.Y.Y.Y.~%~%~%~%~%~%~%~%~%~%~%~%{%{%{%{%{%{%",
"T T T T T X$X$X$X$X$X$Y$Y$Y$Y$Y$Y$Z$Z$Z$Z$Z$Z$`$`$`$`$`$`$ % % % % % @ @ @ @ @ @.%.%.%.%.%.%+%+%+%+%+%+%@%@%@%@%@%@%(+(+(+(+(+#%#%#%#%#%#%$%$%$%$%$%$%%%%%%%%%%%%%&%&%&%&%&%&%*%*%*%*%*%=%=%=%=%=%=%-%-%-%-%-%-%Q@Q@Q@Q@Q@Q@a a a a a a ;%;%;%;%;%>%>%>%>%>%>%,%,%,%,%,%,%'%'%'%'%'%'%)%)%)%)%)%)%G@G@G@G@G@!%!%!%!%!%!%Y.Y.Y.Y.Y.Y.~%~%~%~%~%~%~%~%~%~%~%~%{%{%{%{%{%{%",
"T T T T T X$X$X$X$X$X$Y$Y$Y$Y$Y$Y$Z$Z$Z$Z$Z$Z$`$`$`$`$`$`$ % % % % % @ @ @ @ @ @.%.%.%.%.%.%+%+%+%+%+%+%@%@%@%@%@%@%(+(+(+(+(+#%#%#%#%#%#%$%$%$%$%$%$%%%%%%%%%%%%%&%&%&%&%&%&%*%*%*%*%*%=%=%=%=%=%=%-%-%-%-%-%-%Q@Q@Q@Q@Q@Q@a a a a a a ;%;%;%;%;%>%>%>%>%>%>%,%,%,%,%,%,%'%'%'%'%'%'%)%)%)%)%)%)%G@G@G@G@G@!%!%!%!%!%!%Y.Y.Y.Y.Y.Y.~%~%~%~%~%~%~%~%~%~%~%~%{%{%{%{%{%{%",
"T T T T T X$X$X$X$X$X$Y$Y$Y$Y$Y$Y$Z$Z$Z$Z$Z$Z$`$`$`$`$`$`$ % % % % % @ @ @ @ @ @.%.%.%.%.%.%+%+%+%+%+%+%@%@%@%@%@%@%(+(+(+(+(+#%#%#%#%#%#%$%$%$%$%$%$%%%%%%%%%%%%%&%&%&%&%&%&%*%*%*%*%*%=%=%=%=%=%=%-%-%-%-%-%-%Q@Q@Q@Q@Q@Q@a a a a a a ;%;%;%;%;%>%>%>%>%>%>%,%,%,%,%,%,%'%'%'%'%'%'%)%)%)%)%)%)%G@G@G@G@G@!%!%!%!%!%!%Y.Y.Y.Y.Y.Y.~%~%~%~%~%~%~%~%~%~%~%~%{%{%{%{%{%{%",
"~.~.~.~.~.!+!+!+!+!+!+]%]%]%]%]%]%^%^%^%^%^%^%/%/%/%/%/%/%(%(%(%(%(%*@*@*@*@*@*@_%_%_%_%_%_%_%_%_%_%_%_%:%:%:%:%:%:%<%<%<%<%<%[%[%[%[%[%[%}%}%}%}%}%}%|%|%|%|%|%|%1%1%1%1%1%1%2%2%2%2%2%3%3%3%3%3%3%4%4%4%4%4%4%Y+Y+Y+Y+Y+Y+5%5%5%5%5%5%6%6%6%6%6%7%7%7%7%7%7%8%8%8%8%8%8%9%9%9%9%9%9%0%0%0%0%0%0%a%a%a%a%a%L@L@L@L@L@L@v@v@v@v@v@v@f$f$f$f$f$f$f$f$f$f$f$f$b%b%b%b%b%b%",
"~.~.~.~.~.!+!+!+!+!+!+]%]%]%]%]%]%^%^%^%^%^%^%/%/%/%/%/%/%(%(%(%(%(%*@*@*@*@*@*@_%_%_%_%_%_%_%_%_%_%_%_%:%:%:%:%:%:%<%<%<%<%<%[%[%[%[%[%[%}%}%}%}%}%}%|%|%|%|%|%|%1%1%1%1%1%1%2%2%2%2%2%3%3%3%3%3%3%4%4%4%4%4%4%Y+Y+Y+Y+Y+Y+5%5%5%5%5%5%6%6%6%6%6%7%7%7%7%7%7%8%8%8%8%8%8%9%9%9%9%9%9%0%0%0%0%0%0%a%a%a%a%a%L@L@L@L@L@L@v@v@v@v@v@v@f$f$f$f$f$f$f$f$f$f$f$f$b%b%b%b%b%b%",
"~.~.~.~.~.!+!+!+!+!+!+]%]%]%]%]%]%^%^%^%^%^%^%/%/%/%/%/%/%(%(%(%(%(%*@*@*@*@*@*@_%_%_%_%_%_%_%_%_%_%_%_%:%:%:%:%:%:%<%<%<%<%<%[%[%[%[%[%[%}%}%}%}%}%}%|%|%|%|%|%|%1%1%1%1%1%1%2%2%2%2%2%3%3%3%3%3%3%4%4%4%4%4%4%Y+Y+Y+Y+Y+Y+5%5%5%5%5%5%6%6%6%6%6%7%7%7%7%7%7%8%8%8%8%8%8%9%9%9%9%9%9%0%0%0%0%0%0%a%a%a%a%a%L@L@L@L@L@L@v@v@v@v@v@v@f$f$f$f$f$f$f$f$f$f$f$f$b%b%b%b%b%b%",
"~.~.~.~.~.!+!+!+!+!+!+]%]%]%]%]%]%^%^%^%^%^%^%/%/%/%/%/%/%(%(%(%(%(%*@*@*@*@*@*@_%_%_%_%_%_%_%_%_%_%_%_%:%:%:%:%:%:%<%<%<%<%<%[%[%[%[%[%[%}%}%}%}%}%}%|%|%|%|%|%|%1%1%1%1%1%1%2%2%2%2%2%3%3%3%3%3%3%4%4%4%4%4%4%Y+Y+Y+Y+Y+Y+5%5%5%5%5%5%6%6%6%6%6%7%7%7%7%7%7%8%8%8%8%8%8%9%9%9%9%9%9%0%0%0%0%0%0%a%a%a%a%a%L@L@L@L@L@L@v@v@v@v@v@v@f$f$f$f$f$f$f$f$f$f$f$f$b%b%b%b%b%b%",
"~.~.~.~.~.!+!+!+!+!+!+]%]%]%]%]%]%^%^%^%^%^%^%/%/%/%/%/%/%(%(%(%(%(%*@*@*@*@*@*@_%_%_%_%_%_%_%_%_%_%_%_%:%:%:%:%:%:%<%<%<%<%<%[%[%[%[%[%[%}%}%}%}%}%}%|%|%|%|%|%|%1%1%1%1%1%1%2%2%2%2%2%3%3%3%3%3%3%4%4%4%4%4%4%Y+Y+Y+Y+Y+Y+5%5%5%5%5%5%6%6%6%6%6%7%7%7%7%7%7%8%8%8%8%8%8%9%9%9%9%9%9%0%0%0%0%0%0%a%a%a%a%a%L@L@L@L@L@L@v@v@v@v@v@v@f$f$f$f$f$f$f$f$f$f$f$f$b%b%b%b%b%b%",
"~.~.~.~.~.!+!+!+!+!+!+]%]%]%]%]%]%^%^%^%^%^%^%/%/%/%/%/%/%(%(%(%(%(%*@*@*@*@*@*@_%_%_%_%_%_%_%_%_%_%_%_%:%:%:%:%:%:%<%<%<%<%<%[%[%[%[%[%[%}%}%}%}%}%}%|%|%|%|%|%|%1%1%1%1%1%1%2%2%2%2%2%3%3%3%3%3%3%4%4%4%4%4%4%Y+Y+Y+Y+Y+Y+5%5%5%5%5%5%6%6%6%6%6%7%7%7%7%7%7%8%8%8%8%8%8%9%9%9%9%9%9%0%0%0%0%0%0%a%a%a%a%a%L@L@L@L@L@L@v@v@v@v@v@v@f$f$f$f$f$f$f$f$f$f$f$f$b%b%b%b%b%b%",
"c%c%c%c%c%d%d%d%d%d%d%e%e%e%e%e%e%A@A@A@A@A@A@f%f%f%f%f%f%g%g%g%g%g%h%h%h%h%h%h%i%i%i%i%i%i%j%j%j%j%j%j%h%h%h%h%h%h%h%h%h%h%h%k%k%k%k%k%k%e%e%e%e%e%e%l%l%l%l%l%l%m%m%m%m%m%m%n%n%n%n%n%o%o%o%o%o%o%G@G@G@G@G@G@p%p%p%p%p%p%q%q%q%q%q%q%r%r%r%r%r%s%s%s%s%s%s%1.1.1.1.1.1.t%t%t%t%t%t%u%u%u%u%u%u%v%v%v%v%v%w%w%w%w%w%w%i%i%i%i%i%i%x%x%x%x%x%x%x%x%x%x%x%x%h%h%h%h%h%h%",
"c%c%c%c%c%d%d%d%d%d%d%e%e%e%e%e%e%A@A@A@A@A@A@f%f%f%f%f%f%g%g%g%g%g%h%h%h%h%h%h%i%i%i%i%i%i%j%j%j%j%j%j%h%h%h%h%h%h%h%h%h%h%h%k%k%k%k%k%k%e%e%e%e%e%e%l%l%l%l%l%l%m%m%m%m%m%m%n%n%n%n%n%o%o%o%o%o%o%G@G@G@G@G@G@p%p%p%p%p%p%q%q%q%q%q%q%r%r%r%r%r%s%s%s%s%s%s%1.1.1.1.1.1.t%t%t%t%t%t%u%u%u%u%u%u%v%v%v%v%v%w%w%w%w%w%w%i%i%i%i%i%i%x%x%x%x%x%x%x%x%x%x%x%x%h%h%h%h%h%h%",
"c%c%c%c%c%d%d%d%d%d%d%e%e%e%e%e%e%A@A@A@A@A@A@f%f%f%f%f%f%g%g%g%g%g%h%h%h%h%h%h%i%i%i%i%i%i%j%j%j%j%j%j%h%h%h%h%h%h%h%h%h%h%h%k%k%k%k%k%k%e%e%e%e%e%e%l%l%l%l%l%l%m%m%m%m%m%m%n%n%n%n%n%o%o%o%o%o%o%G@G@G@G@G@G@p%p%p%p%p%p%q%q%q%q%q%q%r%r%r%r%r%s%s%s%s%s%s%1.1.1.1.1.1.t%t%t%t%t%t%u%u%u%u%u%u%v%v%v%v%v%w%w%w%w%w%w%i%i%i%i%i%i%x%x%x%x%x%x%x%x%x%x%x%x%h%h%h%h%h%h%",
"c%c%c%c%c%d%d%d%d%d%d%e%e%e%e%e%e%A@A@A@A@A@A@f%f%f%f%f%f%g%g%g%g%g%h%h%h%h%h%h%i%i%i%i%i%i%j%j%j%j%j%j%h%h%h%h%h%h%h%h%h%h%h%k%k%k%k%k%k%e%e%e%e%e%e%l%l%l%l%l%l%m%m%m%m%m%m%n%n%n%n%n%o%o%o%o%o%o%G@G@G@G@G@G@p%p%p%p%p%p%q%q%q%q%q%q%r%r%r%r%r%s%s%s%s%s%s%1.1.1.1.1.1.t%t%t%t%t%t%u%u%u%u%u%u%v%v%v%v%v%w%w%w%w%w%w%i%i%i%i%i%i%x%x%x%x%x%x%x%x%x%x%x%x%h%h%h%h%h%h%",
"c%c%c%c%c%d%d%d%d%d%d%e%e%e%e%e%e%A@A@A@A@A@A@f%f%f%f%f%f%g%g%g%g%g%h%h%h%h%h%h%i%i%i%i%i%i%j%j%j%j%j%j%h%h%h%h%h%h%h%h%h%h%h%k%k%k%k%k%k%e%e%e%e%e%e%l%l%l%l%l%l%m%m%m%m%m%m%n%n%n%n%n%o%o%o%o%o%o%G@G@G@G@G@G@p%p%p%p%p%p%q%q%q%q%q%q%r%r%r%r%r%s%s%s%s%s%s%1.1.1.1.1.1.t%t%t%t%t%t%u%u%u%u%u%u%v%v%v%v%v%w%w%w%w%w%w%i%i%i%i%i%i%x%x%x%x%x%x%x%x%x%x%x%x%h%h%h%h%h%h%",
"c%c%c%c%c%d%d%d%d%d%d%e%e%e%e%e%e%A@A@A@A@A@A@f%f%f%f%f%f%g%g%g%g%g%h%h%h%h%h%h%i%i%i%i%i%i%j%j%j%j%j%j%h%h%h%h%h%h%h%h%h%h%h%k%k%k%k%k%k%e%e%e%e%e%e%l%l%l%l%l%l%m%m%m%m%m%m%n%n%n%n%n%o%o%o%o%o%o%G@G@G@G@G@G@p%p%p%p%p%p%q%q%q%q%q%q%r%r%r%r%r%s%s%s%s%s%s%1.1.1.1.1.1.t%t%t%t%t%t%u%u%u%u%u%u%v%v%v%v%v%w%w%w%w%w%w%i%i%i%i%i%i%x%x%x%x%x%x%x%x%x%x%x%x%h%h%h%h%h%h%"};
