/* XPM */
static char * SO_xpm[] = {
"180 180 4790 2",
"  	c #78899D",
". 	c #788898",
"+ 	c #738997",
"@ 	c #7A8798",
"# 	c #778797",
"$ 	c #8E9CA9",
"% 	c #8C9AA3",
"& 	c #8A98A1",
"* 	c #919FAA",
"= 	c #8997A4",
"- 	c #8D9AA3",
"; 	c #A1AEB4",
"> 	c #A0AEB1",
", 	c #A2B0B3",
"' 	c #A3B1B4",
") 	c #AEBCBF",
"! 	c #ACB9BF",
"~ 	c #AEBBC1",
"{ 	c #ADBBBE",
"] 	c #ABB9BC",
"^ 	c #A9B6BC",
"/ 	c #A8B5BD",
"( 	c #A9B6BE",
"_ 	c #A8B5BB",
": 	c #A7B4BA",
"< 	c #99A8AF",
"[ 	c #9AA9B0",
"} 	c #99A7B0",
"| 	c #9BA9B2",
"1 	c #9AA8B1",
"2 	c #98A5AD",
"3 	c #9DABB4",
"4 	c #9AABB5",
"5 	c #788A96",
"6 	c #788C97",
"7 	c #7F919D",
"8 	c #7D8F99",
"9 	c #7E8F99",
"0 	c #778892",
"a 	c #97A8B2",
"b 	c #9EACB5",
"c 	c #9BA8B0",
"d 	c #98A5AE",
"e 	c #9AA8B3",
"f 	c #8898A5",
"g 	c #8494A3",
"h 	c #8799A5",
"i 	c #8395A1",
"j 	c #8697A1",
"k 	c #A0AEB9",
"l 	c #9FABB7",
"m 	c #A3B0B9",
"n 	c #9FACB5",
"o 	c #BEC9CF",
"p 	c #BEC9CD",
"q 	c #BBC4C9",
"r 	c #BEC7CC",
"s 	c #BDC6CB",
"t 	c #BCC5CC",
"u 	c #AFBAC0",
"v 	c #B0BBC1",
"w 	c #B3BEC4",
"x 	c #ADB7C1",
"y 	c #B0BAC4",
"z 	c #AEB8C4",
"A 	c #A4B1BA",
"B 	c #A4B1B9",
"C 	c #A6B3BB",
"D 	c #A7B2B8",
"E 	c #B5C0C4",
"F 	c #B3BEC2",
"G 	c #B4BFC1",
"H 	c #B6BFC4",
"I 	c #B5BEC3",
"J 	c #ADBAC2",
"K 	c #ADB8BE",
"L 	c #AEB7BC",
"M 	c #B5BCC2",
"N 	c #AFB8BF",
"O 	c #AFBCC5",
"P 	c #8797A4",
"Q 	c #8192A2",
"R 	c #8795A2",
"S 	c #8694A1",
"T 	c #8896A3",
"U 	c #8895A5",
"V 	c #889AA8",
"W 	c #4C5F70",
"X 	c #51677F",
"Y 	c #4D6581",
"Z 	c #4E637E",
"` 	c #516274",
" .	c #BDCAD2",
"..	c #B6C0C2",
"+.	c #B7C2C8",
"@.	c #B6C1C7",
"#.	c #B8C3C9",
"$.	c #ADB8BC",
"%.	c #ACBABD",
"&.	c #A9B9B8",
"*.	c #B0BEC1",
"=.	c #AAB7BD",
"-.	c #ADBAC0",
";.	c #A9B8BF",
">.	c #A7B5C2",
",.	c #667686",
"'.	c #637687",
").	c #627586",
"!.	c #65778B",
"~.	c #627488",
"{.	c #64768C",
"].	c #5D6F85",
"^.	c #5F7189",
"/.	c #5D6F87",
"(.	c #5D7189",
"_.	c #596D85",
":.	c #576B83",
"<.	c #5A6E86",
"[.	c #566A82",
"}.	c #6D7F93",
"|.	c #6E7F91",
"1.	c #6F8092",
"2.	c #728395",
"3.	c #758696",
"4.	c #768797",
"5.	c #748595",
"6.	c #6D7E8E",
"7.	c #708191",
"8.	c #6D7E90",
"9.	c #708193",
"0.	c #67798D",
"a.	c #697B8F",
"b.	c #66788C",
"c.	c #697B91",
"d.	c #66788E",
"e.	c #67798F",
"f.	c #5F7187",
"g.	c #607288",
"h.	c #5E7086",
"i.	c #6A7C92",
"j.	c #687A8E",
"k.	c #798A9E",
"l.	c #798999",
"m.	c #748A97",
"n.	c #7C899A",
"o.	c #8C9CA9",
"p.	c #8D9BA4",
"q.	c #8997A0",
"r.	c #8F9DA8",
"s.	c #8A98A5",
"t.	c #8E9BA4",
"u.	c #A2AFB5",
"v.	c #9FADB0",
"w.	c #A1AFB2",
"x.	c #ACBABB",
"y.	c #AAB8BB",
"z.	c #98A7AE",
"A.	c #98A6AF",
"B.	c #97A5AE",
"C.	c #97A4AC",
"D.	c #96A4AD",
"E.	c #96A7B1",
"F.	c #7D8F9B",
"G.	c #7E929D",
"H.	c #7A8C98",
"I.	c #798B97",
"J.	c #7C8E98",
"K.	c #84959F",
"L.	c #97A8B0",
"M.	c #99A6AF",
"N.	c #97A5B0",
"O.	c #8696A3",
"P.	c #8999A6",
"Q.	c #8494A1",
"R.	c #8899A3",
"S.	c #8896A1",
"T.	c #9FADB8",
"U.	c #9EABB4",
"V.	c #A2AFB8",
"W.	c #A1AEB7",
"X.	c #9FACB2",
"Y.	c #BCC7CD",
"Z.	c #BAC3C8",
"`.	c #BFC6CC",
" +	c #BDC6CD",
".+	c #B0B9C0",
"++	c #ABB4BB",
"@+	c #ABB5BE",
"#+	c #B1BBC5",
"$+	c #ABB5BF",
"%+	c #A9B4BA",
"&+	c #B6C1C5",
"*+	c #B6C1C3",
"=+	c #B5BFC1",
"-+	c #B7C0C5",
";+	c #AEBBC3",
">+	c #B0B9BE",
",+	c #B3BAC0",
"'+	c #ADB6BD",
")+	c #ADBAC3",
"!+	c #8697A7",
"~+	c #8292A1",
"{+	c #8393A2",
"]+	c #8595A4",
"^+	c #8797A6",
"/+	c #8696A5",
"(+	c #8293A3",
"_+	c #54667A",
":+	c #4B607B",
"<+	c #4A627E",
"[+	c #546577",
"}+	c #B0BEC7",
"|+	c #B9C4C6",
"1+	c #B8C3C7",
"2+	c #B7C2C6",
"3+	c #B9C4C8",
"4+	c #A8B8B7",
"5+	c #AFBDC0",
"6+	c #A8B7BE",
"7+	c #A9B7C2",
"8+	c #697989",
"9+	c #647788",
"0+	c #62748A",
"a+	c #5E7088",
"b+	c #60748C",
"c+	c #5C7088",
"d+	c #5E728A",
"e+	c #5B6F87",
"f+	c #6E8094",
"g+	c #758698",
"h+	c #738494",
"i+	c #728393",
"j+	c #6C7D8D",
"k+	c #6C7D8F",
"l+	c #6A7C90",
"m+	c #687A90",
"n+	c #617389",
"o+	c #6B7D93",
"p+	c #7B8899",
"q+	c #778796",
"r+	c #8A9AA7",
"s+	c #8C9DA5",
"t+	c #8F9DAA",
"u+	c #8C9AA7",
"v+	c #8E9CA5",
"w+	c #A0AFB4",
"x+	c #A8B6B9",
"y+	c #9BAAAF",
"z+	c #99A8AD",
"A+	c #96A7AF",
"B+	c #768A95",
"C+	c #7B8D99",
"D+	c #7C8D95",
"E+	c #94A5AD",
"F+	c #A1AFB8",
"G+	c #99A7B2",
"H+	c #83949E",
"I+	c #82929F",
"J+	c #8798A2",
"K+	c #A2B0BB",
"L+	c #A2AEBA",
"M+	c #BCC5CA",
"N+	c #C1C8CE",
"O+	c #C0C7CD",
"P+	c #BEC7CE",
"Q+	c #B2BBC2",
"R+	c #B3BCC3",
"S+	c #B6BFC6",
"T+	c #B0BAC3",
"U+	c #AFB9C2",
"V+	c #A8B2BB",
"W+	c #A5B2B8",
"X+	c #A4B1B7",
"Y+	c #A5B2BA",
"Z+	c #B4BFC3",
"`+	c #B2BDBF",
" @	c #B3BEC0",
".@	c #AEB9BD",
"+@	c #B1BABF",
"@@	c #84929F",
"#@	c #8494A4",
"$@	c #8293A7",
"%@	c #55677F",
"&@	c #4F647F",
"*@	c #4E6380",
"=@	c #52667F",
"-@	c #566779",
";@	c #BAC5C9",
">@	c #AABABA",
",@	c #ABB8BE",
"'@	c #A9B8BD",
")@	c #A8B6C1",
"!@	c #657584",
"~@	c #607286",
"{@	c #637589",
"]@	c #63758D",
"^@	c #5C6E86",
"/@	c #5D6E88",
"(@	c #60728A",
"_@	c #576981",
":@	c #5B6D85",
"<@	c #6D8091",
"[@	c #738496",
"}@	c #6C7F90",
"|@	c #788897",
"1@	c #738996",
"2@	c #798697",
"3@	c #768695",
"4@	c #899AA4",
"5@	c #8D9BA8",
"6@	c #9EADB2",
"7@	c #ADBBBC",
"8@	c #A9B7BA",
"9@	c #98A7AC",
"0@	c #96A5AA",
"a@	c #99AAB2",
"b@	c #95A6AE",
"c@	c #98A9B1",
"d@	c #9CABB2",
"e@	c #7B8C96",
"f@	c #7F939E",
"g@	c #7A8E99",
"h@	c #7B8C94",
"i@	c #9BACB4",
"j@	c #93A4AC",
"k@	c #94A5AF",
"l@	c #93A4AE",
"m@	c #86949F",
"n@	c #A3AFBB",
"o@	c #9EAAB6",
"p@	c #A1AEB6",
"q@	c #BBC6CC",
"r@	c #BBC4CB",
"s@	c #AEB8C1",
"t@	c #ACB6BF",
"u@	c #ADB7C0",
"v@	c #AAB4BD",
"w@	c #A7B4BC",
"x@	c #B4C1C7",
"y@	c #B3C1C4",
"z@	c #AFBABE",
"A@	c #B4BEC7",
"B@	c #B2BECA",
"C@	c #8191A0",
"D@	c #8595A2",
"E@	c #8697AB",
"F@	c #4B5D73",
"G@	c #566A83",
"H@	c #4D617C",
"I@	c #50647C",
"J@	c #516272",
"K@	c #B6C4CD",
"L@	c #B1BFC2",
"M@	c #B7C2C4",
"N@	c #ADBDBD",
"O@	c #ABBABF",
"P@	c #A5B3BC",
"Q@	c #617180",
"R@	c #64768A",
"S@	c #5B6B82",
"T@	c #5C6C83",
"U@	c #586A82",
"V@	c #6C7E92",
"W@	c #718294",
"X@	c #748597",
"Y@	c #6D7E92",
"Z@	c #6B7E8F",
"`@	c #687B8C",
" #	c #5E7084",
".#	c #7A8B9F",
"+#	c #7B8B9A",
"@#	c #758B98",
"##	c #7C8999",
"$#	c #80909F",
"%#	c #8B9CA6",
"&#	c #8A9AAA",
"*#	c #8C99AA",
"=#	c #8B99A4",
"-#	c #9EADB4",
";#	c #9FAEB5",
">#	c #9DACB1",
",#	c #AEBDC2",
"'#	c #ADBCC1",
")#	c #ACBBBE",
"!#	c #ADBCBF",
"~#	c #AAB9BC",
"{#	c #A8B7BC",
"]#	c #A7B6BD",
"^#	c #9CAAB3",
"/#	c #9BACB6",
"(#	c #92A2AF",
"_#	c #94A6B2",
":#	c #95A7B3",
"<#	c #95A6B0",
"[#	c #8FA0AA",
"}#	c #81919E",
"|#	c #7D8D9A",
"1#	c #7D8F9D",
"2#	c #768896",
"3#	c #91A2AC",
"4#	c #96A6B3",
"5#	c #98A8B5",
"6#	c #8393A0",
"7#	c #9FADBA",
"8#	c #A2B0BD",
"9#	c #A4B2BF",
"0#	c #BBC8D0",
"a#	c #BDC7D0",
"b#	c #BFC8CF",
"c#	c #BCC6CF",
"d#	c #B2BCC6",
"e#	c #AFB9C3",
"f#	c #AEBBC4",
"g#	c #B3C0C9",
"h#	c #A4B0BC",
"i#	c #A5B3BE",
"j#	c #A4B2BD",
"k#	c #A3B1BC",
"l#	c #B2C0C9",
"m#	c #B0BFC6",
"n#	c #B3C0C8",
"o#	c #B1BEC6",
"p#	c #B2BFC8",
"q#	c #B1BEC4",
"r#	c #AFBCC2",
"s#	c #A5B2BB",
"t#	c #8593A0",
"u#	c #8997A2",
"v#	c #8795A0",
"w#	c #516073",
"x#	c #57687C",
"y#	c #4C5E72",
"z#	c #536476",
"A#	c #5A6A77",
"B#	c #B6C3CB",
"C#	c #B8C3C5",
"D#	c #A7B5BE",
"E#	c #70808D",
"F#	c #677888",
"G#	c #637484",
"H#	c #67788A",
"I#	c #657688",
"J#	c #67788C",
"K#	c #5E6F83",
"L#	c #5F6F86",
"M#	c #617085",
"N#	c #637287",
"O#	c #65768A",
"P#	c #596980",
"Q#	c #5D6D84",
"R#	c #5B6D83",
"S#	c #6E8192",
"T#	c #6F8293",
"U#	c #708296",
"V#	c #718397",
"W#	c #728594",
"X#	c #708394",
"Y#	c #728596",
"Z#	c #6B7D91",
"`#	c #6A7B8D",
" $	c #697A8C",
".$	c #6B7C90",
"+$	c #6A7B8F",
"@$	c #617286",
"#$	c #6A7D8E",
"$$	c #66778B",
"%$	c #697A8E",
"&$	c #7D8EA2",
"*$	c #7F8F9E",
"=$	c #7B919C",
"-$	c #818E9E",
";$	c #778997",
">$	c #70828E",
",$	c #72828F",
"'$	c #6D7D8D",
")$	c #6F7E93",
"!$	c #707F92",
"~$	c #727F8F",
"{$	c #88969F",
"]$	c #87959E",
"^$	c #9BAAB1",
"/$	c #95A4AB",
"($	c #93A1AA",
"_$	c #94A2AB",
":$	c #94A3AA",
"<$	c #7C8A95",
"[$	c #76848F",
"}$	c #7C8A97",
"|$	c #758594",
"1$	c #667787",
"2$	c #667988",
"3$	c #657686",
"4$	c #6D7D8C",
"5$	c #8999A8",
"6$	c #8D9DAA",
"7$	c #8D9DAC",
"8$	c #8F9FAE",
"9$	c #93A3B2",
"0$	c #788895",
"a$	c #708290",
"b$	c #6F818F",
"c$	c #748694",
"d$	c #70808F",
"e$	c #6B7B8A",
"f$	c #647484",
"g$	c #637383",
"h$	c #657585",
"i$	c #657680",
"j$	c #7F909A",
"k$	c #829099",
"l$	c #828F98",
"m$	c #84919A",
"n$	c #85919D",
"o$	c #7D8B96",
"p$	c #808E99",
"q$	c #7F8D98",
"r$	c #818F9A",
"s$	c #7F8D9A",
"t$	c #7E8C99",
"u$	c #5E6E7D",
"v$	c #5A6A7A",
"w$	c #59687B",
"x$	c #5A6B7B",
"y$	c #697B89",
"z$	c #687885",
"A$	c #6A7A87",
"B$	c #6B7888",
"C$	c #91A0A7",
"D$	c #9AA7AF",
"E$	c #A6B4BD",
"F$	c #AFBDC6",
"G$	c #ACB9C2",
"H$	c #B2BFC7",
"I$	c #B4C1C9",
"J$	c #B3C0C6",
"K$	c #B8C5CE",
"L$	c #B0BEC9",
"M$	c #B4C2CF",
"N$	c #B5C5D2",
"O$	c #B7C5D0",
"P$	c #ABB8C0",
"Q$	c #C1CCD0",
"R$	c #BDC9C9",
"S$	c #BCC8C8",
"T$	c #BCC7C9",
"U$	c #A7B5B6",
"V$	c #A5B4B7",
"W$	c #ACBBC2",
"X$	c #8B9BA8",
"Y$	c #95A5B4",
"Z$	c #94A4B3",
"`$	c #94A4B4",
" %	c #8999A9",
".%	c #8897AA",
"+%	c #8794A5",
"@%	c #8493A6",
"#%	c #8392A5",
"$%	c #6F8094",
"%%	c #6D7F95",
"&%	c #66798A",
"*%	c #708195",
"=%	c #718296",
"-%	c #6F8195",
";%	c #798A9C",
">%	c #7C8D9F",
",%	c #7D8EA0",
"'%	c #7E8FA3",
")%	c #7D939E",
"!%	c #8390A0",
"~%	c #7E8F9F",
"{%	c #6E808E",
"]%	c #6B7A8D",
"^%	c #6C7B92",
"/%	c #6D7C93",
"(%	c #6C7C8C",
"_%	c #9DACB3",
":%	c #94A2AD",
"<%	c #95A3AC",
"[%	c #808D9D",
"}%	c #798696",
"|%	c #808D9E",
"1%	c #79889B",
"2%	c #65758C",
"3%	c #61758D",
"4%	c #5D7287",
"5%	c #637486",
"6%	c #91A1B1",
"7%	c #919EAE",
"8%	c #8C99A9",
"9%	c #909DAD",
"0%	c #8F9FAC",
"a%	c #6F7F8E",
"b%	c #6A7B8B",
"c%	c #758595",
"d%	c #738393",
"e%	c #788999",
"f%	c #677A8B",
"g%	c #667886",
"h%	c #80929E",
"i%	c #84929D",
"j%	c #85939E",
"k%	c #82909D",
"l%	c #80909D",
"m%	c #7F90A2",
"n%	c #5B6C80",
"o%	c #586881",
"p%	c #5A6A84",
"q%	c #586A80",
"r%	c #586A7E",
"s%	c #657889",
"t%	c #687989",
"u%	c #68798B",
"v%	c #919FA8",
"w%	c #8E9DA4",
"x%	c #8F9EA5",
"y%	c #AEB9BF",
"z%	c #B7C3C3",
"A%	c #B1BDBD",
"B%	c #B5C0C2",
"C%	c #BEC8C9",
"D%	c #BFC9C8",
"E%	c #BFCBCB",
"F%	c #BDC8CA",
"G%	c #A9B9B9",
"H%	c #A7B5B8",
"I%	c #A8B6B7",
"J%	c #A4B4B4",
"K%	c #ABBAC1",
"L%	c #99AAB4",
"M%	c #8E9BAB",
"N%	c #8D9AAA",
"O%	c #8996A7",
"P%	c #718191",
"Q%	c #697C8D",
"R%	c #738498",
"S%	c #748599",
"T%	c #718495",
"U%	c #728492",
"V%	c #788A98",
"W%	c #7B8D9B",
"X%	c #7C8E9C",
"Y%	c #7C929D",
"Z%	c #828F9F",
"`%	c #6E7F8F",
" &	c #717F99",
".&	c #6F7D97",
"+&	c #6C7B8E",
"@&	c #8693A3",
"#&	c #8592A2",
"$&	c #9BA9B4",
"%&	c #9DABB6",
"&&	c #96A4AF",
"*&	c #94A2AF",
"=&	c #7D8A9B",
"-&	c #768396",
";&	c #7F8C9F",
">&	c #79889D",
",&	c #7B8BA2",
"'&	c #64748D",
")&	c #62738D",
"!&	c #61728C",
"~&	c #607890",
"{&	c #62768E",
"]&	c #8F9EB1",
"^&	c #96A2B2",
"/&	c #909CAC",
"(&	c #919DAD",
"_&	c #8E9EAD",
":&	c #708090",
"<&	c #6E7F93",
"[&	c #7C8B9E",
"}&	c #748494",
"|&	c #768998",
"1&	c #718493",
"2&	c #748798",
"3&	c #738697",
"4&	c #617387",
"5&	c #637685",
"6&	c #7E919F",
"7&	c #8193A1",
"8&	c #7D8D9C",
"9&	c #7F90A0",
"0&	c #8092A0",
"a&	c #8091A1",
"b&	c #7D8FA3",
"c&	c #566880",
"d&	c #566785",
"e&	c #5C6C8D",
"f&	c #667B90",
"g&	c #657A8D",
"h&	c #93A1AC",
"i&	c #93A2A9",
"j&	c #B2BFC5",
"k&	c #B0BBBD",
"l&	c #B6C2C2",
"m&	c #B5C1BF",
"n&	c #B7C2BC",
"o&	c #B4BFBB",
"p&	c #B8C2C1",
"q&	c #B5C1C1",
"r&	c #B8C2C3",
"s&	c #B6C0BF",
"t&	c #C6CFCC",
"u&	c #BBC4C1",
"v&	c #BBC7C5",
"w&	c #ACBCBC",
"x&	c #A6B3B9",
"y&	c #A5B3B6",
"z&	c #A6B6B6",
"A&	c #99A6AC",
"B&	c #95A2A8",
"C&	c #99A6AE",
"D&	c #9AA7B0",
"E&	c #8C99A2",
"F&	c #8A96A2",
"G&	c #8A96A4",
"H&	c #8794A4",
"I&	c #6F7F8F",
"J&	c #6B7C8C",
"K&	c #728397",
"L&	c #738593",
"M&	c #798B99",
"N&	c #7D94A6",
"O&	c #697A8A",
"P&	c #8597A5",
"Q&	c #8596A0",
"R&	c #83949C",
"S&	c #86949D",
"T&	c #9DAAB0",
"U&	c #9EACAF",
"V&	c #9CABB0",
"W&	c #96A5AC",
"X&	c #778495",
"Y&	c #60768E",
"Z&	c #5C7287",
"`&	c #677C8F",
" *	c #929FAF",
".*	c #909EAB",
"+*	c #929FB0",
"@*	c #738295",
"#*	c #77889A",
"$*	c #78899B",
"%*	c #758897",
"&*	c #617687",
"**	c #82939D",
"=*	c #81939D",
"-*	c #7E909C",
";*	c #7E8E9B",
">*	c #7F8F9F",
",*	c #5E6D82",
"'*	c #5A6A81",
")*	c #95A3A6",
"!*	c #96A3AB",
"~*	c #AEB9BB",
"{*	c #AFBABC",
"]*	c #ADB8BA",
"^*	c #B3BFBF",
"/*	c #B4C0BE",
"(*	c #B7C1C0",
"_*	c #B6C2C0",
":*	c #B6C4C4",
"<*	c #B2C0C1",
"[*	c #BFCDCD",
"}*	c #BCC8C4",
"|*	c #BECACA",
"1*	c #ABB9B9",
"2*	c #ABB9BA",
"3*	c #A3B0B6",
"4*	c #98A5AB",
"5*	c #8A98A3",
"6*	c #8898A8",
"7*	c #6D7C8F",
"8*	c #707F94",
"9*	c #6C7C93",
"0*	c #667789",
"a*	c #718292",
"b*	c #6C7E8C",
"c*	c #7B8D97",
"d*	c #7E909E",
"e*	c #7A90A5",
"f*	c #7E8B9B",
"g*	c #8394A6",
"h*	c #8899A9",
"i*	c #8395A3",
"j*	c #8496A4",
"k*	c #81939F",
"l*	c #9DAAB2",
"m*	c #95A3B0",
"n*	c #7B8A9D",
"o*	c #768598",
"p*	c #7B8B9B",
"q*	c #7C8C9C",
"r*	c #7F8EA1",
"s*	c #667B8E",
"t*	c #5B6C7E",
"u*	c #8D9DAD",
"v*	c #8C9CAB",
"w*	c #92A2B1",
"x*	c #8C9CAC",
"y*	c #6E7E8E",
"z*	c #6F8090",
"A*	c #758795",
"B*	c #64798A",
"C*	c #7F8F9C",
"D*	c #8294A0",
"E*	c #7F919F",
"F*	c #7D8C9F",
"G*	c #556982",
"H*	c #92A3AD",
"I*	c #93A3B0",
"J*	c #B4C2C5",
"K*	c #B6C4C7",
"L*	c #B5C3C4",
"M*	c #BAC5CB",
"N*	c #AEBCBC",
"O*	c #B3C1C1",
"P*	c #BBC9CA",
"Q*	c #BBCAC7",
"R*	c #AAB8B9",
"S*	c #9AA7AD",
"T*	c #6F7E91",
"U*	c #7C8E9A",
"V*	c #7B8C9C",
"W*	c #758BA0",
"X*	c #8191A1",
"Y*	c #8093A4",
"Z*	c #7B8CA0",
"`*	c #8193A7",
" =	c #8295A6",
".=	c #9AACBA",
"+=	c #9DADBC",
"@=	c #9AAAB7",
"#=	c #9BABB8",
"$=	c #99A9B6",
"%=	c #90A0B0",
"&=	c #92A2B2",
"*=	c #7C8DA1",
"==	c #778699",
"-=	c #748396",
";=	c #5F7082",
">=	c #627385",
",=	c #8D9CAF",
"'=	c #909FB4",
")=	c #91A2B6",
"!=	c #8798AA",
"~=	c #8B9CAE",
"{=	c #8998AB",
"]=	c #7A8A9A",
"^=	c #7C8D9D",
"/=	c #768799",
"(=	c #65778D",
"_=	c #8091A3",
":=	c #8090A0",
"<=	c #798C9B",
"[=	c #7F92A3",
"}=	c #7D90A1",
"|=	c #8192A4",
"1=	c #7E8FA1",
"2=	c #5A6E87",
"3=	c #596E89",
"4=	c #576C87",
"5=	c #576B84",
"6=	c #667A92",
"7=	c #64798E",
"8=	c #64798C",
"9=	c #90A2B0",
"0=	c #8FA0B0",
"a=	c #90A1B1",
"b=	c #91A1B0",
"c=	c #ADBBC6",
"d=	c #ADBBC4",
"e=	c #ABB9C2",
"f=	c #B1C0C7",
"g=	c #AFBEC5",
"h=	c #B9C6CC",
"i=	c #B1BFC0",
"j=	c #B3C1C2",
"k=	c #B6C3C9",
"l=	c #B5C2C8",
"m=	c #BBC9CC",
"n=	c #BCCACA",
"o=	c #BEC9CB",
"p=	c #BCCACD",
"q=	c #8C9AA5",
"r=	c #8D9BA6",
"s=	c #8798A0",
"t=	c #647587",
"u=	c #6B7C8E",
"v=	c #7D8E9E",
"w=	c #7A8B9D",
"x=	c #566C83",
"y=	c #596B7F",
"z=	c #55667A",
"A=	c #53687D",
"B=	c #5A6C82",
"C=	c #5F7185",
"D=	c #4D5F77",
"E=	c #42586F",
"F=	c #445870",
"G=	c #42566E",
"H=	c #455A6F",
"I=	c #607185",
"J=	c #5D6E82",
"K=	c #5F7084",
"L=	c #596B81",
"M=	c #607183",
"N=	c #667588",
"O=	c #8797A7",
"P=	c #8F9FAF",
"Q=	c #8796A9",
"R=	c #5A697E",
"S=	c #54647B",
"T=	c #51637B",
"U=	c #5C6D7F",
"V=	c #7B8C9E",
"W=	c #6F8291",
"X=	c #5D6F83",
"Y=	c #596E81",
"Z=	c #56687C",
"`=	c #6C7D91",
" -	c #6B7B8B",
".-	c #5B6D81",
"+-	c #51667B",
"@-	c #57697F",
"#-	c #55677D",
"$-	c #556981",
"%-	c #3B4F68",
"&-	c #3A4F6C",
"*-	c #39516D",
"=-	c #3B536F",
"--	c #39516B",
";-	c #485E76",
">-	c #445A72",
",-	c #465C73",
"'-	c #445A71",
")-	c #475B74",
"!-	c #465A73",
"~-	c #526375",
"{-	c #516377",
"]-	c #506278",
"^-	c #4F6479",
"/-	c #52647A",
"(-	c #556678",
"_-	c #71818E",
":-	c #6F7F8C",
"<-	c #61737F",
"[-	c #60727E",
"}-	c #627480",
"|-	c #5F717D",
"1-	c #6E7C87",
"2-	c #A3B2B9",
"3-	c #A9B3BC",
"4-	c #ABB6BA",
"5-	c #AAB5B9",
"6-	c #97A6AD",
"7-	c #9CA9AF",
"8-	c #96A7AE",
"9-	c #56687E",
"0-	c #54667C",
"a-	c #5A6B7F",
"b-	c #778898",
"c-	c #536980",
"d-	c #576D85",
"e-	c #63758B",
"f-	c #667890",
"g-	c #40516B",
"h-	c #435873",
"i-	c #445974",
"j-	c #425772",
"k-	c #5C6E84",
"l-	c #5A6C84",
"m-	c #5A6F84",
"n-	c #5F7489",
"o-	c #8B9BAB",
"p-	c #8F9CAD",
"q-	c #95A4B9",
"r-	c #526279",
"s-	c #50647D",
"t-	c #546881",
"u-	c #4E627B",
"v-	c #8293A5",
"w-	c #798A9A",
"x-	c #5A6C80",
"y-	c #566B7E",
"z-	c #51677E",
"A-	c #51657D",
"B-	c #546880",
"C-	c #52667E",
"D-	c #3D526D",
"E-	c #3D5571",
"F-	c #3D5473",
"G-	c #3B5271",
"H-	c #38506C",
"I-	c #435B77",
"J-	c #405872",
"K-	c #435875",
"L-	c #425774",
"M-	c #516379",
"N-	c #4F637B",
"O-	c #4F637C",
"P-	c #5B6E7D",
"Q-	c #5A6D7C",
"R-	c #5D707F",
"S-	c #596F7D",
"T-	c #586877",
"U-	c #A9B4B8",
"V-	c #97A6AB",
"W-	c #A1B0B5",
"X-	c #9FAEB3",
"Y-	c #A3B2B7",
"Z-	c #94A5AC",
"`-	c #7B8B98",
" ;	c #68798D",
".;	c #55677B",
"+;	c #7C8FA0",
"@;	c #76899A",
"#;	c #536981",
"$;	c #596982",
"%;	c #667791",
"&;	c #455672",
"*;	c #405874",
"=;	c #415975",
"-;	c #405570",
";;	c #5F738C",
">;	c #5F708A",
",;	c #909CAA",
"';	c #899AAE",
");	c #52647C",
"!;	c #54697C",
"~;	c #778A99",
"{;	c #778995",
"];	c #586D80",
"^;	c #54667E",
"/;	c #526880",
"(;	c #50667E",
"_;	c #3B506B",
":;	c #3A5170",
"<;	c #455D79",
"[;	c #425A76",
"};	c #465B78",
"|;	c #475C7B",
"1;	c #465B7A",
"2;	c #4E627A",
"3;	c #4E627D",
"4;	c #4D627D",
"5;	c #758899",
"6;	c #5E7182",
"7;	c #5D7283",
"8;	c #5F7485",
"9;	c #5F7487",
"0;	c #5C7385",
"a;	c #5F7080",
"b;	c #A3B4BE",
"c;	c #A4B3B8",
"d;	c #AAB5BB",
"e;	c #A1B0B7",
"f;	c #A0AFB6",
"g;	c #95A6AD",
"h;	c #7C8C99",
"i;	c #576882",
"j;	c #5A6A83",
"k;	c #677892",
"l;	c #495A76",
"m;	c #445976",
"n;	c #415671",
"o;	c #60748D",
"p;	c #63778F",
"q;	c #5B6C86",
"r;	c #5E6F89",
"s;	c #8C9BAE",
"t;	c #8D99A9",
"u;	c #899AAC",
"v;	c #536780",
"w;	c #566B80",
"x;	c #5C6E82",
"y;	c #596B83",
"z;	c #596E83",
"A;	c #6C7E94",
"B;	c #53677F",
"C;	c #546984",
"D;	c #51657E",
"E;	c #3C516C",
"F;	c #3D526F",
"G;	c #374E6D",
"H;	c #415673",
"I;	c #445978",
"J;	c #435778",
"K;	c #51627C",
"L;	c #50647F",
"M;	c #5B6E7F",
"N;	c #5D7285",
"O;	c #5B7284",
"P;	c #A6B8C4",
"Q;	c #A2B1B8",
"R;	c #566781",
"S;	c #586983",
"T;	c #748795",
"U;	c #586C85",
"V;	c #57677E",
"W;	c #5B6983",
"X;	c #556A7F",
"Y;	c #607588",
"Z;	c #617785",
"`;	c #62778C",
" >	c #667A93",
".>	c #415570",
"+>	c #455972",
"@>	c #637488",
"#>	c #63738A",
"$>	c #5D6D86",
"%>	c #5F6F88",
"&>	c #5E6E85",
"*>	c #5C6D81",
"=>	c #8E9DB0",
"->	c #93A0B1",
";>	c #8B9BAA",
">>	c #8E9FB1",
",>	c #4D6179",
"'>	c #4D617A",
")>	c #50667B",
"!>	c #8898A7",
"~>	c #788B99",
"{>	c #576C81",
"]>	c #526681",
"^>	c #556680",
"/>	c #52637D",
"(>	c #3E526D",
"_>	c #3E5370",
":>	c #39506F",
"<>	c #455A77",
"[>	c #465979",
"}>	c #445778",
"|>	c #4F607A",
"1>	c #4F637E",
"2>	c #5C6F80",
"3>	c #5C7182",
"4>	c #5A7183",
"5>	c #576A7B",
"6>	c #A7B6BB",
"7>	c #A5B0B6",
"8>	c #A6B5B8",
"9>	c #9AA9AE",
"0>	c #798C9A",
"a>	c #526A84",
"b>	c #516A80",
"c>	c #7C8C9B",
"d>	c #83919E",
"e>	c #B0BDC3",
"f>	c #B1BBC4",
"g>	c #B8C1C6",
"h>	c #8692A0",
"i>	c #7F8C9D",
"j>	c #63788B",
"k>	c #7B8E9D",
"l>	c #7D909F",
"m>	c #A2B0B9",
"n>	c #A9B6BF",
"o>	c #A5B4BB",
"p>	c #ACB7BD",
"q>	c #A9B7B8",
"r>	c #9FADB6",
"s>	c #9DAEB6",
"t>	c #94A0AC",
"u>	c #9CA9BA",
"v>	c #9BA8B1",
"w>	c #A0ADBE",
"x>	c #43536D",
"y>	c #3F5270",
"z>	c #3D5172",
"A>	c #415576",
"B>	c #374B6C",
"C>	c #394D6E",
"D>	c #374E6E",
"E>	c #384F71",
"F>	c #31496B",
"G>	c #334B6D",
"H>	c #3E5273",
"I>	c #3B4F70",
"J>	c #3E5372",
"K>	c #3D5271",
"L>	c #384C6F",
"M>	c #364C71",
"N>	c #3A5075",
"O>	c #354C6E",
"P>	c #3B5274",
"Q>	c #3A5173",
"R>	c #3B5272",
"S>	c #364D6D",
"T>	c #6C8196",
"U>	c #6B7E8D",
"V>	c #728292",
"W>	c #8A9AA9",
"X>	c #889AA4",
"Y>	c #8899A1",
"Z>	c #81929C",
"`>	c #7A8B9B",
" ,	c #7D8D9D",
".,	c #5A6B85",
"+,	c #596A84",
"@,	c #4C5D79",
"#,	c #4A5B77",
"$,	c #4C6176",
"%,	c #495C7A",
"&,	c #3A4E6F",
"*,	c #3B4F72",
"=,	c #394E6D",
"-,	c #384D6C",
";,	c #3A5171",
">,	c #3C5373",
",,	c #425677",
"',	c #405475",
"),	c #405574",
"!,	c #405572",
"~,	c #586C84",
"{,	c #3D536B",
"],	c #3F5473",
"^,	c #3F5272",
"/,	c #546C86",
"(,	c #7A8A99",
"_,	c #7E8E9D",
":,	c #7E8E9E",
"<,	c #808DA0",
"[,	c #B1BEC7",
"},	c #B4BFC5",
"|,	c #B5BFC9",
"1,	c #B0BBBF",
"2,	c #ACB9C1",
"3,	c #83919C",
"4,	c #8291A4",
"5,	c #8393A3",
"6,	c #62778A",
"7,	c #617689",
"8,	c #7D909E",
"9,	c #7E909A",
"0,	c #788B9A",
"a,	c #92A0A9",
"b,	c #939FAB",
"c,	c #A1AFBC",
"d,	c #42536D",
"e,	c #3C516E",
"f,	c #324968",
"g,	c #314867",
"h,	c #334A6A",
"i,	c #344B6B",
"j,	c #384C71",
"k,	c #344A6F",
"l,	c #334A6C",
"m,	c #364D6F",
"n,	c #395072",
"o,	c #384F6F",
"p,	c #394D68",
"q,	c #6B7F97",
"r,	c #728194",
"s,	c #8B99A6",
"t,	c #768696",
"u,	c #7A899C",
"v,	c #4B5C76",
"w,	c #475C71",
"x,	c #445871",
"y,	c #475A78",
"z,	c #384C6D",
"A,	c #394D70",
"B,	c #374E70",
"C,	c #3E5575",
"D,	c #415675",
"E,	c #3D5474",
"F,	c #516983",
"G,	c #536480",
"H,	c #53647E",
"I,	c #7D8A9D",
"J,	c #B0B9C2",
"K,	c #637889",
"L,	c #7A8E97",
"M,	c #8093A1",
"N,	c #AEB7BE",
"O,	c #9DAEB5",
"P,	c #9EABB3",
"Q,	c #9EADC0",
"R,	c #43546E",
"S,	c #3B506F",
"T,	c #395271",
"U,	c #3F5675",
"V,	c #395070",
"W,	c #384F6E",
"X,	c #334A69",
"Y,	c #3E5275",
"Z,	c #3F5374",
"`,	c #3D506E",
" '	c #71829C",
".'	c #718095",
"+'	c #8B98A8",
"@'	c #8A97A7",
"#'	c #8491A1",
"$'	c #828FA0",
"%'	c #758497",
"&'	c #7A879A",
"*'	c #7C899C",
"='	c #4E5F79",
"-'	c #4C6078",
";'	c #4B5F78",
">'	c #4C5F7D",
",'	c #3C5071",
"''	c #364E70",
")'	c #354D6F",
"!'	c #405777",
"~'	c #3F546F",
"{'	c #576884",
"]'	c #596983",
"^'	c #7B889B",
"/'	c #7E8DA0",
"('	c #B5C2CB",
"_'	c #B5BEC5",
":'	c #B6BFC8",
"<'	c #AFBEC3",
"['	c #8394A4",
"}'	c #778D9B",
"|'	c #7A8D9B",
"1'	c #A6B1B7",
"2'	c #ABB6BC",
"3'	c #93A0A9",
"4'	c #94A1AA",
"5'	c #A1ADB9",
"6'	c #9CA9B1",
"7'	c #9EADC2",
"8'	c #40516F",
"9'	c #42597B",
"0'	c #364F6E",
"a'	c #344C6E",
"b'	c #2F4769",
"c'	c #3C5375",
"d'	c #354B70",
"e'	c #354C6C",
"f'	c #3A4E69",
"g'	c #6E8098",
"h'	c #6E7D90",
"i'	c #7E8B9C",
"j'	c #586D82",
"k'	c #495D76",
"l'	c #485C77",
"m'	c #465A72",
"n'	c #344B6D",
"o'	c #374F71",
"p'	c #365071",
"q'	c #364D6C",
"r'	c #415878",
"s'	c #586C87",
"t'	c #3C5470",
"u'	c #3B5473",
"v'	c #55657F",
"w'	c #7F8C9C",
"x'	c #B2BDC1",
"y'	c #B1BCC2",
"z'	c #B1BAC3",
"A'	c #B1C0C5",
"B'	c #809199",
"C'	c #64748B",
"D'	c #A8B3B9",
"E'	c #A2ACB5",
"F'	c #A6B0B9",
"G'	c #AAB7BF",
"H'	c #92A1A8",
"I'	c #95A2AB",
"J'	c #9EAAB8",
"K'	c #9DA9B5",
"L'	c #A0ADB6",
"M'	c #9DAABA",
"N'	c #9EADC4",
"O'	c #3E4F6D",
"P'	c #394C6D",
"Q'	c #3C5170",
"R'	c #354D71",
"S'	c #364E72",
"T'	c #364A6D",
"U'	c #36496A",
"V'	c #384D68",
"W'	c #6B8095",
"X'	c #8D9FAB",
"Y'	c #889AA6",
"Z'	c #7A8797",
"`'	c #7A8895",
" )	c #4A5E79",
".)	c #495D78",
"+)	c #4B5F7A",
"@)	c #485D7A",
"#)	c #344C68",
"$)	c #536782",
"%)	c #586D88",
"&)	c #3F5471",
"*)	c #3C5372",
"=)	c #556B83",
"-)	c #57657F",
";)	c #7A8A97",
">)	c #798998",
",)	c #7D8E98",
"')	c #B6C0C9",
"))	c #818F9C",
"!)	c #687888",
"~)	c #68778A",
"{)	c #80929C",
"])	c #A7B1BA",
"^)	c #AAB7C0",
"/)	c #9BACB3",
"()	c #96A3AC",
"_)	c #9FABBB",
":)	c #9CA8B4",
"<)	c #9AA8B5",
"[)	c #99A6B9",
"})	c #4D5B75",
"|)	c #46546F",
"1)	c #41516A",
"2)	c #485973",
"3)	c #2D425F",
"4)	c #374A6A",
"5)	c #384E73",
"6)	c #687E96",
"7)	c #6C8194",
"8)	c #8598A6",
"9)	c #879AA8",
"0)	c #8799A7",
"a)	c #899BA9",
"b)	c #8698A4",
"c)	c #8496A2",
"d)	c #8294A2",
"e)	c #7F92A1",
"f)	c #7E91A0",
"g)	c #8093A2",
"h)	c #7C8F9E",
"i)	c #728498",
"j)	c #556984",
"k)	c #4A5D7B",
"l)	c #465977",
"m)	c #445775",
"n)	c #364B6A",
"o)	c #3E5574",
"p)	c #4F6280",
"q)	c #3F556D",
"r)	c #3D556F",
"s)	c #3E536E",
"t)	c #3E546C",
"u)	c #627890",
"v)	c #6B7B92",
"w)	c #6D7C91",
"x)	c #8798A8",
"y)	c #8A9BA5",
"z)	c #9CADB5",
"A)	c #A4B3BA",
"B)	c #A1AFBA",
"C)	c #A6B4B7",
"D)	c #A3B0B8",
"E)	c #A9B7C0",
"F)	c #ACBAC3",
"G)	c #AAB4BE",
"H)	c #A3B1BA",
"I)	c #A8B6BF",
"J)	c #9FA9B2",
"K)	c #9BA5AE",
"L)	c #909EA7",
"M)	c #8F9CA5",
"N)	c #919EA7",
"O)	c #94A1A9",
"P)	c #9AACB0",
"Q)	c #9FACB4",
"R)	c #A0ADB3",
"S)	c #A0ADB5",
"T)	c #A9B5C1",
"U)	c #9EAABA",
"V)	c #A9B5C3",
"W)	c #ADB9C5",
"X)	c #A8B6C3",
"Y)	c #A4B4C4",
"Z)	c #546A81",
"`)	c #4E6680",
" !	c #283E63",
".!	c #263C61",
"+!	c #293F66",
"@!	c #253B62",
"#!	c #1F375B",
"$!	c #435A79",
"%!	c #43576F",
"&!	c #475872",
"*!	c #465771",
"=!	c #52677A",
"-!	c #4F6477",
";!	c #506276",
">!	c #526478",
",!	c #596A7E",
"'!	c #58697D",
")!	c #4E6378",
"!!	c #50657A",
"~!	c #475B73",
"{!	c #495D75",
"]!	c #4D5E78",
"^!	c #4C5D77",
"/!	c #4B5E7C",
"(!	c #435676",
"_!	c #455878",
":!	c #485B79",
"<!	c #596D88",
"[!	c #556682",
"}!	c #5B6C88",
"|!	c #4A5E77",
"1!	c #6B7D95",
"2!	c #708298",
"3!	c #596F86",
"4!	c #586E85",
"5!	c #637990",
"6!	c #6E7A90",
"7!	c #899AA2",
"8!	c #8C9DA7",
"9!	c #A2B3BB",
"0!	c #A2B1B4",
"a!	c #A4B3B6",
"b!	c #A1ACB2",
"c!	c #AFBCC4",
"d!	c #A4B2B5",
"e!	c #ABB6B8",
"f!	c #ABB7B7",
"g!	c #97A2A8",
"h!	c #929FA7",
"i!	c #97A4AD",
"j!	c #9EACB7",
"k!	c #90A1AB",
"l!	c #8E9CA7",
"m!	c #8D99A5",
"n!	c #8E9AA6",
"o!	c #909EA9",
"p!	c #95A2AA",
"q!	c #98AAAE",
"r!	c #A0AEAE",
"s!	c #A0AEAF",
"t!	c #AFB8BD",
"u!	c #ABB5B7",
"v!	c #536571",
"w!	c #536879",
"x!	c #53697E",
"y!	c #51677C",
"z!	c #516679",
"A!	c #3A4F6E",
"B!	c #243A5F",
"C!	c #233960",
"D!	c #283E65",
"E!	c #243B65",
"F!	c #41597D",
"G!	c #4B6179",
"H!	c #4C6079",
"I!	c #576B86",
"J!	c #4C607B",
"K!	c #485B7B",
"L!	c #60718F",
"M!	c #637490",
"N!	c #63748E",
"O!	c #465A75",
"P!	c #485B7C",
"Q!	c #566A85",
"R!	c #5D6D87",
"S!	c #54647E",
"T!	c #5B6B85",
"U!	c #566E8A",
"V!	c #3A526E",
"W!	c #485C75",
"X!	c #6E8096",
"Y!	c #6B7B94",
"Z!	c #6B7A8F",
"`!	c #8E9BAC",
" ~	c #8A95A7",
".~	c #A5B4B9",
"+~	c #ACB5BC",
"@~	c #98A2AB",
"#~	c #95A3AE",
"$~	c #98A9B0",
"%~	c #A9B3BD",
"&~	c #AFB7C2",
"*~	c #586979",
"=~	c #4F6781",
"-~	c #526782",
";~	c #415877",
">~	c #394B71",
",~	c #3B4D73",
"'~	c #36486E",
")~	c #263961",
"!~	c #253B64",
"~~	c #263D66",
"{~	c #223B64",
"]~	c #243D65",
"^~	c #3D5876",
"/~	c #415973",
"(~	c #455879",
"_~	c #415475",
":~	c #4E6575",
"<~	c #4E647C",
"[~	c #4C627A",
"}~	c #5C6D87",
"|~	c #586985",
"1~	c #51627E",
"2~	c #4A5D7D",
"3~	c #62738F",
"4~	c #60718B",
"5~	c #65758F",
"6~	c #607089",
"7~	c #65758E",
"8~	c #495E7B",
"9~	c #455A79",
"0~	c #465A7B",
"a~	c #425575",
"b~	c #4A5B79",
"c~	c #586784",
"d~	c #586882",
"e~	c #576781",
"f~	c #576A88",
"g~	c #395173",
"h~	c #48607A",
"i~	c #435B75",
"j~	c #435B73",
"k~	c #4A6077",
"l~	c #677C91",
"m~	c #697E8F",
"n~	c #6C7C95",
"o~	c #6C7B90",
"p~	c #687D90",
"q~	c #A6B5BA",
"r~	c #919FAC",
"s~	c #97A8AF",
"t~	c #9EABB1",
"u~	c #AEB8C2",
"v~	c #57687A",
"w~	c #506580",
"x~	c #3D576E",
"y~	c #3E586F",
"z~	c #3C576C",
"A~	c #3E596E",
"B~	c #3B536B",
"C~	c #3E5670",
"D~	c #364E6A",
"E~	c #223B5A",
"F~	c #213A59",
"G~	c #243E5F",
"H~	c #203D5D",
"I~	c #213A62",
"J~	c #41597B",
"K~	c #3F5773",
"L~	c #516580",
"M~	c #495F74",
"N~	c #4D637B",
"O~	c #475B76",
"P~	c #4B5C7A",
"Q~	c #495C7C",
"R~	c #495E7D",
"S~	c #485C7D",
"T~	c #455C7E",
"U~	c #566987",
"V~	c #536C82",
"W~	c #385167",
"X~	c #39536A",
"Y~	c #3A566E",
"Z~	c #3B576F",
"`~	c #37516A",
" {	c #3C546C",
".{	c #455D75",
"+{	c #465E7A",
"@{	c #48607C",
"#{	c #687D8E",
"${	c #6A7F92",
"%{	c #6A798E",
"&{	c #69788F",
"*{	c #8B9EA5",
"={	c #A6B5BC",
"-{	c #A8B1B6",
";{	c #AAB3B8",
">{	c #ACB5BA",
",{	c #ADB6BB",
"'{	c #ACB6C0",
"){	c #A8B5BE",
"!{	c #ACBAC7",
"~{	c #3C5574",
"{{	c #3D5675",
"]{	c #3A5372",
"^{	c #405779",
"/{	c #3B5178",
"({	c #344A71",
"_{	c #364C73",
":{	c #354C75",
"<{	c #223962",
"[{	c #1F3660",
"}{	c #243D66",
"|{	c #263F68",
"1{	c #233B67",
"2{	c #20385C",
"3{	c #455C7C",
"4{	c #435674",
"5{	c #405374",
"6{	c #3E5172",
"7{	c #516482",
"8{	c #62748C",
"9{	c #4B5B7C",
"0{	c #4B5E7E",
"a{	c #455E7D",
"b{	c #556C8B",
"c{	c #3E5577",
"d{	c #475E80",
"e{	c #475C77",
"f{	c #435770",
"g{	c #70819B",
"h{	c #6C7E96",
"i{	c #6E8394",
"j{	c #6B8091",
"k{	c #677C8D",
"l{	c #8A9CA8",
"m{	c #9FB0B8",
"n{	c #9AA8AB",
"o{	c #9DABAE",
"p{	c #A2AFB7",
"q{	c #ABB8C1",
"r{	c #5B6A7D",
"s{	c #334768",
"t{	c #374B6E",
"u{	c #374B70",
"v{	c #2C4065",
"w{	c #283C61",
"x{	c #273A62",
"y{	c #243A61",
"z{	c #21375E",
"A{	c #2A3F5C",
"B{	c #475874",
"C{	c #4C617C",
"D{	c #4D627F",
"E{	c #4A5F7E",
"F{	c #485D7C",
"G{	c #4C6180",
"H{	c #4A5F7C",
"I{	c #5B708D",
"J{	c #5D728D",
"K{	c #5C718C",
"L{	c #5E738E",
"M{	c #425A74",
"N{	c #3C4F6D",
"O{	c #3E5171",
"P{	c #3C4F6F",
"Q{	c #415474",
"R{	c #4C5E76",
"S{	c #4C5E74",
"T{	c #4F6177",
"U{	c #5D7081",
"V{	c #718198",
"W{	c #718697",
"X{	c #758499",
"Y{	c #768894",
"Z{	c #758793",
"`{	c #92A0AB",
" ]	c #8D9CA1",
".]	c #9CADB4",
"+]	c #A1B2BA",
"@]	c #A2B3BD",
"#]	c #A0B1BB",
"$]	c #9FB0BA",
"%]	c #99AAB1",
"&]	c #97AAB0",
"*]	c #97AAAE",
"=]	c #95A8AC",
"-]	c #96A9AF",
";]	c #96A9B0",
">]	c #798B95",
",]	c #8C9EAC",
"']	c #8D9FAD",
")]	c #8EA0AE",
"!]	c #8499AC",
"~]	c #7F91A5",
"{]	c #8092A6",
"]]	c #8091A5",
"^]	c #7F90A4",
"/]	c #7B8DA1",
"(]	c #485D78",
"_]	c #495E79",
":]	c #435772",
"<]	c #304364",
"[]	c #2D4164",
"}]	c #2E4265",
"|]	c #293D62",
"1]	c #273B60",
"2]	c #24385B",
"3]	c #2B4264",
"4]	c #2A4163",
"5]	c #294062",
"6]	c #283F61",
"7]	c #596D86",
"8]	c #73859B",
"9]	c #74869A",
"0]	c #798B9F",
"a]	c #A1AEBE",
"b]	c #A5B3C0",
"c]	c #A8BABE",
"d]	c #ACBBC0",
"e]	c #AEBDC4",
"f]	c #8596A6",
"g]	c #7A8D9C",
"h]	c #788B9C",
"i]	c #778A9B",
"j]	c #73839A",
"k]	c #74899A",
"l]	c #77869B",
"m]	c #75879F",
"n]	c #6D7D94",
"o]	c #738695",
"p]	c #92A3AB",
"q]	c #8E9FA7",
"r]	c #929FA8",
"s]	c #A6B3BC",
"t]	c #8F9DA6",
"u]	c #91A0A5",
"v]	c #8A999C",
"w]	c #A9B8BB",
"x]	c #A3B2B5",
"y]	c #9CAAAD",
"z]	c #9DABAC",
"A]	c #99A8AB",
"B]	c #9DACAF",
"C]	c #77868D",
"D]	c #78868F",
"E]	c #7A8B93",
"F]	c #788991",
"G]	c #778890",
"H]	c #8FA1AD",
"I]	c #8598A7",
"J]	c #495E73",
"K]	c #4A6078",
"L]	c #4C617E",
"M]	c #425679",
"N]	c #415578",
"O]	c #2D436C",
"P]	c #2C426B",
"Q]	c #293F68",
"R]	c #283E67",
"S]	c #243A63",
"T]	c #263C63",
"U]	c #243C62",
"V]	c #253D63",
"W]	c #233B61",
"X]	c #798C9D",
"Y]	c #A6B1B3",
"Z]	c #B0BABC",
"`]	c #B2BCBE",
" ^	c #B1BCC0",
".^	c #909BA1",
"+^	c #8D9EA8",
"@^	c #91A1AE",
"#^	c #657783",
"$^	c #687A88",
"%^	c #6A7C8A",
"&^	c #718399",
"*^	c #6D808F",
"=^	c #687A92",
"-^	c #8E9FA9",
";^	c #8D9EA6",
">^	c #8C9BA0",
",^	c #A5B3B4",
"'^	c #A3AEB4",
")^	c #9BA7B5",
"!^	c #9AA6B2",
"~^	c #9DABB8",
"{^	c #919EB1",
"]^	c #8F9AAC",
"^^	c #8E99AB",
"/^	c #909BAD",
"(^	c #4B5E7F",
"_^	c #4A5F7A",
":^	c #425776",
"<^	c #43577A",
"[^	c #2B416A",
"}^	c #2A4069",
"|^	c #273D66",
"1^	c #263C65",
"2^	c #263E64",
"3^	c #273F65",
"4^	c #284267",
"5^	c #253F64",
"6^	c #5C6D89",
"7^	c #7A8893",
"8^	c #A6B2BE",
"9^	c #AFB9C5",
"0^	c #B2BAC5",
"a^	c #ADB5C0",
"b^	c #B0B8C5",
"c^	c #B0B9C8",
"d^	c #697988",
"e^	c #728299",
"f^	c #728896",
"g^	c #6A7D8B",
"h^	c #6E8190",
"i^	c #728593",
"j^	c #7B8E9C",
"k^	c #7B8F9A",
"l^	c #798D98",
"m^	c #748493",
"n^	c #91A2AA",
"o^	c #90A1A9",
"p^	c #A8B3B7",
"q^	c #A6B1B5",
"r^	c #94A6AA",
"s^	c #99ABAF",
"t^	c #98ABB1",
"u^	c #73868D",
"v^	c #7A8C96",
"w^	c #748891",
"x^	c #798D96",
"y^	c #758992",
"z^	c #8B9DA7",
"A^	c #8491A4",
"B^	c #8592A3",
"C^	c #46587E",
"D^	c #4B6178",
"E^	c #41576F",
"F^	c #2D4162",
"G^	c #2B4369",
"H^	c #2C446A",
"I^	c #2A4268",
"J^	c #263E62",
"K^	c #273F63",
"L^	c #253B60",
"M^	c #253D61",
"N^	c #233D60",
"O^	c #274166",
"P^	c #233D62",
"Q^	c #5B6F88",
"R^	c #5B6C8A",
"S^	c #596A88",
"T^	c #768892",
"U^	c #A5B6BE",
"V^	c #A2B3BA",
"W^	c #A5B6BD",
"X^	c #B1BCBE",
"Y^	c #B3BDBF",
"Z^	c #8F99A3",
"`^	c #929EAA",
" /	c #919DAB",
"./	c #6A798C",
"+/	c #677787",
"@/	c #718B9C",
"#/	c #75859C",
"$/	c #6E8398",
"%/	c #697E93",
"&/	c #6A7F94",
"*/	c #72879C",
"=/	c #74869C",
"-/	c #78879C",
";/	c #748398",
">/	c #728196",
",/	c #92A0AD",
"'/	c #98A6B1",
")/	c #8E9EAB",
"!/	c #919EA6",
"~/	c #909FA6",
"{/	c #ABBABD",
"]/	c #A5B5B5",
"^/	c #A7B6B9",
"//	c #8B9DA9",
"(/	c #8B9DAB",
"_/	c #8BA0B1",
":/	c #8599A4",
"</	c #A6B8BC",
"[/	c #7E8C95",
"}/	c #778590",
"|/	c #8C9EAA",
"1/	c #4D5D76",
"2/	c #4A5E76",
"3/	c #435470",
"4/	c #45576F",
"5/	c #304268",
"6/	c #2A4266",
"7/	c #2B4367",
"8/	c #294163",
"9/	c #284062",
"0/	c #2E466A",
"a/	c #243C60",
"b/	c #284066",
"c/	c #273E67",
"d/	c #273D62",
"e/	c #2D4368",
"f/	c #253C5E",
"g/	c #263E60",
"h/	c #273F61",
"i/	c #233B5D",
"j/	c #253D5F",
"k/	c #5E6F8B",
"l/	c #788993",
"m/	c #788B92",
"n/	c #75868E",
"o/	c #A7B4BD",
"p/	c #69788B",
"q/	c #68788F",
"r/	c #697990",
"s/	c #677985",
"t/	c #506A7B",
"u/	c #54697E",
"v/	c #52677C",
"w/	c #5B7085",
"x/	c #84959D",
"y/	c #97A3AF",
"z/	c #98A4B0",
"A/	c #778794",
"B/	c #76879B",
"C/	c #76859A",
"D/	c #74849D",
"E/	c #3D4E6A",
"F/	c #394C6C",
"G/	c #354B63",
"H/	c #3E5162",
"I/	c #8B98A1",
"J/	c #8C96A0",
"K/	c #909AA6",
"L/	c #718391",
"M/	c #778A98",
"N/	c #768997",
"O/	c #7A8FA0",
"P/	c #7C8EA4",
"Q/	c #8394A8",
"R/	c #8395A9",
"S/	c #7B8CA8",
"T/	c #3D5070",
"U/	c #2A4161",
"V/	c #243B67",
"W/	c #283F6B",
"X/	c #1E3561",
"Y/	c #1F3662",
"Z/	c #223965",
"`/	c #233A66",
" (	c #5C7186",
".(	c #A4B4C1",
"+(	c #66768D",
"@(	c #647589",
"#(	c #56667D",
"$(	c #50697D",
"%(	c #879AA1",
"&(	c #8699A0",
"*(	c #85989F",
"=(	c #85969E",
"-(	c #89989F",
";(	c #A1AFB0",
">(	c #9FAEB1",
",(	c #9BAAAD",
"'(	c #9EADB0",
")(	c #8595A5",
"!(	c #98A5B5",
"~(	c #97A3B1",
"{(	c #95A1AF",
"](	c #97A7B7",
"^(	c #7589A1",
"/(	c #334863",
"((	c #304968",
"_(	c #31496D",
":(	c #314868",
"<(	c #364A65",
"[(	c #8899AB",
"}(	c #8B97A7",
"|(	c #788C95",
"1(	c #778B94",
"2(	c #7C9099",
"3(	c #7B8F98",
"4(	c #778B96",
"5(	c #8597AD",
"6(	c #40516D",
"7(	c #3D5174",
"8(	c #3E5277",
"9(	c #2B3E66",
"0(	c #2A3D68",
"a(	c #2A3C6A",
"b(	c #253D69",
"c(	c #29416D",
"d(	c #2C4470",
"e(	c #203763",
"f(	c #5E7386",
"g(	c #617188",
"h(	c #606F82",
"i(	c #B0BDC5",
"j(	c #9CA9B2",
"k(	c #77889C",
"l(	c #62728B",
"m(	c #566783",
"n(	c #55657E",
"o(	c #50697F",
"p(	c #5C7089",
"q(	c #8397A0",
"r(	c #8498A1",
"s(	c #8597A1",
"t(	c #A1ACAE",
"u(	c #98A6B3",
"v(	c #8F9CAC",
"w(	c #738392",
"x(	c #6D8295",
"y(	c #374D65",
"z(	c #314A68",
"A(	c #334E6C",
"B(	c #374D74",
"C(	c #364B68",
"D(	c #8698AC",
"E(	c #80919B",
"F(	c #7D9097",
"G(	c #8192A6",
"H(	c #3F4F69",
"I(	c #3A5371",
"J(	c #395270",
"K(	c #3B5472",
"L(	c #3A5274",
"M(	c #29406A",
"N(	c #223C5D",
"O(	c #233D5E",
"P(	c #284263",
"Q(	c #1C3659",
"R(	c #21395D",
"S(	c #223A5E",
"T(	c #606D80",
"U(	c #B2BDC3",
"V(	c #64768E",
"W(	c #546581",
"X(	c #4D657D",
"Y(	c #53627F",
"Z(	c #8495A5",
"`(	c #6F7F96",
" _	c #8397A2",
"._	c #8497A5",
"+_	c #A0ABAF",
"@_	c #98A9B3",
"#_	c #77839B",
"$_	c #748096",
"%_	c #78849C",
"&_	c #75839D",
"*_	c #72819E",
"=_	c #3B4E6F",
"-_	c #364D76",
";_	c #30486C",
">_	c #889BAC",
",_	c #8292A9",
"'_	c #43526F",
")_	c #3B576C",
"!_	c #3A566B",
"~_	c #39556A",
"{_	c #3A566C",
"]_	c #39556D",
"^_	c #25405D",
"/_	c #25405E",
"(_	c #2B4568",
"__	c #264063",
":_	c #223A60",
"<_	c #1D355B",
"[_	c #5E728D",
"}_	c #5E728B",
"|_	c #62728C",
"1_	c #5F6B81",
"2_	c #AFBBC9",
"3_	c #9FAAB0",
"4_	c #536B83",
"5_	c #596885",
"6_	c #5E7388",
"7_	c #607087",
"8_	c #A4AEB7",
"9_	c #A2ADB3",
"0_	c #83919A",
"a_	c #78879A",
"b_	c #7989A0",
"c_	c #344861",
"d_	c #314665",
"e_	c #304769",
"f_	c #364C64",
"g_	c #778A91",
"h_	c #7A8D94",
"i_	c #7C8F96",
"j_	c #7B8E95",
"k_	c #8696A6",
"l_	c #8494AB",
"m_	c #404F6C",
"n_	c #385072",
"o_	c #3A5276",
"p_	c #3A5278",
"q_	c #263D69",
"r_	c #273E6A",
"s_	c #233863",
"t_	c #283D68",
"u_	c #203560",
"v_	c #253C68",
"w_	c #1D3362",
"x_	c #223867",
"y_	c #636F85",
"z_	c #AEBAC8",
"A_	c #708097",
"B_	c #708392",
"C_	c #4F677F",
"D_	c #556481",
"E_	c #788595",
"F_	c #738091",
"G_	c #727F90",
"H_	c #738090",
"I_	c #859499",
"J_	c #84939A",
"K_	c #87949C",
"L_	c #89969E",
"M_	c #8A979F",
"N_	c #A0ABB1",
"O_	c #A2ADB1",
"P_	c #A3AEB0",
"Q_	c #88979E",
"R_	c #85939C",
"S_	c #8698A6",
"T_	c #99A7B4",
"U_	c #96A3B3",
"V_	c #91A2B4",
"W_	c #708596",
"X_	c #394F66",
"Y_	c #354D67",
"Z_	c #344E69",
"`_	c #2F455D",
" :	c #909CA8",
".:	c #44566E",
"+:	c #3F5175",
"@:	c #405276",
"#:	c #3D5071",
"$:	c #3B4D71",
"%:	c #3D4F73",
"&:	c #2D3F65",
"*:	c #2D3F67",
"=:	c #2B3C67",
"-:	c #2A3D5E",
";:	c #2B3E5F",
">:	c #34486B",
",:	c #1C3053",
"':	c #20365B",
"):	c #233B5F",
"!:	c #21395F",
"~:	c #213B60",
"{:	c #5D6E80",
"]:	c #9DAEB8",
"^:	c #738297",
"/:	c #72829B",
"(:	c #65778F",
"_:	c #576780",
"::	c #526A82",
"<:	c #A3B1BE",
"[:	c #AAB8C5",
"}:	c #A7B5C0",
"|:	c #AAB8C1",
"1:	c #BDCBCB",
"2:	c #BCCACB",
"3:	c #BDCBCC",
"4:	c #BDC8CC",
"5:	c #C8D3D5",
"6:	c #C5D1D1",
"7:	c #C4D0D0",
"8:	c #C3CFCF",
"9:	c #C1CDCD",
"0:	c #BBC9C9",
"a:	c #B8C6C6",
"b:	c #B6C4C5",
"c:	c #A6B4B5",
"d:	c #A0B1C1",
"e:	c #748192",
"f:	c #727F92",
"g:	c #44546D",
"h:	c #3C5073",
"i:	c #2B426C",
"j:	c #2D4573",
"k:	c #2B3F5A",
"l:	c #98A9B9",
"m:	c #919DA9",
"n:	c #94A0AE",
"o:	c #94A1B2",
"p:	c #58697B",
"q:	c #52627B",
"r:	c #607382",
"s:	c #748491",
"t:	c #71828C",
"u:	c #6E808A",
"v:	c #8EA0B4",
"w:	c #92A3AA",
"x:	c #93A4AB",
"y:	c #92A4A8",
"z:	c #91A3A7",
"A:	c #99AABA",
"B:	c #93A6B7",
"C:	c #90A5B6",
"D:	c #566D7F",
"E:	c #516B7C",
"F:	c #4D687B",
"G:	c #516C7F",
"H:	c #4D697E",
"I:	c #8EA0AC",
"J:	c #8FA1AF",
"K:	c #9AA8A8",
"L:	c #8C9BA2",
"M:	c #8A9BA3",
"N:	c #8B9CA4",
"O:	c #5E6E87",
"P:	c #506880",
"Q:	c #576C89",
"R:	c #5D6E8A",
"S:	c #617483",
"T:	c #A6B7C1",
"U:	c #C0CBCD",
"V:	c #C4CFD1",
"W:	c #C5D0D2",
"X:	c #C3CED0",
"Y:	c #BBC6C8",
"Z:	c #BCC8C6",
"`:	c #BDC9C7",
" <	c #BAC4C5",
".<	c #738390",
"+<	c #7688A0",
"@<	c #394E6B",
"#<	c #3C5277",
"$<	c #2C4365",
"%<	c #2B4166",
"&<	c #2D436A",
"*<	c #2F496E",
"=<	c #253B53",
"-<	c #9CAEB8",
";<	c #949DAE",
"><	c #959DB2",
",<	c #616F89",
"'<	c #6F7D8A",
")<	c #97A7B4",
"!<	c #98ABBA",
"~<	c #4F657A",
"{<	c #4D667C",
"]<	c #546A7F",
"^<	c #8B9CA3",
"/<	c #5E6E88",
"(<	c #54657F",
"_<	c #526784",
":<	c #617485",
"<<	c #8597A3",
"[<	c #A7B8C2",
"}<	c #C0CCCC",
"|<	c #6F8199",
"1<	c #3B506D",
"2<	c #374F6B",
"3<	c #2D4561",
"4<	c #2E4564",
"5<	c #304767",
"6<	c #2D446D",
"7<	c #364B66",
"8<	c #93A0A8",
"9<	c #99A2B1",
"0<	c #97A0B1",
"a<	c #90A2A6",
"b<	c #556879",
"c<	c #5D6B85",
"d<	c #94A7B6",
"e<	c #586F81",
"f<	c #556E84",
"g<	c #4C6277",
"h<	c #8C9DA4",
"i<	c #5F7283",
"j<	c #C2CECE",
"k<	c #BFCACC",
"l<	c #BAC5C7",
"m<	c #AAB6C2",
"n<	c #6E7E8D",
"o<	c #718093",
"p<	c #73839C",
"q<	c #3E516F",
"r<	c #2C4061",
"s<	c #354A67",
"t<	c #899BA7",
"u<	c #86979F",
"v<	c #5C6C85",
"w<	c #6D7F8D",
"x<	c #91A2B2",
"y<	c #4D6275",
"z<	c #4B6176",
"A<	c #566F85",
"B<	c #556B80",
"C<	c #576D82",
"D<	c #9AABB2",
"E<	c #556A85",
"F<	c #BBC7C7",
"G<	c #BCCBC8",
"H<	c #BAC6C6",
"I<	c #BEC8CA",
"J<	c #C1CCCE",
"K<	c #BCC7CB",
"L<	c #A6B4BF",
"M<	c #6F7F98",
"N<	c #3C5075",
"O<	c #3A4D75",
"P<	c #3E5179",
"Q<	c #31436B",
"R<	c #31426D",
"S<	c #2F406B",
"T<	c #2E446B",
"U<	c #283D58",
"V<	c #93A6B4",
"W<	c #90A1A8",
"X<	c #95A1AD",
"Y<	c #53657D",
"Z<	c #728291",
"`<	c #A0B2C0",
" [	c #536677",
".[	c #52687D",
"+[	c #9AABB3",
"@[	c #57667D",
"#[	c #5F7281",
"$[	c #617381",
"%[	c #84929B",
"&[	c #8D9AA2",
"*[	c #C1CBCC",
"=[	c #C0CACB",
"-[	c #C2CCCD",
";[	c #C3CDCE",
">[	c #C4CECF",
",[	c #C5CFD0",
"'[	c #BFC9CA",
")[	c #BECCCC",
"![	c #B8C4C4",
"~[	c #BBC5C7",
"{[	c #748194",
"][	c #6E7E95",
"^[	c #455971",
"/[	c #405371",
"([	c #3B4E6C",
"_[	c #384B6B",
":[	c #3A4A6B",
"<[	c #354566",
"[[	c #344563",
"}[	c #324160",
"|[	c #2C3F5F",
"1[	c #364860",
"2[	c #8596AA",
"3[	c #8495A9",
"4[	c #8090A7",
"5[	c #7C8CA3",
"6[	c #7F8FA6",
"7[	c #7D8DA4",
"8[	c #748796",
"9[	c #8A9CAA",
"0[	c #91A3B1",
"a[	c #90A2AE",
"b[	c #9CAAB7",
"c[	c #93A0B0",
"d[	c #93A3B3",
"e[	c #8B99A2",
"f[	c #6F859C",
"g[	c #75869A",
"h[	c #76889E",
"i[	c #788A9E",
"j[	c #8699A8",
"k[	c #8A9BAB",
"l[	c #9CADB7",
"m[	c #BAC9D0",
"n[	c #B9C6CE",
"o[	c #BFCDD0",
"p[	c #BECCCF",
"q[	c #BFCCD2",
"r[	c #C7D1D0",
"s[	c #C5CFCE",
"t[	c #C6D0CF",
"u[	c #C4CECD",
"v[	c #C3CDCC",
"w[	c #B4C0C0",
"x[	c #728490",
"y[	c #72849A",
"z[	c #7C909B",
"A[	c #A7B8C0",
"B[	c #ADBCCF",
"C[	c #9EAEBE",
"D[	c #6B7D8B",
"E[	c #758592",
"F[	c #4A5C72",
"G[	c #485A70",
"H[	c #47596F",
"I[	c #465773",
"J[	c #485975",
"K[	c #425371",
"L[	c #465775",
"M[	c #455674",
"N[	c #546778",
"O[	c #596A7C",
"P[	c #6A7A8A",
"Q[	c #7C8D97",
"R[	c #61738B",
"S[	c #71869B",
"T[	c #B7C5C8",
"U[	c #BFCDCE",
"V[	c #C0CECF",
"W[	c #C8D2D1",
"X[	c #C9D3D2",
"Y[	c #C2CCCB",
"Z[	c #B2BEBE",
"`[	c #B1BBBD",
" }	c #A3B5B9",
".}	c #70828C",
"+}	c #8396A7",
"@}	c #82909B",
"#}	c #AEBCC5",
"$}	c #455A75",
"%}	c #435877",
"&}	c #425671",
"*}	c #7787A0",
"=}	c #52687F",
"-}	c #73889B",
";}	c #8B9A9F",
">}	c #9FADAE",
",}	c #A2B0B1",
"'}	c #A0ABAD",
")}	c #BCC6C5",
"!}	c #BFCBC9",
"~}	c #C2CECC",
"{}	c #B4BEC0",
"]}	c #A7B9BD",
"^}	c #6F8290",
"/}	c #768491",
"(}	c #7F8EA3",
"_}	c #818DA3",
":}	c #7E8AA0",
"<}	c #828DA1",
"[}	c #828D9F",
"}}	c #ADB6C5",
"|}	c #AAB3BA",
"1}	c #AFBAB6",
"2}	c #6C7F8E",
"3}	c #4D607E",
"4}	c #4D6080",
"5}	c #4C6081",
"6}	c #72849C",
"7}	c #506882",
"8}	c #6A7C94",
"9}	c #697B93",
"0}	c #889BA2",
"a}	c #87989F",
"b}	c #9BADB1",
"c}	c #B8C2C4",
"d}	c #B9C3C5",
"e}	c #B5C3C3",
"f}	c #C0CECE",
"g}	c #C4D0CE",
"h}	c #CBD5D6",
"i}	c #C2D0D0",
"j}	c #B5BFC0",
"k}	c #A6B7BF",
"l}	c #73848E",
"m}	c #ABB3B5",
"n}	c #718190",
"o}	c #455D77",
"p}	c #4E6076",
"q}	c #738599",
"r}	c #536579",
"s}	c #7E9198",
"t}	c #7F919B",
"u}	c #8698A2",
"v}	c #83959F",
"w}	c #82949E",
"x}	c #748A98",
"y}	c #899AA1",
"z}	c #B4C2C2",
"A}	c #B2C0C0",
"B}	c #C6D2D0",
"C}	c #CAD4D3",
"D}	c #C6D0D1",
"E}	c #C6D2D2",
"F}	c #C7D3D3",
"G}	c #798A94",
"H}	c #7A8C9A",
"I}	c #808E9B",
"J}	c #AEB6B8",
"K}	c #4F6481",
"L}	c #4E617F",
"M}	c #6B7C96",
"N}	c #70809A",
"O}	c #72829C",
"P}	c #6F809A",
"Q}	c #6C809B",
"R}	c #687993",
"S}	c #6A7B95",
"T}	c #697A94",
"U}	c #8191A8",
"V}	c #8899AD",
"W}	c #8596A8",
"X}	c #8B9AAD",
"Y}	c #788E9B",
"Z}	c #AAB9BE",
"`}	c #AAB9C0",
" |	c #B9C7C8",
".|	c #B8C6C7",
"+|	c #C1CBCA",
"@|	c #AFBDBE",
"#|	c #96A4B1",
"$|	c #97A5B2",
"%|	c #9AA7B7",
"&|	c #96A6B5",
"*|	c #5C7184",
"=|	c #5E6F81",
"-|	c #4F657D",
";|	c #374C6B",
">|	c #364A6B",
",|	c #324669",
"'|	c #314568",
")|	c #4B607F",
"!|	c #354869",
"~|	c #324468",
"{|	c #36486C",
"]|	c #394D72",
"^|	c #32466B",
"/|	c #33476A",
"(|	c #35496C",
"_|	c #344869",
":|	c #3C4F70",
"<|	c #3A4D6D",
"[|	c #394C6A",
"}|	c #364967",
"||	c #374A68",
"1|	c #58687F",
"2|	c #8F9BA9",
"3|	c #798F9A",
"4|	c #7D8B98",
"5|	c #B5C3C6",
"6|	c #A8B7BA",
"7|	c #B7C5C6",
"8|	c #C1CDCB",
"9|	c #B0BEBF",
"0|	c #9DAAB3",
"a|	c #96A2AE",
"b|	c #97A4B4",
"c|	c #ACB8C4",
"d|	c #5A6F80",
"e|	c #526381",
"f|	c #4E6181",
"g|	c #2F4366",
"h|	c #31476C",
"i|	c #30466B",
"j|	c #2F456A",
"k|	c #2E4766",
"l|	c #354E6D",
"m|	c #385170",
"n|	c #425978",
"o|	c #4C5F7F",
"p|	c #4D6281",
"q|	c #475B7C",
"r|	c #2F4368",
"s|	c #2D4068",
"t|	c #2F456E",
"u|	c #324871",
"v|	c #354B72",
"w|	c #31476E",
"x|	c #32486D",
"y|	c #35496E",
"z|	c #364A6F",
"A|	c #374D72",
"B|	c #32496B",
"C|	c #596A86",
"D|	c #AEBCBD",
"E|	c #C5CFD1",
"F|	c #B1C1C1",
"G|	c #AFBFBF",
"H|	c #B0C0C0",
"I|	c #A0ACB8",
"J|	c #96A2B0",
"K|	c #AFB8C1",
"L|	c #A6B6C3",
"M|	c #5B7083",
"N|	c #5A7087",
"O|	c #50617B",
"P|	c #536482",
"Q|	c #516485",
"R|	c #30466D",
"S|	c #2E4469",
"T|	c #2C4466",
"U|	c #334C6B",
"V|	c #425979",
"W|	c #33496E",
"X|	c #354B74",
"Y|	c #2F476D",
"Z|	c #334B71",
"`|	c #324A70",
" 1	c #394F74",
".1	c #334B6F",
"+1	c #899AAA",
"@1	c #788E99",
"#1	c #ADBCC3",
"$1	c #ABBBBB",
"%1	c #BAC8C9",
"&1	c #C0CACC",
"*1	c #C3CDCF",
"=1	c #B1BFBF",
"-1	c #7B8898",
";1	c #576D84",
">1	c #526586",
",1	c #445B7B",
"'1	c #2F4364",
")1	c #2D4569",
"!1	c #2C4468",
"~1	c #324A6E",
"{1	c #31486A",
"]1	c #324B6A",
"^1	c #2F4867",
"/1	c #61768B",
"(1	c #7E8C97",
"_1	c #B2C0C3",
":1	c #B9C7CA",
"<1	c #B8C6C9",
"[1	c #BBC6CA",
"}1	c #C2CCCE",
"|1	c #9CAAB5",
"11	c #AEB7C0",
"21	c #B1BAC1",
"31	c #546583",
"41	c #51607D",
"51	c #566680",
"61	c #52627C",
"71	c #52637F",
"81	c #516484",
"91	c #2F456C",
"01	c #2E4567",
"a1	c #475C79",
"b1	c #314566",
"c1	c #2F476B",
"d1	c #324969",
"e1	c #344D6C",
"f1	c #657A8B",
"g1	c #697C8B",
"h1	c #8E9AA8",
"i1	c #798F9C",
"j1	c #AABBC2",
"k1	c #B4C2C3",
"l1	c #BAC8CB",
"m1	c #B1C0BD",
"n1	c #526182",
"o1	c #4F5E7D",
"p1	c #566582",
"q1	c #536686",
"r1	c #4D5E7C",
"s1	c #4F5F80",
"t1	c #30486E",
"u1	c #334970",
"v1	c #3A4E73",
"w1	c #384B6C",
"x1	c #546883",
"y1	c #556886",
"z1	c #627788",
"A1	c #687B89",
"B1	c #8D99A7",
"C1	c #85929B",
"D1	c #82939B",
"E1	c #B9C4CA",
"F1	c #A4B2B3",
"G1	c #8E9FA6",
"H1	c #91A4B2",
"I1	c #32485D",
"J1	c #334C6A",
"K1	c #344968",
"L1	c #3D5674",
"M1	c #4F6678",
"N1	c #506582",
"O1	c #344771",
"P1	c #32456F",
"Q1	c #32456D",
"R1	c #33466E",
"S1	c #293F64",
"T1	c #2C4269",
"U1	c #2B4168",
"V1	c #2C436C",
"W1	c #2A4067",
"X1	c #687690",
"Y1	c #415472",
"Z1	c #405776",
"`1	c #3E5672",
" 2	c #273D64",
".2	c #284064",
"+2	c #233A63",
"@2	c #1E355F",
"#2	c #213661",
"$2	c #253C65",
"%2	c #243B64",
"&2	c #294069",
"*2	c #283F69",
"=2	c #2A3E63",
"-2	c #44587B",
";2	c #788A94",
">2	c #657991",
",2	c #95A4A9",
"'2	c #91A2A9",
")2	c #31475E",
"!2	c #354E6C",
"~2	c #344C70",
"{2	c #3E5775",
"]2	c #405373",
"^2	c #354870",
"/2	c #3A4E71",
"(2	c #65738D",
"_2	c #425573",
":2	c #778993",
"<2	c #5F738B",
"[2	c #8194A5",
"}2	c #86939C",
"|2	c #81929A",
"12	c #ACB7BB",
"22	c #32485F",
"32	c #33456B",
"42	c #364870",
"52	c #34466E",
"62	c #34466C",
"72	c #4D5E7A",
"82	c #2E4169",
"92	c #203761",
"02	c #223762",
"a2	c #87939F",
"b2	c #8FA0A8",
"c2	c #94A5B7",
"d2	c #384C65",
"e2	c #4A5F74",
"f2	c #61728E",
"g2	c #526583",
"h2	c #374A6B",
"i2	c #314367",
"j2	c #32446A",
"k2	c #334569",
"l2	c #2F426A",
"m2	c #31456A",
"n2	c #3B4F74",
"o2	c #4E5F7D",
"p2	c #667690",
"q2	c #67778E",
"r2	c #455876",
"s2	c #223764",
"t2	c #213862",
"u2	c #2A3E61",
"v2	c #435971",
"w2	c #84909C",
"x2	c #90A0AD",
"y2	c #8697A9",
"z2	c #3A4E67",
"A2	c #4F607C",
"B2	c #5D708E",
"C2	c #5B6E8C",
"D2	c #5A6E89",
"E2	c #5B6F8A",
"F2	c #5E718F",
"G2	c #435677",
"H2	c #405477",
"I2	c #4A5E7F",
"J2	c #45597A",
"K2	c #33476C",
"L2	c #293C66",
"M2	c #293C64",
"N2	c #2C3F67",
"O2	c #2B3F64",
"P2	c #304469",
"Q2	c #304467",
"R2	c #63738D",
"S2	c #2D4166",
"T2	c #1C315C",
"U2	c #233962",
"V2	c #2A4065",
"W2	c #2C4063",
"X2	c #445879",
"Y2	c #8292A2",
"Z2	c #7A8D9E",
"`2	c #7B8E9F",
" 3	c #7E91A2",
".3	c #808FA2",
"+3	c #818D99",
"@3	c #7B8996",
"#3	c #8C98A4",
"$3	c #8A97A0",
"%3	c #808E97",
"&3	c #4E6682",
"*3	c #516887",
"=3	c #536B87",
"-3	c #304562",
";3	c #2E4362",
">3	c #324667",
",3	c #2F4165",
"'3	c #304465",
")3	c #263D5D",
"!3	c #394C74",
"~3	c #374A72",
"{3	c #475A7B",
"]3	c #46597A",
"^3	c #4C5D7B",
"/3	c #5F6F89",
"(3	c #3F5376",
"_3	c #394F76",
":3	c #1C335D",
"<3	c #1B325C",
"[3	c #1E335E",
"}3	c #223861",
"|3	c #263963",
"13	c #243761",
"23	c #364971",
"33	c #34486D",
"43	c #2C4267",
"53	c #3F5676",
"63	c #425870",
"73	c #7888A1",
"83	c #41556D",
"93	c #42566F",
"03	c #3C5269",
"a3	c #40546C",
"b3	c #475971",
"c3	c #485871",
"d3	c #7F8B99",
"e3	c #516985",
"f3	c #617691",
"g3	c #2E4263",
"h3	c #2D4567",
"i3	c #2F4668",
"j3	c #22385D",
"k3	c #213861",
"l3	c #5D6C89",
"m3	c #1B315A",
"n3	c #1A315B",
"o3	c #1D325D",
"p3	c #213760",
"q3	c #243762",
"r3	c #233660",
"s3	c #253862",
"t3	c #485977",
"u3	c #495A78",
"v3	c #7A8CA0",
"w3	c #77869D",
"x3	c #4A627C",
"y3	c #2B446C",
"z3	c #2A4467",
"A3	c #30436B",
"B3	c #31446C",
"C3	c #2E446D",
"D3	c #314770",
"E3	c #203962",
"F3	c #263F67",
"G3	c #274068",
"H3	c #284169",
"I3	c #35496A",
"J3	c #5D6D8E",
"K3	c #4D6277",
"L3	c #1D335A",
"M3	c #40566E",
"N3	c #5E7390",
"O3	c #3D5476",
"P3	c #3D5579",
"Q3	c #3C547A",
"R3	c #37506F",
"S3	c #7D92A7",
"T3	c #818A9B",
"U3	c #768693",
"V3	c #758690",
"W3	c #8B9AA1",
"X3	c #909DA6",
"Y3	c #818EA1",
"Z3	c #5A6F8A",
"`3	c #2D4261",
" 4	c #2D4466",
".4	c #32486F",
"+4	c #5D718A",
"@4	c #5B6A87",
"#4	c #4F657C",
"$4	c #1A335C",
"%4	c #22385F",
"&4	c #384B73",
"*4	c #3F536C",
"=4	c #76889C",
"-4	c #6A7A91",
";4	c #3C5279",
">4	c #7C90A8",
",4	c #838EA0",
"'4	c #516681",
")4	c #50667D",
"!4	c #30466F",
"~4	c #5A6B87",
"{4	c #1E345D",
"]4	c #20365D",
"^4	c #768C9A",
"/4	c #5C708B",
"(4	c #3B5176",
"_4	c #6F849F",
":4	c #7D8CA3",
"<4	c #788AA0",
"[4	c #77899F",
"}4	c #75879D",
"|4	c #8B9CB0",
"14	c #8A9BAD",
"24	c #516683",
"34	c #506383",
"44	c #536885",
"54	c #566B88",
"64	c #576C8B",
"74	c #546988",
"84	c #586B8B",
"94	c #536788",
"04	c #314671",
"a4	c #294167",
"b4	c #294165",
"c4	c #475A7A",
"d4	c #4E647B",
"e4	c #1D345E",
"f4	c #3E526B",
"g4	c #475876",
"h4	c #41506D",
"i4	c #3C506B",
"j4	c #40546D",
"k4	c #4B5F77",
"l4	c #6A7A89",
"m4	c #2F4666",
"n4	c #1F355A",
"o4	c #1B3158",
"p4	c #1F355E",
"q4	c #192E59",
"r4	c #1B305B",
"s4	c #1C325B",
"t4	c #445873",
"u4	c #4E6479",
"v4	c #20365F",
"w4	c #1C3259",
"x4	c #374B66",
"y4	c #3A4A6C",
"z4	c #3D4D6E",
"A4	c #40546F",
"B4	c #203760",
"C4	c #1C335C",
"D4	c #172E57",
"E4	c #193059",
"F4	c #1E3360",
"G4	c #1A2F5A",
"H4	c #263B66",
"I4	c #1F365F",
"J4	c #1E355E",
"K4	c #283B63",
"L4	c #2D456B",
"M4	c #354866",
"N4	c #70829A",
"O4	c #536883",
"P4	c #556A87",
"Q4	c #3F4F71",
"R4	c #4C6382",
"S4	c #6D8297",
"T4	c #3D516C",
"U4	c #1D345D",
"V4	c #1D3460",
"W4	c #1C335F",
"X4	c #182F59",
"Y4	c #1F345F",
"Z4	c #243964",
"`4	c #34476F",
" 5	c #364969",
".5	c #71839B",
"+5	c #7A8AA1",
"@5	c #455974",
"#5	c #415173",
"$5	c #4E5F7B",
"%5	c #4B637F",
"&5	c #1F3861",
"*5	c #1C355E",
"=5	c #445777",
"-5	c #506381",
";5	c #485A7E",
">5	c #1B325B",
",5	c #283F68",
"'5	c #354868",
")5	c #7E8EA5",
"!5	c #3A4D6E",
"~5	c #3D4D6F",
"{5	c #3B5169",
"]5	c #1B345D",
"^5	c #18315A",
"/5	c #182D58",
"(5	c #46587C",
"_5	c #1E3760",
":5	c #2B426B",
"<5	c #334670",
"[5	c #344767",
"}5	c #54647D",
"|5	c #4F6175",
"15	c #697E91",
"25	c #42576C",
"35	c #3B546A",
"45	c #3C566D",
"55	c #2C4564",
"65	c #31496F",
"75	c #344768",
"85	c #314464",
"95	c #162C55",
"05	c #203562",
"a5	c #19305A",
"b5	c #233A5C",
"c5	c #2C4363",
"d5	c #283F5F",
"e5	c #2A4160",
"f5	c #425576",
"g5	c #3D5176",
"h5	c #4D6483",
"i5	c #4A6180",
"j5	c #475E7E",
"k5	c #435A7A",
"l5	c #6B7F9A",
"m5	c #76869D",
"n5	c #546785",
"o5	c #516586",
"p5	c #506584",
"q5	c #2D4665",
"r5	c #2B4262",
"s5	c #657690",
"t5	c #8FA0B2",
"u5	c #90A0AF",
"v5	c #8799AD",
"w5	c #869BAC",
"x5	c #7F94A9",
"y5	c #4F6282",
"z5	c #4B5F80",
"A5	c #1D335C",
"B5	c #1F3461",
"C5	c #435A7C",
"D5	c #475E7D",
"E5	c #445B7A",
"F5	c #465D7C",
"G5	c #324766",
"H5	c #263A5D",
"I5	c #41526C",
"J5	c #44556F",
"K5	c #4A5C74",
"L5	c #43556D",
"M5	c #40526A",
"N5	c #42536F",
"O5	c #374C69",
"P5	c #264061",
"Q5	c #274164",
"R5	c #28415F",
"S5	c #637B93",
"T5	c #647B8D",
"U5	c #93A1AE",
"V5	c #4E5E77",
"W5	c #50617F",
"X5	c #4D6182",
"Y5	c #465B76",
"Z5	c #2E4668",
"`5	c #223963",
" 6	c #415377",
".6	c #465677",
"+6	c #455576",
"@6	c #264365",
"#6	c #264269",
"$6	c #243D5C",
"%6	c #617993",
"&6	c #60768B",
"*6	c #617284",
"=6	c #939FAD",
"-6	c #4E5E75",
";6	c #50617D",
">6	c #1B325E",
",6	c #2A416A",
"'6	c #374A74",
")6	c #344C72",
"!6	c #374E77",
"~6	c #304770",
"{6	c #374D76",
"]6	c #475779",
"^6	c #203A5D",
"/6	c #2A3D65",
"(6	c #264065",
"_6	c #293E5D",
":6	c #637893",
"<6	c #95A2B2",
"[6	c #1A315A",
"}6	c #3A4D6B",
"|6	c #2C466B",
"16	c #29426A",
"26	c #2E456E",
"36	c #2E3E5F",
"46	c #2E3F5D",
"56	c #344561",
"66	c #607384",
"76	c #8396A4",
"86	c #1C3257",
"96	c #2E4267",
"06	c #2E466C",
"a6	c #304564",
"b6	c #2A3F5E",
"c6	c #384E66",
"d6	c #1F375D",
"e6	c #2A3E5F",
"f6	c #2F4665",
"g6	c #8EA2BA",
"h6	c #A2AFC0",
"i6	c #98AAB8",
"j6	c #9CABBE",
"k6	c #A6B4C1",
"l6	c #9EABBB",
"m6	c #6D808E",
"n6	c #6C7F8D",
"o6	c #6B7E8C",
"p6	c #677A88",
"q6	c #A4B2BB",
"r6	c #A1B3BF",
"s6	c #546986",
"t6	c #21375C",
"u6	c #425478",
"v6	c #3F5273",
"w6	c #415172",
"x6	c #5F7290",
"y6	c #617590",
"z6	c #627691",
"A6	c #8496AE",
"B6	c #8193A9",
"C6	c #24385D",
"D6	c #304766",
"E6	c #495F77",
"F6	c #45597C",
"G6	c #4B607D",
"H6	c #9DB0BF",
"I6	c #AAB5B7",
"J6	c #A3B1B2",
"K6	c #6C7E88",
"L6	c #8390A1",
"M6	c #657B89",
"N6	c #6A808E",
"O6	c #677D8B",
"P6	c #6C7D85",
"Q6	c #314369",
"R6	c #435579",
"S6	c #435375",
"T6	c #435374",
"U6	c #344765",
"V6	c #64758F",
"W6	c #62768F",
"X6	c #4D5D74",
"Y6	c #50627A",
"Z6	c #4D637A",
"`6	c #4C6279",
" 7	c #9EA9BB",
".7	c #A4AAB6",
"+7	c #A4AEB8",
"@7	c #A8B1BA",
"#7	c #A5AEB7",
"$7	c #A9B7C4",
"%7	c #687E8B",
"&7	c #677F8B",
"*7	c #69818D",
"=7	c #6A7C88",
"-7	c #A5AEB5",
";7	c #57697D",
">7	c #21385A",
",7	c #1E385D",
"'7	c #3C4E72",
")7	c #3A4C70",
"!7	c #617290",
"~7	c #60718D",
"{7	c #63738C",
"]7	c #8B95A1",
"^7	c #324A66",
"/7	c #253860",
"(7	c #22355D",
"_7	c #24365C",
":7	c #34466A",
"<7	c #304864",
"[7	c #536B85",
"}7	c #9DA8BA",
"|7	c #A3ABB6",
"17	c #697F8C",
"27	c #68808C",
"37	c #687A86",
"47	c #A1B2BC",
"57	c #A2B2BF",
"67	c #203961",
"77	c #637492",
"87	c #8497A8",
"97	c #4D657F",
"07	c #49617D",
"a7	c #253A65",
"b7	c #2E4869",
"c7	c #9FAABC",
"d7	c #A5ADB8",
"e7	c #A1ACB0",
"f7	c #A4AFB5",
"g7	c #6A7D8C",
"h7	c #697C8A",
"i7	c #6B818E",
"j7	c #697B87",
"k7	c #ABBCC6",
"l7	c #556B82",
"m7	c #30486A",
"n7	c #647591",
"o7	c #8398AB",
"p7	c #475F77",
"q7	c #4C647E",
"r7	c #324D6B",
"s7	c #253A67",
"t7	c #1E345B",
"u7	c #1D365F",
"v7	c #334D6E",
"w7	c #4F6483",
"x7	c #4B637D",
"y7	c #486078",
"z7	c #465E76",
"A7	c #9BA6B8",
"B7	c #A1A9B6",
"C7	c #A5B7C3",
"D7	c #A7B3BF",
"E7	c #A0B0BD",
"F7	c #8190A3",
"G7	c #657B88",
"H7	c #9EB0BA",
"I7	c #A8B9C1",
"J7	c #9EB0BC",
"K7	c #586B7C",
"L7	c #283C5F",
"M7	c #263D5F",
"N7	c #273E60",
"O7	c #3E5074",
"P7	c #3F5678",
"Q7	c #314465",
"R7	c #627289",
"S7	c #4D6378",
"T7	c #1D3456",
"U7	c #354A65",
"V7	c #344966",
"W7	c #4E6577",
"X7	c #4B6274",
"Y7	c #929DAF",
"Z7	c #949CA9",
"`7	c #5F6C7D",
" 8	c #53657B",
".8	c #80949F",
"+8	c #71838F",
"@8	c #71838D",
"#8	c #6D8087",
"$8	c #687A84",
"%8	c #708391",
"&8	c #657A8F",
"*8	c #74859F",
"=8	c #74849B",
"-8	c #8A9BAF",
";8	c #7B8DA5",
">8	c #6F8197",
",8	c #9097A7",
"'8	c #8A9CA6",
")8	c #8D9AAB",
"!8	c #617087",
"~8	c #657984",
"{8	c #6B7F88",
"]8	c #6A7E87",
"^8	c #647785",
"/8	c #657886",
"(8	c #294366",
"_8	c #919BA5",
":8	c #97A1AA",
"<8	c #97A1AD",
"[8	c #9AA7B8",
"}8	c #41536B",
"|8	c #818E9F",
"18	c #627584",
"28	c #5B7081",
"38	c #5E7384",
"48	c #8F9AAE",
"58	c #919AA9",
"68	c #6A808B",
"78	c #677E86",
"88	c #6E848F",
"98	c #657887",
"08	c #284265",
"a8	c #91A0B3",
"b8	c #273E68",
"c8	c #3D5169",
"d8	c #8693A4",
"e8	c #5E7489",
"f8	c #5D738A",
"g8	c #6C848E",
"h8	c #647C86",
"i8	c #4B5B7D",
"j8	c #4C5C7D",
"k8	c #8E9AAA",
"l8	c #8EA2AD",
"m8	c #263D67",
"n8	c #385275",
"o8	c #9099A8",
"p8	c #8B9CAC",
"q8	c #61718A",
"r8	c #536684",
"s8	c #6A7A93",
"t8	c #728198",
"u8	c #6E7D92",
"v8	c #8295A4",
"w8	c #8295A3",
"x8	c #7D93A1",
"y8	c #6B818F",
"z8	c #6A808D",
"A8	c #6A7F90",
"B8	c #495D7E",
"C8	c #2B406B",
"D8	c #274069",
"E8	c #2A436B",
"F8	c #324972",
"G8	c #2F4670",
"H8	c #273C67",
"I8	c #2C416C",
"J8	c #243E63",
"K8	c #2E3F6B",
"L8	c #3D4C75",
"M8	c #7787A1",
"N8	c #7B8396",
"O8	c #93A2B5",
"P8	c #334E6B",
"Q8	c #223C5F",
"R8	c #1F395E",
"S8	c #203A5F",
"T8	c #233F64",
"U8	c #243C5E",
"V8	c #8294AA",
"W8	c #5E6F7F",
"X8	c #687D92",
"Y8	c #8C98AE",
"Z8	c #929EAE",
"`8	c #516280",
" 9	c #6E7C89",
".9	c #6B7D89",
"+9	c #80939A",
"@9	c #6C7F86",
"#9	c #6F818B",
"$9	c #6D7F8B",
"%9	c #627482",
"&9	c #637684",
"*9	c #647786",
"=9	c #3F506C",
"-9	c #3D516A",
";9	c #3F536B",
">9	c #3E526A",
",9	c #293D5E",
"'9	c #294261",
")9	c #2E4565",
"!9	c #324A6C",
"~9	c #2A4264",
"{9	c #2B4365",
"]9	c #293E69",
"^9	c #3F506E",
"/9	c #42526C",
"(9	c #394A64",
"_9	c #3B4F6A",
":9	c #75818D",
"<9	c #4F6179",
"[9	c #334867",
"}9	c #233A64",
"|9	c #253C66",
"19	c #2D3F63",
"29	c #3B4B6D",
"39	c #3F4F70",
"49	c #7E90A4",
"59	c #697D95",
"69	c #677B93",
"79	c #718097",
"89	c #727D91",
"99	c #758B99",
"09	c #AEBFC7",
"a9	c #B2C1C8",
"b9	c #B2C1C6",
"c9	c #B7C6CB",
"d9	c #B9C8CB",
"e9	c #B7C6C9",
"f9	c #B6C5C8",
"g9	c #B6C6C6",
"h9	c #B5C4C7",
"i9	c #9AADB4",
"j9	c #98ABB2",
"k9	c #A8B8C5",
"l9	c #91A3AF",
"m9	c #92A3B5",
"n9	c #6F839B",
"o9	c #6A7E97",
"p9	c #687C97",
"q9	c #445C78",
"r9	c #3F5177",
"s9	c #A4B5C9",
"t9	c #A8B4C0",
"u9	c #AEBBCB",
"v9	c #A7B7C6",
"w9	c #99A3AD",
"x9	c #93A5B3",
"y9	c #92A4B2",
"z9	c #5D6C83",
"A9	c #5C6B82",
"B9	c #6D8391",
"C9	c #778497",
"D9	c #778D9A",
"E9	c #748893",
"F9	c #B4C3C8",
"G9	c #B7C1C2",
"H9	c #9BA8AE",
"I9	c #2F4461",
"J9	c #455B72",
"K9	c #475F79",
"L9	c #26415F",
"M9	c #27405F",
"N9	c #AFBFCE",
"O9	c #AEB6B9",
"P9	c #A8B1B8",
"Q9	c #A0AAB4",
"R9	c #99A3AC",
"S9	c #949EA8",
"T9	c #4E6078",
"U9	c #2D4463",
"V9	c #2C4362",
"W9	c #99A6B7",
"X9	c #98A5B6",
"Y9	c #96A3B4",
"Z9	c #717E8F",
"`9	c #747F91",
" 0	c #4D5F75",
".0	c #3B4E6E",
"+0	c #6F8694",
"@0	c #B8C5CD",
"#0	c #A8B8B8",
"$0	c #707D8D",
"%0	c #6A7990",
"&0	c #314462",
"*0	c #2D4271",
"=0	c #254264",
"-0	c #A1B1C0",
";0	c #B2B7BA",
">0	c #AFB6BE",
",0	c #939DA9",
"'0	c #2F466F",
")0	c #364F6D",
"!0	c #38516F",
"~0	c #4D5F73",
"{0	c #5B6B84",
"]0	c #6E8595",
"^0	c #A7B1BB",
"/0	c #738093",
"(0	c #334664",
"_0	c #2B436F",
":0	c #2C436D",
"<0	c #39507A",
"[0	c #3C527B",
"}0	c #384E77",
"|0	c #334972",
"10	c #364A63",
"20	c #A9B9C9",
"30	c #A8AFB7",
"40	c #ACB4BF",
"50	c #ADB9C7",
"60	c #566989",
"70	c #304570",
"80	c #2F446F",
"90	c #3A5079",
"00	c #93A5A9",
"a0	c #6B7D87",
"b0	c #6F818D",
"c0	c #6C7D97",
"d0	c #6D869A",
"e0	c #627387",
"f0	c #B9C2C7",
"g0	c #2A3D5B",
"h0	c #25395A",
"i0	c #324566",
"j0	c #AABACA",
"k0	c #AAB7C7",
"l0	c #97A9B5",
"m0	c #3E4F6B",
"n0	c #314260",
"o0	c #334462",
"p0	c #98A8B8",
"q0	c #949FB1",
"r0	c #93A0B3",
"s0	c #97A3BB",
"t0	c #72809A",
"u0	c #74849E",
"v0	c #7B8DA3",
"w0	c #758A9F",
"x0	c #495C7D",
"y0	c #536887",
"z0	c #526786",
"A0	c #5A6D8B",
"B0	c #586987",
"C0	c #344C66",
"D0	c #3D4E6C",
"E0	c #3C4E64",
"F0	c #546A82",
"G0	c #B4C3C0",
"H0	c #B2C1BE",
"I0	c #6F839C",
"J0	c #6B8199",
"K0	c #6A7E96",
"L0	c #435C72",
"M0	c #4E667E",
"N0	c #899EB3",
"O0	c #97ACBF",
"P0	c #97A9B7",
"Q0	c #66747F",
"R0	c #6B7B88",
"S0	c #627383",
"T0	c #919CA0",
"U0	c #647585",
"V0	c #667685",
"W0	c #647A91",
"X0	c #6E8396",
"Y0	c #90A0B7",
"Z0	c #95A3BD",
"`0	c #495B73",
" a	c #495B71",
".a	c #35476D",
"+a	c #293D60",
"@a	c #2B3F62",
"#a	c #758896",
"$a	c #B9C3C4",
"%a	c #B7C1C3",
"&a	c #C2CDCF",
"*a	c #496179",
"=a	c #4A6379",
"-a	c #4A627A",
";a	c #99A5B1",
">a	c #60758A",
",a	c #95A5B5",
"'a	c #929EAC",
")a	c #A5B1BD",
"!a	c #A6B0BA",
"~a	c #A5AFB9",
"{a	c #A4B1C1",
"]a	c #475D75",
"^a	c #455C7B",
"/a	c #C0CCCA",
"(a	c #BECAC8",
"_a	c #465F75",
":a	c #476076",
"<a	c #8493A8",
"[a	c #8392A7",
"}a	c #394B6F",
"|a	c #4B647A",
"1a	c #97A7B6",
"2a	c #96A6B6",
"3a	c #344E6F",
"4a	c #576886",
"5a	c #B9C5C5",
"6a	c #607080",
"7a	c #68778C",
"8a	c #495F76",
"9a	c #486177",
"0a	c #8EA0A4",
"aa	c #8FA1A5",
"ba	c #83949B",
"ca	c #809198",
"da	c #496080",
"ea	c #354F70",
"fa	c #526585",
"ga	c #C0CDD3",
"ha	c #8D9EAE",
"ia	c #78889F",
"ja	c #657489",
"ka	c #67768B",
"la	c #506077",
"ma	c #8C9DAD",
"na	c #8294A8",
"oa	c #6C8099",
"pa	c #253F62",
"qa	c #223C61",
"ra	c #23395E",
"sa	c #334865",
"ta	c #99A7AA",
"ua	c #9CABAE",
"va	c #9BA9AC",
"wa	c #6C7D87",
"xa	c #546579",
"ya	c #3C4E66",
"za	c #7C8BA0",
"Aa	c #41556E",
"Ba	c #A0ADBD",
"Ca	c #9DADBA",
"Da	c #42546C",
"Ea	c #3A4C62",
"Fa	c #3E4E6F",
"Ga	c #384C64",
"Ha	c #44566C",
"Ia	c #75879B",
"Ja	c #97A9B3",
"Ka	c #394E69",
"La	c #8090A9",
"Ma	c #7B8A9F",
"Na	c #7E8DA2",
"Oa	c #9EAEBB",
"Pa	c #394F67",
"Qa	c #384B69",
"Ra	c #667B8C",
"Sa	c #4F6685",
"Ta	c #243B5D",
"Ua	c #253E66",
"Va	c #253E67",
"Wa	c #9AACB6",
"Xa	c #9AACB8",
"Ya	c #7889A5",
"Za	c #7E8B9E",
"`a	c #77879E",
" b	c #6C829A",
".b	c #3E567A",
"+b	c #3D5378",
"@b	c #39536C",
"#b	c #354F68",
"$b	c #365069",
"%b	c #3A526C",
"&b	c #3C546E",
"*b	c #3A4F6A",
"=b	c #667D8F",
"-b	c #657C8E",
";b	c #4F6887",
">b	c #273A64",
",b	c #1D3B61",
"'b	c #233C65",
")b	c #4C6480",
"!b	c #9AAAAA",
"~b	c #9BABAB",
"{b	c #98A6A9",
"]b	c #3C4D69",
"^b	c #79889F",
"/b	c #7F8FA8",
"(b	c #5F6E8B",
"_b	c #41587A",
":b	c #3F5779",
"<b	c #3D5577",
"[b	c #A1AEBF",
"}b	c #A0ACBA",
"|b	c #A2ACB6",
"1b	c #6C7F9D",
"2b	c #314B6E",
"3b	c #374F73",
"4b	c #395175",
"5b	c #506485",
"6b	c #254168",
"7b	c #2E486B",
"8b	c #2B4664",
"9b	c #314A69",
"0b	c #385273",
"ab	c #283D6A",
"bb	c #2B3E68",
"cb	c #2B3E69",
"db	c #1D3960",
"eb	c #8699AA",
"fb	c #3E4F69",
"gb	c #627184",
"hb	c #58677A",
"ib	c #556479",
"jb	c #56677B",
"kb	c #465870",
"lb	c #455670",
"mb	c #A0AEBB",
"nb	c #A5B2C2",
"ob	c #384D6A",
"pb	c #374C67",
"qb	c #39536E",
"rb	c #3F5169",
"sb	c #798996",
"tb	c #1C3353",
"ub	c #334762",
"vb	c #3A5068",
"wb	c #304266",
"xb	c #30465E",
"yb	c #354A69",
"zb	c #22365B",
"Ab	c #1F3B60",
"Bb	c #20385E",
"Cb	c #607181",
"Db	c #8495A7",
"Eb	c #ABB9C4",
"Fb	c #B1BDC9",
"Gb	c #B4C1CA",
"Hb	c #A4B0BE",
"Ib	c #A2AEBC",
"Jb	c #A3B0C0",
"Kb	c #99A9B8",
"Lb	c #8092A8",
"Mb	c #798EA3",
"Nb	c #95A6B6",
"Ob	c #A6B3C3",
"Pb	c #9BACBC",
"Qb	c #9CAEBC",
"Rb	c #93A5AF",
"Sb	c #B1BFC8",
"Tb	c #8E9BAE",
"Ub	c #929EB4",
"Vb	c #95A5B2",
"Wb	c #92A5B4",
"Xb	c #8B9DB3",
"Yb	c #3F5771",
"Zb	c #87949D",
"`b	c #B7C1CA",
" c	c #5A6D7E",
".c	c #92A1A6",
"+c	c #596F87",
"@c	c #536277",
"#c	c #95A1B1",
"$c	c #9AA6B4",
"%c	c #9CA8B6",
"&c	c #97A8BA",
"*c	c #213B5E",
"=c	c #3C4E74",
"-c	c #45576D",
";c	c #A1B0B3",
">c	c #8C98A6",
",c	c #8B97A5",
"'c	c #8995A3",
")c	c #586E83",
"!c	c #5B7186",
"~c	c #A2ABB4",
"{c	c #A4ADB6",
"]c	c #A8B2BC",
"^c	c #9AAABA",
"/c	c #3F4E6B",
"(c	c #B8C1C8",
"_c	c #8F9BAB",
":c	c #808CA2",
"<c	c #7B879D",
"[c	c #7E8EA7",
"}c	c #4F5F76",
"|c	c #A5B1C1",
"1c	c #A7AFBA",
"2c	c #A3ADB7",
"3c	c #B4BEC8",
"4c	c #8D9EB0",
"5c	c #95A7A7",
"6c	c #94A6A6",
"7c	c #93A5A7",
"8c	c #94A6A8",
"9c	c #97A9AB",
"0c	c #98AAAC",
"ac	c #97A9AD",
"bc	c #95A7AB",
"cc	c #9AA9BC",
"dc	c #43577C",
"ec	c #8996A6",
"fc	c #8995A5",
"gc	c #7D8A9A",
"hc	c #B3BDC6",
"ic	c #B2BCC5",
"jc	c #8B97A3",
"kc	c #99ABB9",
"lc	c #A2AFBF",
"mc	c #A1ABB7",
"nc	c #92A4B0",
"oc	c #91A3AD",
"pc	c #B5BFC8",
"qc	c #5A6F82",
"rc	c #939FAF",
"sc	c #95A2B3",
"tc	c #97A4B5",
"uc	c #96A7B7",
"vc	c #203C61",
"wc	c #8A96A6",
"xc	c #7A899E",
"yc	c #84979E",
"zc	c #AFBDBD",
"Ac	c #B4BDC6",
"Bc	c #A8B0BB",
"Cc	c #A5AFB8",
"Dc	c #A0AEB7",
"Ec	c #9AAAB9",
"Fc	c #9FAFBC",
"Gc	c #9EAFB7",
"Hc	c #8FA1AB",
"Ic	c #8EA0AA",
"Jc	c #929FA5",
"Kc	c #94A4B1",
"Lc	c #566D7D",
"Mc	c #597080",
"Nc	c #596F84",
"Oc	c #54637A",
"Pc	c #929BAA",
"Qc	c #97A4AA",
"Rc	c #96A3A9",
"Sc	c #91A4B3",
"Tc	c #445C74",
"Uc	c #4B6075",
"Vc	c #A7B2B6",
"Wc	c #A0AAB3",
"Xc	c #A1ABB4",
"Yc	c #A1ABB5",
"Zc	c #B9C3CC",
"`c	c #B9C2C9",
" d	c #7D919C",
".d	c #9BADAF",
"+d	c #41557A",
"@d	c #354D73",
"#d	c #425A72",
"$d	c #5E7587",
"%d	c #8597AB",
"&d	c #8A99AC",
"*d	c #B7C0C7",
"=d	c #BCC3C9",
"-d	c #9DAFAF",
";d	c #415379",
">d	c #1E3662",
",d	c #889AAE",
"'d	c #9CAEAE",
")d	c #3E546B",
"!d	c #40537B",
"~d	c #1F3564",
"{d	c #5D7381",
"]d	c #8B9DB1",
"^d	c #BFC8CD",
"/d	c #A4ADB2",
"(d	c #A0B0B0",
"_d	c #3F556C",
":d	c #40527A",
"<d	c #1D3561",
"[d	c #364E74",
"}d	c #455B73",
"|d	c #B5C0C6",
"1d	c #BDC8CE",
"2d	c #9FB1B1",
"3d	c #42557D",
"4d	c #1F3860",
"5d	c #485E75",
"6d	c #5F717F",
"7d	c #516475",
"8d	c #8496A0",
"9d	c #BAC7D0",
"0d	c #B9C6CF",
"ad	c #BBC8D1",
"bd	c #9FB1B3",
"cd	c #3E517C",
"dd	c #3B5377",
"ed	c #1C385F",
"fd	c #566F83",
"gd	c #A1B5B6",
"hd	c #2A445D",
"id	c #293E6B",
"jd	c #1B375C",
"kd	c #2D4464",
"ld	c #597082",
"md	c #5A7085",
"nd	c #567081",
"od	c #73858F",
"pd	c #A0B5B8",
"qd	c #243E59",
"rd	c #1C385D",
"sd	c #2E4966",
"td	c #506B80",
"ud	c #566C84",
"vd	c #9EA8B1",
"wd	c #909FA4",
"xd	c #9DA7B0",
"yd	c #A5B0B4",
"zd	c #A8B1C0",
"Ad	c #A4AEBA",
"Bd	c #A5ADBA",
"Cd	c #A2AAB7",
"Dd	c #A3ADB9",
"Ed	c #969FAE",
"Fd	c #969FB0",
"Gd	c #7A909D",
"Hd	c #A2B4BE",
"Id	c #293E6D",
"Jd	c #273E5E",
"Kd	c #1F355C",
"Ld	c #1C345A",
"Md	c #2D476C",
"Nd	c #2B4462",
"Od	c #516A7E",
"Pd	c #556C7C",
"Qd	c #596E7F",
"Rd	c #8E9DA2",
"Sd	c #A3AEB2",
"Td	c #84979D",
"Ud	c #85969D",
"Vd	c #8899A0",
"Wd	c #88979C",
"Xd	c #8E9BA1",
"Yd	c #8F9CA2",
"Zd	c #ABB7C3",
"`d	c #243E61",
" e	c #273C6B",
".e	c #233B57",
"+e	c #5C7383",
"@e	c #5C707B",
"#e	c #596B77",
"$e	c #5B6D7B",
"%e	c #586A78",
"&e	c #546674",
"*e	c #8F9EA3",
"=e	c #99A2AB",
"-e	c #9EA9AF",
";e	c #8B9BB2",
">e	c #859BA6",
",e	c #889CA7",
"'e	c #8A9EA7",
")e	c #879BA4",
"!e	c #9CAFB6",
"~e	c #99ACB3",
"{e	c #9EAFB6",
"]e	c #A0B1B8",
"^e	c #8C9EA8",
"/e	c #8DA1AA",
"(e	c #90A2AC",
"_e	c #7A8B95",
":e	c #A3B5BF",
"<e	c #2B406F",
"[e	c #294060",
"}e	c #263964",
"|e	c #97AAB9",
"1e	c #A3B4BC",
"2e	c #B5BEC7",
"3e	c #47586C",
"4e	c #3F536E",
"5e	c #677A89",
"6e	c #667C8A",
"7e	c #1D375C",
"8e	c #203564",
"9e	c #283B66",
"0e	c #213663",
"ae	c #A2B4C2",
"be	c #94A3A8",
"ce	c #3E5479",
"de	c #3C5478",
"ee	c #66799A",
"fe	c #677E8E",
"ge	c #24386A",
"he	c #203757",
"ie	c #374B64",
"je	c #A4AFB1",
"ke	c #AABAC7",
"le	c #36506B",
"me	c #37506E",
"ne	c #213567",
"oe	c #1F3656",
"pe	c #273A65",
"qe	c #1E365C",
"re	c #A5AFB1",
"se	c #A7B0B7",
"te	c #B3BBBE",
"ue	c #A9BAC4",
"ve	c #3C5677",
"we	c #3B536D",
"xe	c #38526B",
"ye	c #3C5068",
"ze	c #1E375F",
"Ae	c #9FB1BD",
"Be	c #A6AFB6",
"Ce	c #AFB7BA",
"De	c #41576E",
"Ee	c #3A5475",
"Fe	c #3C4D6B",
"Ge	c #667793",
"He	c #A3ADB6",
"Ie	c #B3BCC1",
"Je	c #94A1B1",
"Ke	c #223668",
"Le	c #283B65",
"Me	c #233968",
"Ne	c #1E3463",
"Oe	c #1C3261",
"Pe	c #203665",
"Qe	c #213864",
"Re	c #223462",
"Se	c #213766",
"Te	c #1C3462",
"Ue	c #3C4C6D",
"Ve	c #3A4B69",
"We	c #3C4C63",
"Xe	c #738299",
"Ye	c #7789A1",
"Ze	c #7A8EA6",
"`e	c #778BA3",
" f	c #788DA2",
".f	c #768BA0",
"+f	c #7C8BA2",
"@f	c #828EA4",
"#f	c #899CAB",
"$f	c #889BA9",
"%f	c #3C566F",
"&f	c #3B556E",
"*f	c #647797",
"=f	c #687997",
"-f	c #6B7D81",
";f	c #687B8A",
">f	c #9AA4AE",
",f	c #8F9CA4",
"'f	c #B7C3C1",
")f	c #B3BDBC",
"!f	c #90A2B8",
"~f	c #8D9FB7",
"{f	c #263957",
"]f	c #213558",
"^f	c #1B355A",
"/f	c #203D5F",
"(f	c #2F4463",
"_f	c #2D4664",
":f	c #304560",
"<f	c #7488A1",
"[f	c #495A74",
"}f	c #314661",
"|f	c #7F8D96",
"1f	c #9BA7B3",
"2f	c #2E4064",
"3f	c #304363",
"4f	c #283965",
"5f	c #2C3F5D",
"6f	c #30416C",
"7f	c #7D8BA6",
"8f	c #8E9BA3",
"9f	c #4A5B6F",
"0f	c #4A5B75",
"af	c #4E5E78",
"bf	c #455869",
"cf	c #30426A",
"df	c #768394",
"ef	c #91A4A8",
"ff	c #91A3A3",
"gf	c #96A6A6",
"hf	c #95A4A7",
"if	c #97A6A9",
"jf	c #99A9A9",
"kf	c #677D92",
"lf	c #8491A2",
"mf	c #93A4B6",
"nf	c #44587D",
"of	c #42547A",
"pf	c #273C69",
"qf	c #273B6D",
"rf	c #2D3E6C",
"sf	c #7F90AA",
"tf	c #7B89A6",
"uf	c #A1B0C3",
"vf	c #3F5179",
"wf	c #3F5378",
"xf	c #2E436E",
"yf	c #283D6C",
"zf	c #293F6E",
"Af	c #29406C",
"Bf	c #7584A1",
"Cf	c #78849A",
"Df	c #6D8293",
"Ef	c #738792",
"Ff	c #94A7AB",
"Gf	c #96A8AA",
"Hf	c #97A7A7",
"If	c #4E6382",
"Jf	c #3D557B",
"Kf	c #6E839E",
"Lf	c #6A8193",
"Mf	c #8FA0B4",
"Nf	c #3F527A",
"Of	c #203958",
"Pf	c #2D4768",
"Qf	c #2A4465",
"Rf	c #2D446E",
"Sf	c #273F5B",
"Tf	c #4A6173",
"Uf	c #455F78",
"Vf	c #46607B",
"Wf	c #38526D",
"Xf	c #314B66",
"Yf	c #304967",
"Zf	c #294368",
"`f	c #2B4560",
" g	c #74899C",
".g	c #919EAF",
"+g	c #8E9FB3",
"@g	c #415A79",
"#g	c #244065",
"$g	c #273F6B",
"%g	c #233D58",
"&g	c #7D8CA1",
"*g	c #919EA4",
"=g	c #466077",
"-g	c #48627B",
";g	c #49617B",
">g	c #466176",
",g	c #486279",
"'g	c #3F576F",
")g	c #405870",
"!g	c #3E566E",
"~g	c #395268",
"{g	c #3D536A",
"]g	c #2B456A",
"^g	c #273E5D",
"/g	c #788AA2",
"(g	c #6E8492",
"_g	c #6C7C89",
":g	c #94A3B6",
"<g	c #40567B",
"[g	c #3F557A",
"}g	c #243C68",
"|g	c #233865",
"1g	c #243A69",
"2g	c #2D4372",
"3g	c #28406C",
"4g	c #283E70",
"5g	c #2F416F",
"6g	c #7B8CA6",
"7g	c #7785A2",
"8g	c #788598",
"9g	c #8F9BA7",
"0g	c #909DA3",
"ag	c #A0B0C0",
"bg	c #465A7D",
"cg	c #4E6285",
"dg	c #3F5974",
"eg	c #304062",
"fg	c #2A3C60",
"gg	c #304361",
"hg	c #76859C",
"ig	c #7A8990",
"jg	c #99A4AA",
"kg	c #94A1A7",
"lg	c #94A3A6",
"mg	c #6A7F9A",
"ng	c #677B94",
"og	c #4E5F73",
"pg	c #2E4161",
"qg	c #2B3E5E",
"rg	c #283B5C",
"sg	c #25395C",
"tg	c #253A69",
"ug	c #32436E",
"vg	c #7E8CA7",
"wg	c #909DA5",
"xg	c #909EA1",
"yg	c #9FA9B3",
"zg	c #9FABB9",
"Ag	c #4D5E70",
"Bg	c #506175",
"Cg	c #4C5B7A",
"Dg	c #4E5D7C",
"Eg	c #435271",
"Fg	c #445372",
"Gg	c #455473",
"Hg	c #445374",
"Ig	c #3F4E6F",
"Jg	c #3E4D6E",
"Kg	c #4B657C",
"Lg	c #586B7A",
"Mg	c #8C9FAD",
"Ng	c #B4C4C4",
"Og	c #B5C4CB",
"Pg	c #B0BEBE",
"Qg	c #2B435F",
"Rg	c #384965",
"Sg	c #697992",
"Tg	c #6E7E8B",
"Ug	c #93A6B5",
"Vg	c #90A3B2",
"Wg	c #465C74",
"Xg	c #40596F",
"Yg	c #405769",
"Zg	c #6E828B",
"`g	c #77868B",
" h	c #AABCC0",
".h	c #A8B9C0",
"+h	c #BAC8C8",
"@h	c #BAC5C1",
"#h	c #B0C2C6",
"$h	c #B4C7CD",
"%h	c #B1C2C9",
"&h	c #B4C3C6",
"*h	c #BBCBCB",
"=h	c #4E697C",
"-h	c #56697A",
";h	c #728691",
">h	c #949EAA",
",h	c #506173",
"'h	c #2E415F",
")h	c #98A4B2",
"!h	c #76878E",
"~h	c #B2BBC0",
"{h	c #728798",
"]h	c #6E818F",
"^h	c #516276",
"/h	c #2E425D",
"(h	c #576A8A",
"_h	c #556888",
":h	c #718699",
"<h	c #75888F",
"[h	c #798792",
"}h	c #AEBEBE",
"|h	c #53637D",
"1h	c #5B6984",
"2h	c #2F445F",
"3h	c #9BA8B9",
"4h	c #55647B",
"5h	c #5C6B88",
"6h	c #5A6B89",
"7h	c #708598",
"8h	c #768A93",
"9h	c #748692",
"0h	c #75838C",
"ah	c #59687F",
"bh	c #536073",
"ch	c #4E6374",
"dh	c #59657B",
"eh	c #5A6B7D",
"fh	c #A2B1B6",
"gh	c #384E75",
"hh	c #6F8499",
"ih	c #899CAD",
"jh	c #8194A2",
"kh	c #9BA8B8",
"lh	c #5E6D80",
"mh	c #44596E",
"nh	c #475C6F",
"oh	c #798A92",
"ph	c #BDCBCE",
"qh	c #A8BBC2",
"rh	c #AAB4C0",
"sh	c #8EA1A7",
"th	c #8C9FA6",
"uh	c #93A5B1",
"vh	c #1D3358",
"wh	c #788596",
"xh	c #9CACBC",
"yh	c #A1B3B3",
"zh	c #93A2A7",
"Ah	c #8C9FA5",
"Bh	c #92A4AE",
"Ch	c #1B3361",
"Dh	c #1A315D",
"Eh	c #52617E",
"Fh	c #546380",
"Gh	c #B5BDC0",
"Hh	c #B3C2C9",
"Ih	c #A7B1BD",
"Jh	c #ACB6B8",
"Kh	c #A7B7B7",
"Lh	c #ACB3BD",
"Mh	c #91A4AB",
"Nh	c #1A335B",
"Oh	c #19325B",
"Ph	c #6B8093",
"Qh	c #ADB0C1",
"Rh	c #8D9EA5",
"Sh	c #63798E",
"Th	c #1A325E",
"Uh	c #1D365E",
"Vh	c #162F57",
"Wh	c #395472",
"Xh	c #6C8290",
"Yh	c #778D98",
"Zh	c #91A0A3",
"`h	c #ADB9B9",
" i	c #A2B2B1",
".i	c #A2B2B2",
"+i	c #475D74",
"@i	c #293C67",
"#i	c #253E5D",
"$i	c #274162",
"%i	c #6C8192",
"&i	c #959FAB",
"*i	c #B8C1CA",
"=i	c #B7C0C9",
"-i	c #98A6A7",
";i	c #9AA9AC",
">i	c #808C98",
",i	c #A9B4B6",
"'i	c #9DA8AE",
")i	c #ABB3BE",
"!i	c #A0B2B6",
"~i	c #1F3463",
"{i	c #1E365A",
"]i	c #AAB8C3",
"^i	c #979FAC",
"/i	c #959FA8",
"(i	c #707D8E",
"_i	c #55657C",
":i	c #56667F",
"<i	c #657896",
"[i	c #6A7B97",
"}i	c #6E7E98",
"|i	c #6B7C98",
"1i	c #223560",
"2i	c #253863",
"3i	c #253765",
"4i	c #293B69",
"5i	c #2B3D6D",
"6i	c #29405F",
"7i	c #41566B",
"8i	c #4B5B72",
"9i	c #43586D",
"0i	c #48586F",
"ai	c #5E6E7E",
"bi	c #879BA6",
"ci	c #949DAC",
"di	c #99A3AF",
"ei	c #7C8F9D",
"fi	c #41526E",
"gi	c #6D7D96",
"hi	c #1C365B",
"ii	c #1E3459",
"ji	c #647A8F",
"ki	c #5B6E8E",
"li	c #5C6F8D",
"mi	c #7A8CA2",
"ni	c #566B86",
"oi	c #3D4E68",
"pi	c #4B5D75",
"qi	c #1D395E",
"ri	c #2B406D",
"si	c #415B76",
"ti	c #435C7A",
"ui	c #445E79",
"vi	c #657B92",
"wi	c #415C71",
"xi	c #425B71",
"yi	c #586D7E",
"zi	c #97A3B3",
"Ai	c #3F5876",
"Bi	c #19345F",
"Ci	c #17325F",
"Di	c #1D3563",
"Ei	c #203866",
"Fi	c #2C436F",
"Gi	c #3D556D",
"Hi	c #61778E",
"Ii	c #94A0B0",
"Ji	c #90A3B1",
"Ki	c #8DA0AE",
"Li	c #566B8A",
"Mi	c #3E5678",
"Ni	c #3C5476",
"Oi	c #617695",
"Pi	c #687B99",
"Qi	c #6F839E",
"Ri	c #677A98",
"Si	c #35476F",
"Ti	c #1A2E53",
"Ui	c #35476B",
"Vi	c #263959",
"Wi	c #2B405F",
"Xi	c #2C4160",
"Yi	c #53637A",
"Zi	c #415669",
"`i	c #43596E",
" j	c #445A6F",
".j	c #495875",
"+j	c #5E6C86",
"@j	c #5B6C7C",
"#j	c #8D9EB2",
"$j	c #92A1B4",
"%j	c #798BA3",
"&j	c #798BA1",
"*j	c #8B9EAD",
"=j	c #8396A5",
"-j	c #75868D",
";j	c #717D8D",
">j	c #4D6476",
",j	c #4F5F78",
"'j	c #334666",
")j	c #334667",
"!j	c #273B5C",
"~j	c #42547C",
"{j	c #8C9DAF",
"]j	c #8CA0B8",
"^j	c #8DA1B9",
"/j	c #7F95AD",
"(j	c #6F8495",
"_j	c #6C8299",
":j	c #4A5F72",
"<j	c #717C90",
"[j	c #8C9EB2",
"}j	c #3A5067",
"|j	c #3A546D",
"1j	c #5E6D84",
"2j	c #475778",
"3j	c #6E7E97",
"4j	c #707D90",
"5j	c #737E92",
"6j	c #485A72",
"7j	c #324764",
"8j	c #223A5C",
"9j	c #2D406B",
"0j	c #445475",
"aj	c #3B5570",
"bj	c #586E86",
"cj	c #5C7289",
"dj	c #2E416B",
"ej	c #425274",
"fj	c #8FA1B5",
"gj	c #8E9FAF",
"hj	c #4D5D7E",
"ij	c #485879",
"jj	c #4D6081",
"kj	c #4D5F83",
"lj	c #4C6085",
"mj	c #31446E",
"nj	c #2D426D",
"oj	c #22395B",
"pj	c #8E9EAE",
"qj	c #909DAE",
"rj	c #374B63",
"sj	c #8A9DA4",
"tj	c #596C8A",
"uj	c #6E8597",
"vj	c #273B5E",
"wj	c #2B3F60",
"xj	c #23375C",
"yj	c #5C6D7D",
"zj	c #50607A",
"Aj	c #586B89",
"Bj	c #6D7F97",
"Cj	c #45556E",
"Dj	c #485872",
"Ej	c #92A3B3",
"Fj	c #98A7BA",
"Gj	c #9BADB9",
"Hj	c #A0B3BA",
"Ij	c #9AADBB",
"Jj	c #7C92A0",
"Kj	c #7287A2",
"Lj	c #3C4F77",
"Mj	c #394C76",
"Nj	c #9FAFBE",
"Oj	c #A2B3C3",
"Pj	c #A0B0BF",
"Qj	c #A3B3C0",
"Rj	c #7F91A7",
"Sj	c #445C76",
"Tj	c #66768F",
"Uj	c #798C93",
"Vj	c #7B8F96",
"Wj	c #7B90A5",
"Xj	c #37496D",
"Yj	c #8C9EA2",
"Zj	c #899CA3",
"`j	c #70849C",
" k	c #4A5976",
".k	c #9AA6B6",
"+k	c #A7B3C3",
"@k	c #A6AEBB",
"#k	c #A8AEBA",
"$k	c #A6B2C2",
"%k	c #7F8A9E",
"&k	c #808BA1",
"*k	c #354962",
"=k	c #223B63",
"-k	c #A5B0B2",
";k	c #A3AFAF",
">k	c #A7B3B3",
",k	c #A2AEAE",
"'k	c #9DA9A9",
")k	c #A6B2B0",
"!k	c #A3B1B1",
"~k	c #8FA0A7",
"{k	c #879AA0",
"]k	c #7E8F97",
"^k	c #808F96",
"/k	c #3B5375",
"(k	c #465678",
"_k	c #677790",
":k	c #61718B",
"<k	c #677894",
"[k	c #53637C",
"}k	c #98A8B7",
"|k	c #98A4B4",
"1k	c #8490A6",
"2k	c #3E4E72",
"3k	c #3A4F7A",
"4k	c #3A4C74",
"5k	c #717E8E",
"6k	c #9EA9AD",
"7k	c #99ACB0",
"8k	c #354A77",
"9k	c #354A75",
"0k	c #284160",
"ak	c #2A4362",
"bk	c #99A6B6",
"ck	c #39496B",
"dk	c #3B517A",
"ek	c #99ACB2",
"fk	c #2C415C",
"gk	c #3E576D",
"hk	c #96A5B8",
"ik	c #768791",
"jk	c #7D8B94",
"kk	c #839099",
"lk	c #838F9B",
"mk	c #33456D",
"nk	c #334B67",
"ok	c #384D62",
"pk	c #6C8395",
"qk	c #2E435E",
"rk	c #9CACB9",
"sk	c #51687A",
"tk	c #7D8E96",
"uk	c #4A5E81",
"vk	c #8798AC",
"wk	c #69808E",
"xk	c #A7B9C3",
"yk	c #A3B6BD",
"zk	c #324661",
"Ak	c #737F95",
"Bk	c #344B6A",
"Ck	c #A0B3B9",
"Dk	c #4B5C78",
"Ek	c #435D78",
"Fk	c #4D5D77",
"Gk	c #8895A6",
"Hk	c #707F96",
"Ik	c #6F8497",
"Jk	c #727E96",
"Kk	c #A4B7BD",
"Lk	c #455F7A",
"Mk	c #818D9B",
"Nk	c #ABBDBD",
"Ok	c #ABBBBA",
"Pk	c #9FAAAE",
"Qk	c #A1ADBB",
"Rk	c #9CAFB5",
"Sk	c #1F325A",
"Tk	c #1D3758",
"Uk	c #23365E",
"Vk	c #233563",
"Wk	c #9CA5B4",
"Xk	c #A0A9BA",
"Yk	c #23355D",
"Zk	c #223464",
"`k	c #858E9D",
" l	c #A2AABD",
".l	c #A0A9B8",
"+l	c #213B5C",
"@l	c #1A3260",
"#l	c #687C94",
"$l	c #828B9A",
"%l	c #7C8A93",
"&l	c #AEBDC0",
"*l	c #9AA3B2",
"=l	c #9DA6B7",
"-l	c #A1AAB9",
";l	c #23345F",
">l	c #213965",
",l	c #213E5C",
"'l	c #182E5D",
")l	c #213967",
"!l	c #6E829A",
"~l	c #738591",
"{l	c #778592",
"]l	c #858E9F",
"^l	c #ADBBBB",
"/l	c #9CAEBA",
"(l	c #22335E",
"_l	c #1E3957",
":l	c #96A8B4",
"<l	c #697F8D",
"[l	c #738694",
"}l	c #677991",
"|l	c #7F8B9B",
"1l	c #AAB6B4",
"2l	c #AAB8B8",
"3l	c #B2C1C4",
"4l	c #99A9B9",
"5l	c #1B3653",
"6l	c #203457",
"7l	c #24375F",
"8l	c #354664",
"9l	c #30415D",
"0l	c #2F435E",
"al	c #324762",
"bl	c #7F9098",
"cl	c #546575",
"dl	c #324570",
"el	c #3A517B",
"fl	c #3C4C70",
"gl	c #5D6E8C",
"hl	c #637599",
"il	c #5F708E",
"jl	c #566A8B",
"kl	c #92A5AB",
"ll	c #6F7C8F",
"ml	c #667C94",
"nl	c #4E6283",
"ol	c #4F6070",
"pl	c #3E507E",
"ql	c #3C4B6C",
"rl	c #62718E",
"sl	c #586788",
"tl	c #2C415E",
"ul	c #354D69",
"vl	c #354C6B",
"wl	c #476172",
"xl	c #4A5F70",
"yl	c #90A3A9",
"zl	c #8FA1A3",
"Al	c #677786",
"Bl	c #747796",
"Cl	c #687E93",
"Dl	c #B7BFC2",
"El	c #B2C3CB",
"Fl	c #546889",
"Gl	c #3A5077",
"Hl	c #2C4563",
"Il	c #334D68",
"Jl	c #304B66",
"Kl	c #39496A",
"Ll	c #556A7D",
"Ml	c #A7B1B3",
"Nl	c #6C798A",
"Ol	c #7A8891",
"Pl	c #727995",
"Ql	c #B4BDC4",
"Rl	c #506081",
"Sl	c #5D718C",
"Tl	c #324B69",
"Ul	c #384A70",
"Vl	c #2E4C6E",
"Wl	c #2F4C6E",
"Xl	c #2F4C6C",
"Yl	c #324D6A",
"Zl	c #47617C",
"`l	c #476074",
" m	c #5C6C8E",
".m	c #5E6C8F",
"+m	c #A7B7C4",
"@m	c #647890",
"#m	c #6D7A8D",
"$m	c #5E6F8D",
"%m	c #5F708C",
"&m	c #60708A",
"*m	c #6B7993",
"=m	c #678094",
"-m	c #A4B5BD",
";m	c #B5C3CE",
">m	c #4F5E7B",
",m	c #515F7A",
"'m	c #505E78",
")m	c #485F7E",
"!m	c #485C74",
"~m	c #536A7C",
"{m	c #546B7D",
"]m	c #566C81",
"^m	c #A6B7C7",
"/m	c #637991",
"(m	c #5C6A84",
"_m	c #758A9D",
":m	c #8C9FAE",
"<m	c #6F8592",
"[m	c #637895",
"}m	c #697E99",
"|m	c #727D99",
"1m	c #757C98",
"2m	c #93A2A5",
"3m	c #9AA6A6",
"4m	c #9AA5A7",
"5m	c #99A4A6",
"6m	c #9BA6A8",
"7m	c #A7B2B4",
"8m	c #A8B3B5",
"9m	c #96A4A7",
"0m	c #93A0A6",
"am	c #A9B1B3",
"bm	c #ACB4B6",
"cm	c #A8B0B2",
"dm	c #ADB5B7",
"em	c #AFB9BB",
"fm	c #546672",
"gm	c #536289",
"hm	c #455577",
"im	c #41506F",
"jm	c #3A496A",
"km	c #3E4C6F",
"lm	c #445277",
"mm	c #5A698A",
"nm	c #5F6E8D",
"om	c #5F6C8E",
"pm	c #606D8D",
"qm	c #606F8E",
"rm	c #59678A",
"sm	c #36456E",
"tm	c #2E3C69",
"um	c #2D3E6A",
"vm	c #2F4169",
"wm	c #25476C",
"xm	c #2F4D6F",
"ym	c #2D4866",
"zm	c #314E6E",
"Am	c #294867",
"Bm	c #304D6D",
"Cm	c #485F7F",
"Dm	c #465F7E",
"Em	c #536675",
"Fm	c #647883",
"Gm	c #90A2A4",
"Hm	c #909FA2",
"Im	c #9EAFB9",
"Jm	c #566675",
"Km	c #4C667D",
"Lm	c #4B677D",
"Mm	c #4C687E",
"Nm	c #4C6880",
"Om	c #6B849A",
"Pm	c #6A8095",
"Qm	c #6A8097",
"Rm	c #677D94",
"Sm	c #708799",
"Tm	c #708A9B",
"Um	c #7B8890",
"Vm	c #95A3BE",
"Wm	c #717E91",
"Xm	c #778393",
"Ym	c #768197",
"Zm	c #778298",
"`m	c #717F9C",
" n	c #6B7B95",
".n	c #687892",
"+n	c #606F8C",
"@n	c #5E6C89",
"#n	c #5F6C8C",
"$n	c #5D6A8A",
"  . + @ # $ % & * = - ; > , ' > ) ! ! ~ { ] ^ / / ( _ : < [ } } } | 1 } 2 3 4 5 6 7 8 9 0 a b c d e f g h i f j k l m n ; o p q r s t u v w x y z A B C C D E F G F H I J K L M N O P Q R S S T = U U U V W X Y Z `  ...+.+.@.#.$.{ %.%.&.*.: =.-.;.>.,.'.).!.~.{.].^./.(._.(.:.(.<.[._.}.}.}.}.|.1.2.3.4.5.5.6.7.8.9.|.}.0.a.b.c.d.e.f.^.f.g.h.i.j.a.a.a.j.j.j.j.j.j.j.",
"k.l.m.n.. o.p.q.r.s.t.u.v.w.w.v.{ ] ] { x.y._ : / / _ : [ [ < z.z.A.A.B.C.D.E.F.G.H.I.J.K.L.D.C.M.N.O.P.i Q.R.S.T.U.V.W.X.Y.s Z.`.s  +.+++.+@+y #+$+( ^ / %+&+G *+=+-+-+;+u >+,+'+)+O.!+g ~+{+]+^+^+/+^+(+_+:+<+Z [+}+|+1+1+2+3+%.{ %.%.4+5+_ =.=.6+7+8+9+~.!.0+{./.a+/.b+c+d+[.c+_.:.e+}.f+}.}.|.1.2.g+h+i+h+j+1.k+9.|.}.0.l+b.l+m+i.0+n+g.n+g.o+a.l+l+j.j.0.j.j.j.j.j.",
"k.l.m.p+q+r+s+& t+u+v+w+w., , > ) %.%.{ x.y.x+: _ ^ ^ x+y+z+[ < [ < 1 1 c z.A+8 7 B+H.C+D+E+1 3 F+G+H+I+j j J+S.K+L+V.m ; o r M+N+O+P+Q+R+S+T+U+T+V+W+X+Y+X+Z+`+G  @I I -..@+@>+U+O @@#@{+~+~+]+/+/+]+/+$@%@&@*@=@-@}+;@2+1+2+3+%.{ %.{ >@{ ^ ,@y.'@)@!@~.~@{@g.]@^@a+/@^./.(@_@/.^@:@a+}.}.}.<@|.9.[@g+5.i+h+j+9.8.9.|.}@0.l+b.a.e.c.n+g.f.n+f.l+j.l+a.j.j.j.0.0.0.0.0.",
"k.|@1@2@3@j s+4@t+5@p.6@u.u.; v.) %.] ] 7@] x+: _ ^ ^ 8@9@0@z.z.a@b@c@a@d@3 L.e@H.I.f@g@h@L.i@j@k@l@4@f 4@R.m@m@K+n@l o@p@Y.q@q r t r@s@t@u@v@v@U+B / w@w@C x@y@&+E @.@.-.y.z@u A@B@S C@]+g g ^+^+/+D@O.E@F@G@H@I@J@K@L@*+M@&+1+] { %.{ N@] _ ,@] O@P@Q@{@~@R@0+{./.^.^.S@T@g.U@a+/.:@^@V@V@}@<@1.W@X@g+4.5.3.|.W@8.9.Y@Z@`@Z@!.j.b.0.h.f.h.g. #a.0.j.j.a.a.a.a.j.j.0.0.",
".#+#@###$#O.%#P &#*#=#-#;#;#-#>#,#'#)#)#!#~#{#]#]#6+{#{#d@z.^#c@/#(#_#:#<#k@[#}#|#H.1#2#9 3#4 4#5#(#f 6#Q.O.D@f 7#8#8#9#F+0#a#q@b#c#c#d#e#f#f#f#g#h#i#i#j#k#l#m#n#o#g#p#q#r#-.^ ( s#S.R t#t#t#T u#S.v#v##@w#x#y#z#A#B#3+C#|+C#|+] %.] %.N@] ^ =.y.~#D#E#F#G#H#I#J#K#L#L#M#N#O#P#Q#R#U@U@|.|.|.|.S#T#U#V#W#X#Y#Z@S#Z#}.l+k+`#1. $.$+$.$@$n+n+~.~@Z#a.#$#$$$J#%$+$%$%$%$%$",
"&$*$=$-$;$>$,$'$)$!$~${$v#v#]${$^$d@y+y+y+9@/$($_$_$:$:$<$[$}$|$|@1$H#H#2$3$4$5$6$7$8$9$r+0$a$b$h+7.q++#c$;$2#d$e$f$g$h$i$j$k$l$m$l$n$o$p$q$r$s$t$u$v$w$x$x$y$z$A$z$A$B$C$C.C.2 D$b E$F$)+G$f#H$I$n#J$J$K$L$M$N$O$P$Q$R$S$R$T$T$%.%.y.,@>@] ! ^ U$V$W$X$4#(#Y$Z$`$ %.%.%+%@%#%!$$%$%%%%%9.9.1.1.S#f+V@Z##$#$}@&%l+0.Z#j.8.8.[@|.W@*%=%J#b.!.b.R@-%S#T#S#2.g+;%>%,%,%,%,%",
"'%C@)%!%~%{%6.]%^%/%(%K.S t#t#v#| 3 _%d@d@[ D.:%:%:%<%_$[%}%|%1%.#O#2%0+3%4%5%6%7%7%8%9%0%a%b%X#Y#8.c%d%i+h+e%5.f%'.f%`@g%h%6#i%j%k%D@C@l%|#6#~+m%n%o%p%q%r%f%s%t%H#u%H#($B.v%_$w%x%;.J y%y%v Z+2+*+*+z%A%M@5+y@1+B%C%D%R$E%R$F%x.%.y.! G%] =.H%I%J%K%L%| B.1 G+G+u+s.s.M%N%O%P%1.1.f+-%9.1.1.9.f+}.l+j.f%f%Q%9+j.b.a.0.j+|.g+W@X@R%S%%$j.0.j.b.T%T#X#X#{%U%V%W%X%X%X%1#",
"&$$#Y%Z%Q 6.`%)$ &.&+&D@@&#&@@S $&%&^#| _%1 &&*&*&*&:%:%=&-&;&>&,&'&)&!&~&{&g.]&*#^&/&(&_&:&1.V#f+<&[&}&|&1&2&3&s%R@0.4&5&6&7&l%l%8&~+9&7&W%0&a&b&c&d&e&:.:.f&g&a.0.m+e.h&N.v+} /$i&j&8@.@.@k&G l&m&m&m&n&o&p&q&r&s&t&u&v&R$S$T$x.%.] -.w&] x&y&7@z&]#a A&B&D$C&D&E&F&F&G&s.H&d$I&1.S#<@`%|.1.9.-%}.l+0.Q%`@Z@!.a.0.l+0.J&6.g+W@[@2.K&$$0.b.0.!.X#S#T#S#{%L&M&1#1#X%X%X%",
"N&*$t$Q.a&O&h+J&7.6.O&P&H+Q&R&S&_%X.T&U&>#V&W&($<%<%:$W&=&@ |%X&[&4&{&Y&Z&`&5%6% *.** =#+*I&@*|.8.1.#*$*#*h+c$%*R@d.0.&*3$7&}#j$**9 =*h%-*;*I+Z%>*,*'*U@q%q%`@t%O&F#t%8+)*B&:$<%<%!*z@~*k&{*]*q&l&^*/*(*k&^*_*:*<*<*[*}*R$R$R$|*1*2*2*2*,@: ^ 3*_ ^ : 4*} <%1 } G+=#5*=#P ^+6*7*8*9*$%Y@1.1.1.9.S#}@#$`@a.j.}.!.Z#a.0.j.H#W@W@W@2.[@2.0*J#%$J#%$*%2.9.2.a*b*h%J.c*C+d*1#",
"e*~+f*1#g*`#8.`#1.`#6.h*i*j*k*H+4 3 ^$l*d@| &&h&m*m*h&&&n*o*p*q*r*O#n+3%s*b.t*u**#7%v*w*x*y*:&2.#*W@1.z*g+i+A*|&R@d.j.B*3$a&C@C*6#l%D*E*0&d*~+>*F*S@_@G*[.q%j.f%Q%u%`# $/$<%H*I*H*_$J ! ^ ,@{ J*K*L*L*L*M*C#N*O*J*L@P*Q*R$R$F%F%R*2*] ] -.=.-.: ,@=._ S*} <%} A.B.5*u#u#4@P.5$T*W@<&*%$%1.1.9.9.T#<@Z@Q%0.b.Z#{@a.j.0.a.`#g+X@X@X@X@[@ $$$J#$$J#8.1.|.1.`%J&1#C+U*X%1#V*",
"W*g*X*Y*&$=%<&8.K&Y@R%Z*`* =Y*(+.=+=@=#=$=5#9$%=&=&=6%9$*=  g+==-=+&O#O#;=>=7*,='=)=!=~={=]=P%8+z*h+4.^=/=c$;$|&~.0+(=&*&%_=:=$#g ~+(+<=[=}=|=1=&$a+2=3=4=5=6=7=g&8=m+m+(#9=0=a=a=b=c=d=e=d=}+F$f=f=f=g=/ h=i=j=k=l=m=n=o=F%p p=] %.! ! : W+=.W+_ : x&S*[ D.1 A.A.q=r=r=s=J+P '$z*k+1.6.|.|.|.1.S#<@Z@Q%}.V@-%!.i.c.m+i.t=W@W@9.9.1.9.u=+$.$+$.$W@2.W@2./=h+v=^=v=v=,%w=",
"x=y=z=A=B=!.{@C={@g.{.D=E=F=G=H=~@).>=G#3$I#I=J=L#L#K#K=L=f.J=M=N=O=x*x*P=6*Q=R=S=T=_@[.U=V= %X*/+P&e%W=e%;$I.|&X=:@].Y=Z=`=`# -y*u=`#.-A=+-@-#-$-%-&-*-=---;->-,-'-)-!-~-{-]-^-/-(-7.,$_-E#:-<-[-}-}-|-1-2-H%' D 3-^ I%4-5-^ ^ 4*4*z.6-7-7-X+; X+u.3*S*d@z.d@1 ^#($<%&&8-A+a 8&d*V*~%1#+$+$.$.$Z#l+a.0.!.{@R@9-q%9-0-9-a-+$.$%$.$+$Y@Y@=%K&*%W@/=$*/=b-g+|.k+u%u%`#+$%$",
"c-q%q%d-0-e.b.R@0.e-f-g-h-i-j-!-b+(={.!.4&n+k-l-^@^@l-k-m-n-B=n%t*o-7%/&N%p-q-r-T=s-t-u-_+v-u*C@g ^+1#<=w-V%H.%*x-_@q%y-r%Z#`#]%+&+$0.#-z-A-B-C-G@D-E-F-G-H-I-J-h-j-K-L-M-N-u-O-s-0-W@h+4.i+i+P-Q-R-R-S-T-k#=.U-3-v@( 8@^ ^ ^ ^ 2 z.z.z.V-9@W-X-Y-W-Y-y+d@< _%^$b B.1 1 Z-E+<#`-X%M&1#W%j.j.j.a.+$+$%$ ;Z#a.a.q%L=c&%@c&.;0.j.b.l+j.Z#U#K&[@W@2.#*e%4.b-+;@;Z@0.0.a.a.a.",
"#;q%$;#;L={.4&!.0.g.%;&;*;=;-;h-;;{&n+0+{.{.^./@>;>;/.^.h.k-B=4&I=x*M%,;5@8%';);s-5=t-t-!;[=O=R = Q.;$~;b-{;I.%*.-U@l-];y=l+`#`#u=`=c.^;/;(;t-s-t-_;G-:;F-:;<;[;};};|;1;2;u-3;4;u-I@f+a*g+9.5;6;7;8;9;0;a;b;c;5-d;V+C '@^ ^ ^ =.z.z.z.z.z.z.e;f;2-f;2-d@d@< d@< _%D.A.B.g;b@E.h;d*W%d*X%a.j.j.a.+$+$%$ ;0.0.e.9-_@c&%@i;Z=a.j.b.Z#0.l+V#W@2.9.W@b-e%4.b-~;|&f%0.m+c.m+j.",
"5='*j;G*k-~.).s%&%g.k;l;=;m;n;i-o;p;0+e-~.0+/.q;r;/@:@/. #R#].0+I=s;N%t;h&_&u;%@v;v;u-I@w;[={+R S.I+;$|&;${;I.%*x;y;^@z;Y=Z#u=k+k+<&A;B;C;v;G*D;G*E;F;:;G-G;[;H;m;K-I;J;K;s-L;&@O-+-U#h+a*J&3&M;7;N;O;O;).P;Y-5-%+3-^ '@=.^ =.'@9@< < < < z.f;;#Q;;#Q;^$V&< ^$z.d@D.B.D.g;b@E.h;d*W%d*X%l+a.a.a..$+$%$%$b.0.e.9-c&c&R;S;.;l+j.b.Z#0.j.U#W@[@W@2.b-e%b-e%T;|&s%j.c.i.j.j.",
"U;V;W;5=X;Y;B*Z;&*`; >.>*;L--;+>o;f-e-{.@>#>L#$>%>%>$>&>*>x;f.B=r%=>->t;=#;>>>,>G@'>$-c&)> =!>R j%v#X%~>M&5 I.%*x;y;l-{>];#$u=u=`#`=o+A-]>D;^>/>t-(>_>:;F-:>};K-<>I;[>}>|>u-1>1>O-0-W@5.4.6.b-2>7;3>4>0;5>P;6>5-7>@+! 8>8@8@^ {#V-9@z.8-< 6-;#;#2-f;Q;^$V&9>_%< _%z.} B.Z-E+<#+#1#V*~%X%l+a.a.a.+$+$%$ ;j.a.c.9-c&^>^>R;.;a.0.!.V@0.j.V#W@2.9.a*b-e%4.e%B+0>s%j.m+c.0.j.",
"a>t-^>b>c&k.8&c>=&[&]=C@l%>*|%d>)+e>f>y g>s@h>i>r*X*l%j$s*j>{@R@&%k>F.U*l>d*;*m>n>Q;o>Q;Y-=.-.K p>,@=.6>q>H%x+: W-f;e;r>s>($v%($:%t>t>o@u>&&B v>w>x>y>F-z>A>B>C>D>E>F>G>H>I>J>K>K>H>L>L>M>M>N>O>P>Q>R>S>%-T>U>a$V>'$W>X>4@4@R.R.4@q==#5*Y>s=K.Z>**K.6#}#k*7 k*F.7&2#c$A*T;c$U%`>b-]=.  ,.,U@y;_@:@+,@,#,$,)-%,&,*,C>=,-,;,>,,,',),!,-;s-v;D;=@G*_@l-:@y;B=~,{,_>F-],],^,",
"/,G@+,d-^;  p*(,p+n*l.*$_,:,<,Z%[,J$},|,1,2,3,:=4,5,C@}#6,7,7,9+f%8,G.9,0,X%h;F+C B w@o>W+=.u K p>K ,@_ ] 8@y._ w+-#-#3 s>($a,_$_$t>b,o@c,n u.v>u>d,e,F-;,:>f,g,h,S>i,S>H>I>],K>K>H>L>j,k,l,m,l,n,o,;,D>p,q,u=z*r,!$o-r+P.P.f P.s,s,s,s,J+O.6#}#I+{+~+$#~+C@{+*$5,. t,# b-b-g+V=1%n*==u,y;_@U@9-y;_@v,#,w,x,y,z,A,B,o,G;G;R>C,H>D,L-j-=@O-'>u-C-_@:@^@l-l-U;D-=-F-E,],J>",
"F,G,H,X i;Z*:,p*I,r*q*$#~%m%r*f*[,u N J,y@x@r$>*,%,%>*C@K,K,j>9+&%8,G.L,l>M,}#P@B B 3*3*W+p>u N,'+K K _ 8@8@=.^ W-;#e;f;O,_$($_$_$t>b,o@G+P,T&3 Q,R,S,T,U,R>R>o,V,W,X,f,Y,I>Z,z>z>Y,j,j,n,m,n,S>R>D>;,o,`, '*%!$.'.'o-!>5$5$5$+'@'@'@'+'s,= S #'#&@&#&$'>*:,:= ,X*o*-=%'X@g+-=u,==n*&'*':@y;B=q%R#y;='@,-';'>','B,E>'')'W,U,!'z>D,L-~'L;B-A-C-B;y;.,.,S;U;4=F;G->,>,E,H>",
"/,{']'5=^;k.q*l.^'F*l.X%v=,%/'f*('},_':'y.<'9 {+['|=>*_,6,j>!.~.R@+;~%W%}'|';*E$C d;1'd;W+2'N N N N p>_ x&x&_ x&-#_%;#-#O,:$i&($($3'4'o@5'V.6'$&7'8'H>9'E,0'a'b'F>i,&,I>c'n,>,;,R>c'M>d'D>i,D>e';,i,D>D>f'g'9.y*h'!$6*P P.r+r+u+s.s.s.s,5*T t#k%k%#'!%-$~+C@{+:=#@l.# . X@o*}&l.# i'p+p+[.$-{>X;j'$-k'l'm')-};C>n'o'o'p'q'U,r'z>D,D,_>1>N-N-A-A-_.q;/@/@s'4=t'G-u'R>>,>,",
"C;^>v'=@_@.#8&c>i'F*]=d*E*>*/'w'o#x'y'z'J*A'B'C*_,>*$#Z%~.{.{.C'$$'%|=:=8,H.j$A V+D'E'F'W+d;K N N,K 2': -.,@! G'e;-#;#-#O,/$i&H'a,3'I'n J'K'L'M'N'O'P'&,Q'H>m,R'S'n'T'U'c'V,>,;,;,P>O>d'e'h,o,D>>,o,>,P>V'W'T%z*P%-=v*X'Y'P.P.f f = = = %#4@Q&**6#D@Q.I+7 -*0&1#7&A*h+3.e%e%t,(,|@c>Z'`'5=:._.:._.G@ ).);'+)@)K>e'n,)'''#)G-U,H>D,D,H;$)I@A-B;N-_._@S;+,U;%)&)F-F-*)*)_>",
"=)o%-)0-@-$*;)`-##]=>)6#,)*$Z%v#2,L@Z+')L@^ {$9 |#))@@n$F#!)~)~)~)p*f*t${),)S&P,])v@w@^)6+( t@u@u@u@P$;./ C w@C f;;#f;-#/)/$/$:$i&I'()L'_):)W.<)[)})|)1)1)2)3)h,D>e'z,4)Z,,'],K>K>H>L>L>B,B,Q>n'E>O>5)M>=-6)7)}@<&*%['8)9)0)0)0)a)W>W>5$b)c)k*E*0&d)7&~%e)f)g)h)g)5;2&@;i)2.9.w=w- ,>)+#j)G*5=G*5=j)k)k).)l)m)&)=,Q'n)=,E-:;o)',Z,J>!,p)=@v;v;u-(@l-:@^@_@:.q)~'r)D-s)t)",
"u)v)w)l+a.x)4@y)s,!>X$z)A)j#B)r>_ C)' D)D'W+( E)F)^)G)F'P@H)k#j#B)f#2,P$I)A)C J)K)d B.* a,L)M)M)M)N)a,($!*O)!*2 W&z.[ z.P)/$z.6-6-d d L'L+Q)R)S)T)U)V)W)X)Y).-Z)`)Z C;G*),J>H;&)&)],C>C>m,m,O> ! !.!+!@!#!$!>-%!&!*!I@=!-!;!;!>!.;,!'!x#x-x-y=r%y=B=q%0-^-)!!!-'A-~!~!{!]!^!D=a+g.#>K=@>/! )+).)+)/!(!_!:!l)k)$)$)<![!}!Y t'G-',,'S,J>%,l'l'|!|!1!i.%%V@<&2!j'3!3!4!_.z;",
"5!v)6!`##$P&j 7!u#O.8!9!u.Y+s#C 0!J%a!]#D'b!c!/ / w@y%N,z&d!C)8@y&1,e!f!G',@u g!h!i!j!I*k@k!l!m!n!o!3#k@()3'p!C.W&< ^$z.q!0@[ ^$[ c M.L'p@w.r!s!v.u t!u!$.K%v!w!x!y!X;z!L-&)L--;!,H;A!&,5)5)d'B!C!C!D!C!E!F!U,!,[>_!>'G!u-'>H!s-i;.,.,S;t-G*G@G@U;I!$)1>H@J!H@k)p)y,y,k)K![>k)L!M!N!/@)&k)%,%,O!%,/!_!P!1;m):!Q!S;R!S!T!U!V!G;H>&,S,),y,/!:!l'W!g'X!f+l+u=1.y=z;m-z;.-x;",
"Y!Z!`&^% ;h*;>{+`! ~G&s#B B B B Y+W+W+W+Y+C / ( ( ( ( G'.~.~.~x&%+p>N,'+L +~v @~C&<%} :%D.r=l!5@.*l!#~_$<%_$($<%z.[ [ < $~z.< z.[ 6'C&p@w.v.R); E'T+%~&~u m>*~A-=~-~G@+-o)o)*);~],A>A,>~,~'~j,)~!~~~E!{~]~^~/~h-(~_~'>:~<~<~[~O-U@y;o%o%S;R;.,+,S;}~|~1~2;u-u-1>H@k)%,2~%,/!y,3~4~5~6~7~2)v,|! ) )8~L-9~0~a~b~c~d~T!e~]'f~S,;,o'g~B,H>K!h~i~j~k~l~f+S#Q%m~7){>_.~,_.j'm-",
"n~o~p~/%u=0)4@H+t+s,F&p@X+X+X+X+y&y&y&y&7>D %+2'2'2'2'd;.~q~.~x&: p>K '++~%+p>O)C._$} #~D.r=r.5@r~l!#~_$_$($($<%z.[ < z.s~6-< z.[ D$C.S)v.> R)t~J)U+$+u~C 7+v~$--~w~t-U@x~y~z~A~B~C~D~G;&-G;:>E~F~G~G~H~I~J~K~m;P!}>L~M~N~N~G!u-_@y;_@$;L=q%k-l-U@l-_@T=N-N-N-s-u-+) )/!l'+)O~;;(@]@h.n+P~%,:!y,Q~R~1;S~T~!'1;U~{'q;{'s'V~W~X~Y~Z~`~ {.{+{@{:+;-q,i.o+}.#{${j'e+c+c+z;j'",
"Y!%{g&&{F#c)*{J+X$R % ={W+X+X+y&y&C)C)y&-{;{>{L L L ,{>{o>o>o>Y+w@t@t@@+v p>s@C.M.D.} &&D.r=r.$ r~l!:%_$<%_$_$D.} ^$[ < $~z.^$[ ^$c 2 p@w.' 3*t~P,s@'{'{){!{~-^;t-=@/>T=u'~{~{{{]{^{M>/{({_{:{<{[{}{|{1{2{3{L-4{5{6{7{N~N~<~[~O-G@l-U@y;Z=r%B=L=@-y;y;);,>,>,>u-H!.)l'.)O~+)k';;b+p;8{{.9{Q~Q~Q~0{P!_!D,a{r'm;I!t-G@=@t-b{V,0'o'g~)'c{d{};e{O~f{g{h{1!A;i{j{Y={>{>z;];];",
"9*7*k{Z!|.j*l{b)!>5,P.m{m>m>F+Q;A)o>o>o>C w@w@/ / / / w@A)o>o>A)w@( G'@+@+Y+/ 2 B.D.B.<%D.r=l!5@.*r=h&($:%h&($_$A.1 < z.8-6-< z.< C&2 D)n{o{X.R)p{( q{G$G$k#u$-@_+x#,!r{&)!,H;H;H;I;s{t{A,A,u{v{w{x{y{z{A{j-x,2)B{l'+)3;C{4;G!u-t-G*B-_@{>~,[.[.G@U;I!H@Z 4;*@*@D{E{R~R~F{G{H{I{I{J{K{L{y,y,%,%,/!l)J!l'M{n;G=k-n%J=r%x-]>y>`,N{O{P{a~Q{R{S{S{T{i.%%}.}.#$f%6;.-.-x;U{6;",
"V{%'W{X{X!W@j+J&=%$%|.2#3@|$|$q+;)h;h;`-H.5 Y{Z{Z{Y{Y{Y{a,a,a,v%($()i!()2 !*D&v%($_$_$_$<%q=l!u+t+q=`{v%o!r.r.v%_$D.<%_$j@a,_$($_$4'()A { 8@_ _ p{O)M)M) ]H'.]+]@]#]$]j!%]&]*]=]-];]>]H.Z{Z{5 c)l{,]'])]!]~]{]]]^]/]2;O~(]_]e{;-u-O-'>O-J!+):]4{4{(!Q{<][][][]}]v{|]w{|]1]|]2]3]4]5]5]6]<.7]2=5=q;^@8]9]0]V= ,a]8#b]8#b]c]{#,#d]e]K%;.E+a)a)a)f]J&t%F#F#Q%}@@;g]g]<=h]i]",
"j]==k]l]m]-%Q%l+%%n~n]W@[@2.2.g+w-V*V*`>g]~;o]1&W#W#o]o]a,a,a,v%a,<%D._$a,L)<%a,($<%a,($p]4@%#r+6$4@[#q]r.l!l!o!($<%_$($p]v%($a,a,r]()s]C)' X+=.={C$t]L)u]v]w]x]0!c;_ w@o{y]z]A]B]y+C]D]E]F]G]v+($M)- M)H]X%(+{+j*I]J]O~e{(]e{e{G![~K]G!D{L]D,D,,,M]N]v{O]P]O]O]P]Q]R]R]R]Q]S]D!T]U]V]W]j':.<.+,:@x-X]g]2#;)<$s]3-t@w@G'Y]~*G Z]`] ^.@.^t]v++^@^#^$^%^y$5%H#`>1#1#X%^=^=",
"V{%'W{@*&^V@*^T#o+=^f+@;X@[@[@3.w-^=^=W%v=`>4.5.5.3.3.3.* `{* * `{:%#~:%B._$B.<%<%D.a,_$p]y)8!r+6$4@-^;^o!r.r.* :%D.<%_$p]a,_$($($3'()){x+C): '@={x%L)s+i&>^a!, ,^C)7>'^)^!^$&N.~^M't,l.g+/=%'s;{^]^^^/^;^C*#@C@|#0&{!(^(]_](](]C{N~G!N~_^C{&)D,:^,,<^}][^[^[^P]}^|^1^|^T]+!T]2^3^2^4^5^:.5=/@6^/@L=;%A*;$H.7^={C : X+C 8^9^0^a^&~b^c^,;M)E&5*5@d^J&O&H# $t%W%I.I.I.X%X%",
"e^==f^%'9]U>g^h^V@l+S#W#o]W#i^T;~>j^k^l^c>>)3@|$|$3@|$m^`{`{`{* `{#~#~:%#~* :%:%($D.v%<%j@y)8!X$6$4@-^;^t+l!l!o!h&<%<%_$n^v%_$_$($r]I's]y&H%: q~2-w%o^s+q=($X+y&p^q^'^V+9>9>P)r^s^t^u^v^w^x^y^z^8!l!l!l!p.#&A^B^C@['H@C^};(]e{(]C{[~G!N~D^<~E^j-H;),,,F^G^G^G^H^I^3^J^K^L^ !M^M^K^N^O^P^Q^I!R^S^6^$;&$e%@#|'T^U^o>]#V^W^.~%.X^Z]Y^1,~ x%Z^`^ /+''$H#$$.$./+/8&h;|#h;_,+#",
"h{g+@/#/$/$/W'W'T>%/&/*/2&9]=/|.d)h;+#q*/'==-/;/>/o*t,. h&* ,/,/$ '/:%4':%:%:%:%:%:%h&h&H*8!%#R.r+)/o.)/L)v+t]L)($_$<%($l@($_$!/p!~/1 +]x]{/]/^/q~q]//(/_/:/</C)1'F'V+; < < z.^#1 D.[/}/0 0 ,)P o.X$r+o.|/7&E*Q v-*=r-1/.)l'l'.)+)H@J!J!2/s-3/g-4/*!^,5/6/7/8/9/0/a/b/c/d/e/f/3]g/h/i/j/U@l-:@}~k/j;q*l/m/n/B'z)P@I)n ^): P$;+2,P$c!o/I'l!p.v+o.p/q/r/u%s/U%5.V=1=w=^=^=",
"_@'!t/S=u/X;A=u/X;v/A=w/];R#a+K=d*C*I+5,j*d*5.W@2.a*`%%^x/R&Q&u#5*3 S); ;#;#;#f;f;f;f;f;f;_%e;f;F+F+| 1 ^$| | B.S.i%i%j%Q.t+N.y/z/h&r~A/B/>/C/.'D/E/F/L>G/H/H+I/J/K/m!r]^$[ A.} A.} u#u#J+K.H+H+Q.I+}#I+X%L/b*`%1.#*`=#/M/N/N/M/0>|'|'0>O//]P/Q/|=R/S/T/F-K~E-V!G-U/6].!V/W/V/X/Y/Y/Z/`/n+n+ (l-/.@>.(g=e]W$;.Q;_%Q;P,P,t~!*O)C.C.i!i!4'G+A.< E.d%K&K&2.J&8.$$O#+(@>@(@>",
"^>#($(e~C-B-B-$-:.B-$-c+ (^@/@L#a&I+6#C@{)7 b*b%7.`%a*b$%(&(*(=(-(X-, ;(>(>(>(>(>(>(>(>(B],('(V&V&6@9>^$^$^$^#%&i%@@t#@&)(w*!(~({( *](c%$*|.#*i)^(/(((_(:(<([(8%}(/&@&8%W&B.B.} D.N.u#u#8!y)j Z>;*C*C*|#E*U%j+z*b%a*e%m%|(1(1(|(L,2(3(L,L,4(0&g h;d*5(6(C>&,I>7(8(9(0(a(b(c(d(X/V/Y/`/e(z; (f(h.g(h(c=L@2,c!i(c 2 _%-#[ S)p!!/p!O)4'd j(A.6-6-<#P%*%*%9.k(R%2%l('&l('&#>",
"m(n(o(c~v;G*G*G*5=G*G@p(e+q;}!&>Q Q.Q.~+{)b)a$`%[@u=W@W@q(r(s(K.q.3*' t(, , w.w.> > > > 0!'(w+V&V&X-d@;#d@< A.%&))S #&$'C@b=,/m*u(v(`$c%q+w(A*i+x(y(z(A(B(C(D(^+U *#H&^+D.} } ^#1 G+u#S.Q&J+j E(C*I+I+;*X%6.b%i+j+`%V%c$e%b-b-e%`>V*V*`>F(8 ;*Z>J+$#G(H(I(J(J(K(L(J^~~M(N(O(P(Q(M^R(S(R(p((.4%a+'&T(B@.@N,+~U(b!; V&f;-#< /$:$i&v%_$D.<%1 [ [ a }&K&2.i+U#f+n+^.V(]@{.e-",
"W(S!X(Y(=@t-v;v;t-v;t-2=<..,}!&>a&6#Q.~+1#Z(1.$%#/9*`(Y@ _._P&Q.u#V.7>+_R)R)X.X.X.X.X.X.f;_%e;;#-#r>} } 6@^$[ r>i%= U #'c)@_`{`{%&*&w*c$#_$_%_&_*_=_k,-_;_C(>_6$q=s,)/6$} A.D.B.N.G+=#5*Q&R.J+Z>C*6#I+;*Q `%k+X@|.`%1#5 w-e%e%w-V*^=^=V*T^C+~+k%@@*$,_'_)_!_~_{_]_^_/_P((___K^#!:_:_<_:_[_}_c+/@|_1_2_2'-+L U(3_u.z._%/)d@6-6-B.<%<%A.N.} z.z.E.V>*%=%9.1&X#!.{.d.{.!.R@",
"{'d~4_5_G*U;5=G*G@G@5=p(6_^.>;7_a&}#I+C@/+5,h'Z!.')$>/8*Y'f P T F&L'8_9_p@p@S)S)S)p@p{p{S)6'Q)P,L'V.j(j(z+9>^$^#0_i%t#t#J.<#k@r.#~(#Z$e%a_I&. %'b_c_d_e_)'f_I]7!& v#r=K.} A.D.G+'/G+S.S J+4@J+E(;*}#I+C*a&j+1.=%+$`#b-M&m/g_g_m/h_i_j_h_d*w-k_X*>)5,l_m_n_g~g~o_p_c/q_r_1^s_t_u_Z/v_w_x_}~a+^./.|_y_z_U(>+2'v A&Q)_%m{a@-#a,t]_$a,l!h&G+'/B.A.4#r,A_=%9.B_X#!.~.e-~@{@{@",
"[!n(C_D_D;G*G*v;t-t-t-7]Y=L=l-K#0&6#D@5,d>w'E_F_G_G_H_H_I_J_K_L_M_N_O_P_' , w.> > > > w.' U&v.t~R)u.S*A&9>9>^$6-Q_R_R_R_S_|/5#T_U_`$V_Y@0,1&T;W=W_X_Y_Z_B,`_9)s=-  :.*s,D.A.'/e '/'/T R J+J+Q&E(;*C*}#}#7& $*%`(`(=%#*V*I.5 5 I.C+U*U*C+e)2.>%C@l%b)/=.:+:@:#:$:%:&:*:=:-:;:>:,:':):!:~:I=M={:n%g(N=8^{ ,@! q#d@r>r>]:E.r>_$a,D.<%h&#~'/T_'/G+4#^:/:e^K&-%-%{.8{V(8{(:(=",
"i;_:::5_[.e+e+<.c+e+e+d+Z;~@g.>=j*P O.5,i%l!<:[:>.}:D#|:1:2:3:Q$4:5:6:7:7:8:9:E%|*R$R$R$0:a:2:2:P*b:c:o{6@>#6@f;2-A)o>A)d:3.I&e:f:X{A_g:e'>,-,I>h:+!i:j:e/k:l:_$m:n:p-o:& =#u#5*S.5@t#s.Q&j Q&H+l%;*;*;*W%p:,!q:_:'*x#p:S;i;i;S;.,q;q;.,Q-r:z*s:t:u:o]v:w:x:y:z:s^x:a@L%A:B:C:D:E:F:G:H:v*X'I:J:a=^+Q;K:>#9>d@L:% y)+^+^M:M:N:M:4@%#4@E(@@3,i%~+,*$>O:&>e+e+s-L;$)L~D;O-",
"P:~,+,Q:G@j'X=h./@R:%>7_6_ #~@S:i*D@j Q&/+l%T:E)C 2,t@@+o=o=F%F%U:V:W:X:X:W:X:o=F%o=o=Y:Z:`:E% <U:Y:> '('('(>(>#w@B s]s]8^.<5.7.}&@*+<@<M>#<n'o,;,$<%<&<*<=<-<4';<><m*z:f f P f f f P O.^+^+^+8&>* ,:= ,h)5>9-/>m(i;%@B=S;i;_@y;:@k-k-R#,<'!z*B_1.P%'<z.D.a,} v%N.N.G+T_B.)<!<~<o({<]<{>r.r.`{o!v%v+^#1 q!q!/)^<N:s++^8!+^4@4@M:-^R.o.C@C@k*7 9&L#/<}~^@e+c+A-I@=@s-=@D;",
"=~_@(<_<G@_.w/h.r;R:r;g.n-4%~@:<['<<O.Q&5$6#[<E)C P$@+$+E%E%|*R$}<7:6:8:8:7:8:|*R$E%E%S$Z:Z:R$r&o=|+v.'(B]B]>(V&w@Y+o/o/8^4$7.a*P%./|<1<:>E-2<--=-3<4<5<6<7<|/8<9<0<* a<f P P P f P P O.Q&Q&j |#C*|#}#;*<=b<@-R;i;R;_@R#y;U@U@y;R#k-k-R#c<*>i+h^7.4.E#v%i&L)B.L)B.'/G+e D&4#d<e<V~f<g<)!r.r.* o!* v+^#| s^q!/)h<s++^-^8!+^y)4@7!+^R.X$$#*$h%7 9&L#r;/@^.e+e+A-O-=@O-D;L~",
"F,y;]'Q:j)_.m-<./@6^}~f.4%w/ #i<(+i*D@6#D@Q.)@|:w@P$@+$+|*|*R$R$}<8:6:7:8:7:j<|*S$|*|*S$`:v&R$ <k<l<> B]B]B]6@V&_ Y+w@w@m<n<T%/=%'o<p<q<D>G;G;G;:;r<[]}]M(s<t<C$i!{(t>:$P.P.P.P.P.P.f P u<u<s=9 E(9 **j$h)b<9-c&R;c&L=L=_@_@U@L=R#k-k-k-v<K#h+w<z*h+,$_$<%($A.a,B.1 $&$&j(&&x<y<z<A<B<C<.*o!* o!* t]3 ^#D<$~/)s+s+8!+^8!8!y)y)Y>8!R.o.$#*$h%7 9&&>/@}~h.<.Q^D;O-=@1>L~L;",
"E<_@v'$)j)e+w/m-r;}~:@4&9;C=i<S:j*O.P Q&3,j%E$P$G'P$( $+R$S$S$R$E%8:7:6:7:7:j<|*S$R$R$F<G<H<E%I<J<K<, B]>('(X-V&_ Y+C Y+L<a%X#9.o<-=M<<(j,u{N<O<P<Q<R<S<T<U<V<W<i&3'X<L)f f f f f f O.D@D@Q.D@|#_,+#_,c>[=Z=/-Y<%@c&L=0-@-@-q%L=R#k-].].O:x-W={%`%b%Z<a j@n^&&* :%G+N.N.!^u(`< [=!.[x!z<)/6$-^+^[#8!4 c@+[L.a@N:%#%#%#y)%#%#%#Y>%#R.o.*$C@k*h%9&&>:@l-k-e+c+=@D;v;D;]>]>",
"d-P#@[R;A-w/U{M;h.k-*>1$S:#[$[<-I+H+R_%[& &[: _ ^ _ ^ @+*[=[=[*[-[;[>[,[,[,[;[=['[=[=[=[)[![F<~[F%3+, >#6@>#6@V&_ C w@C }:L/Y#T#h'{[][^[/[([q<_[:[<[[[}[|[1[J:j@n^o!&&u(h*h*h*h*h*x)!+Z(2[3[2['%4[5[6[7[9]L=q%y;l-y;a+L=U@U@y;y;y;y;l-l->;k-8[c$4.2.3.9[0[a[(#0%(#~^b[b[J'c[d[p:b<-!!;=!0%)/0%)/k!+^4 @_4 E.L%+^-^-^)/6$=#r=l!e[l!=#t+[%:=h%7 E*I=^.f.~@:@^@);T=(<K;H,/>",
"f[g[C/h[i[j[V S_k[!=W>@_-<l[s>3 m[n[h=h=q#L@o[2:3:m=p[q[r[s[s[t[s[u[v[u[u[u[v[v[v[u[u[u[j<w[B%Y^F x'R)V&V&y+V&V&^ _ ^ _ E)x[W#@;}&e:/=y[z[0>E*0&r+$]A[E)B[C[a*D[x[E[d$d^F@F@F@S{S{F[G[H[2)I[J[3/I[K[L[M[-'~!N-u-'>W!I@I@B-B-t-=@D;O-O-O-k)D=Z@b%9.=%.${: [N[N[(-O[u%!)P[I& -t,['k[k[f]h*;*|#;*|#C*Q[R.Q&P 6#P ;*}#}#}#}#S.r=o!% r.r=.*[%:,F.F.0&O#e.e.j.i.o+0+n+V(R[8{R[",
"S[t,X&g+4.Y's+R.o.P.v+w+>#>#6@y]T[*+M@M@T$Y:j<|*[*n=U[V[W[r[W[X[r[u[Y[v[v[v[v[u[s[s[s[s[j<Z[`+`[1,1,X.y+V&9>V&y+=.^ =.^  }.}*^W#m^~$t,+}H+Z>j$@}J_: 2*f!X+#}I&9.<@U>z*4.(](]_]_]_]e{$}h-m;L-<>),I;),%}J;&}J!$)s-=@u-t-j)=@=@D;1>J! )k)k)0{H!i)W@S%*}&^M-z-=}C-B-L=A;n]`($%`#0* %&#!>/+!>$#C*l%C*}#,)R.K.P 6#f l%D@Q.Q.6#j%r=`{v+* r.r~w':,U*C+0& ;o+Z##$j.a.~@C=0+f.g.f.",
"-}|@E_3.3@4@h<-(% {$;}>(U&>},}'}H<r& <)}![![!}`:~}G<)[3:t[t[r[X[r[u[Y[v[v[v[v[u[u[v[Y[Y[j<X^G {}F x'R)9>d@y+V&y+^ ^ =.^ ]}m/^}*^m^/}Z<k>(}_}:}<}[}}}x |}1}X+F_`(%%T#B_2}8~8~8~H{8~@)<>K-m;L-9~),%}],,,,,4{p)L;.)]>L;$)L~$)$)$)L~p)3}>'4}5}l'&^R%`(M<6}_@=~7}(;X t-8}9}h{c.}.8.6*N%S $ R $#_,l%C*}#|#J+**]+I+P l%Q.I+}#l%i%q=h&L)`{* r~w'>*F.C+E*J#o+a.f%Q%#$).4&R@4&~.4&",
"B/%'W{X{5.|/0}a}4@4@Y>.]b}6@6@n{K<2+c}d}a:e}f}|*}<|*E%|*g}W[r[s[h}}<i}f}-[*[,[-[t[Y[s[s[,[j}`+X^Z+U(P,6'd@_%d@y+,@^ ^ ^ k}l}.<U%3.i+a$d*$#_,~+_,))G$@+|}m}u {%T%7.n}:&7.o}C{l'%,k)J!j-e{I;I;%}%}:^:^:^:^m;L]L~1>L~H@S;^>#;#;#;D;3;+)+)+)$,p}=%>/^:9.q}_+=!y=r}r}Z=u=1.8.j+b%`%^+X$$ v#q=s}9,t}-*7 C+u}v}b)w}v}{)v}|#!>~+l%)/,/ / /r~6$;*v=^=^=>%Q%a.a.j.f%a.~@g.e-n+0+4&",
"  # x}a_I&8!^<y}N:r=% V&6@w+3*w.1+E C#~[z}A})[0:}<|*E%|*B}C}W[D}h}E%[*)[E}7:F}j<E}9:6:7:j<`+`+ ^q#i(Q)U.1 | [ < G'/ _ _ H)G}.<4$d$L&2#H}_,c>$#8&I}G$t@+~J};+b*<@|.`%`%T#.{C{.)J!3}3}&)L-I;I;%}%}:^:^:^:^K-H{K}L]L;J!Q!$)X X w~w~L;p)L}L}'>u-M}N}O}P}Q}$)]>Q!]>v;S;R}S}T}1!8}g'U}2[V}W}X}1#^=~%,%1=V=x)P&i*0&k*s(u}l%D@C@I+)/r~,;,;.*6$}#1#1#v=^=u=#$l+a.Z@Z@4&f.0+g.n+4&",
".#(,Y}p*C@k}Z}'@`}|:G'K*e>j&L@) %.8@8@y.x.2* |.|T$Y:F%T$!}v[+|'[-[q&z}<*@|7@@|I%2*U$R*q>2*o{U&T&;#3 v+r.r.o!L)t]L'U.P,Q)m>h&#|$|%|&|b=c>q*l. ,(,s$G$u@'+>{D##[*|X==|U{*|N~-|u-1>p)4};|>|,|,|,|'|'|'|'|'|4<q':>q'S,@<K-H;$}<><>};%,k)k)2~)|(!#:!|~|{|]|^|/|(|'|>:_|6{:|=_C>z,>|P{<|[|}|||P#1|$;o%j;o%+(C'&%H#%^0&c)O.P ^+O.6$$ 2|2|5@o.D@P b)S_S_3.8[2&2&3&T%R@n+e-n+R@{@",
"*=c>3|8&4|;.)#%.! ! ! j=E &+&+5|H%x+^/6|I%I%7|b:Y:l<Y:l<8|;[-[=[;[^*i=@|<*9|i=8@] H%] y.w]V&6@_%r>l[-^0%$ t+l!r=o@o@0|U.j(i!a|~(T_b|b|Z'p*. q*>)t$c|s@N u T:d|C<w;y=y-B<A-=@D;G,e|f|,|g|h|h|i|i|i|j|i|i|k|l|m|S>V,G;$!n|m;:^:^I;Q~o|o|2~p|q|,|r|s|t|t|u|({v|w|v|x|]|y|z|_{A|d'k,h|B|B|B|i;R;i;m(C|i;(:V(e-~.I#P&S_P.O.f f o.u+2|2|u+o.P R.P h 0)2#b-b-|&~;2&0.e-(=e-!.R@",
"*=c>3|h;<$K%D|7@{ ! 1,B%I F F 1+C)~#~#w]q>q> | |F%Y:T$Y:j<,[>[-[E|B%<*i=F|G|H|^/w]8>Z}{#6>9>_%^#/#L%X$6$t+.*.*t+I|l l I|L'D&t>t>J|*&%|w'q*l.q*>)t$c|s@K|u L|M|4!<.h.w/N|s-O|/>/>P|Q|/|R|j|j|S|S|S|S|S|S|T|G>''U|D>S>V|r'9~I;%}1;0{f|4}0{@)F{'|W|({X|Y|Z|`|Z|Y|M>k, 1M>E>.1S'S'.1G>a'o')'y;S;+,i;.,U@d.!.=^d.&%+1!>r+S s.f o.u+2|2|u+X$P j j O.P A*2#4.4.%*3&!.~.{.~.{@).",
"Z*c>@1+#o$#1$1x.%.=.) G 1+&+E 5|H%8@6>.~q>q>%1 |F%Y:T$Y:}<-[*[&1*1`+9|9|=19|i=I%y.H%,@_ Z}>#;#b T./#6$0%5@$ $ 5@o@K'K'o@v>()()D&e #|b|-1 ,]= ,]=f*c|u~K|K .(Y=;1~,k-j'x=G,O|H,K;e|>1^|R|h|h|h|i|i|i|i|i|b'''g~S>;,o,3{,1I;:^:^I;K!k)k):!3;D{'1$<)1!1!1l,;_~10/l,{1B,O>m,m,B,n,B|G>((]1^1U@c&i;R;U@9-R@{@/14&).f]^+P.T u+O.o.u+2|2|u+o.O.R.f f P.|@e%e%e%%*W#s%~.!.{@R@).",
"*=c>Y}+#(1#1w]$1d]^ ) <*G  @_1_1y.,@,@,@H%x+:1<1[13+[1;@j<;[-[}1E|G j=y@=1=1=1I%y.x+,@_ ^ 7-l*^$3 |15@$ .*r~.*r.I|l l I|I|i!B._$<%&&Y$8&[&1% ,]=f*c|x 11217+ #<.z;x;B={>314151617181g|91j|j|j|S|S|S|S|j|01O>o,i,o,z,I;%}1;9~9~a1k)>'>'+)l;/!b1i|Z|c1B|n'.1S'W|d'{1E>L>L>B>>|C>d1D>i,0'e1+,S;+,S;q;y;e.!.s*f1g1S_f f R s.O.o.5@h1h15@6$O.T O.O./+t,3.4.g+~;o]s%~.!.R@s%'.",
"*=8&i1p*|#j1^/{/'#{#r#<*j=k1J*L@] _ _ ^ x+8@l1:1K<;@K<K<9:*[&1&1*1`+L@L@m1m1A}q>R*x+] : ] T&t~P,r>j!r.t+$ t+r.r=o@K'j(0|%&<%1 <%E+a 9$+#n*1%[&]=f*c|x 11N )@U{z;R#J=.-z;n1o1p16171q1'|w|;_c1c1c1c1c1c1c15<S>V,S>I>=,9~I;I;I;m;};%,+)+)+)r1s1/|&<t1I^B|d1T<u1w|W|i|v1j,u{=_w1C>>:A,B|O>B|j)x1y1j)I!G@p;`;z1Z;A1i P T = }(D@6$5@B1B15@6$O.= = ^+!># # #*/=|&W#'.~@{@~.9+).",
"$#t#Y*C1D1} z.6--#W&A&-.K p>K p>E11+3+1+5|J*8@I%R*I%R*q>) y.5+%.5+X+x&x&F1y&Y-x%v%a,C$G1H1I1J10/T'K1],L1A>],),H;&@s-A-N-M1e+(@R#C=].7]K>H>',&,Z,5{3}3;71[~N1b1^|O1P1Q1R1%<S1T1&<U1T1T<T1V1I^W1 15)h:t{,'A,F{J!k'@,@,'&J#X1+(O#f-Y1,,Z1`1m;!'+! 2S|.2b/+2[{[{[{@2#2!~1^1^$2%2&2+2&2%2*2E!V] 2|^R]D!=2-2J;V|>-a~M/*};2  e%b-4&e.(.>2{.).['{+{+g C@*$q* , ,8&8&8&_,_,_,8&c>",
"E*t#Y*m$R&s~z./$^$,2A&! y%p>K p>1+2+1+&+J*k1q>U$q>U$q>I%D|R*5+{ 5+y&C)x&c:H%.~H'($_$'2'2'])2!2~2L>U'),{2A>',D,H;L;s-D;O-=!e+/.:@ #B=2=]2I>H>&,H>]23}3;u-G!D{b1^|^2R1R1^|T1+!W1U1+!U191T<6<T1T15)A|*,T'/2&,@)J!W!@,@,'&J#(2@(O#(:_2J;J;=;K-M]U1Q]T<S12^[{[{[{[{@2#2!~1^1^1^!~Q]!~[^R][^Q]3^D!D!+!D!=2<^J;V|>-_2M/*}:2  b-e%).m+<26=e-:<Q C@C@~+$#_,c>c>8&8&8&8&_,*$*$*$*$",
"E*t#[2}2|2b@s~W&[ 6-z+O@y%K y%K 3+2+1+2+1+2+125-125-124-k&~*X^1,1,p^p^p^a!x]Q;x%L)q]q]q]0=22]1.1T'U'D,F-Z,H>),!,p)1>D;O--!a+>;/.f.k-4~O{Q'),,'z>J>>'1>3;L;L}!|3242526232T1+!U1U1D!W1T<&<&<T1&<A|v1*,t{/2&,@);'W!72725~q/2%$$!.V(4{,,,,;~L-N]82Q]T1D!R]@2[{92[{[{02!~|^1^1^!~|^1^}^R]Q]R]3^D!D!D!D!=2<^,,V|>-_2M/*}:2k(b-$*:<d.<2>20+R@v-{+{+{+{+8&8&8&8&_,_,*$*$$#$#$#$#",
"E*t#[2a2|2p]a@b@^$[ < ;.p>2'p>2'+.&+2+2+2+&+4-p^2'D'd;%+1,.@z@z@.@D'1'7>6>q~o>a,3#k![#b2c2d25<e_>:4):^G-Z,J>),Y1p)L;]>H,e2^@f2}~/.^.3~_[Q'],,'&,H>E{N1&@g2o|h2i232j262k2[^}^&<91U1T1T<T1l2l2m2j,n2h:*,7(&,a1|!)-72o2p2q2q/ ;0.]@r2',',D,K-A>82R]W1W1O]s2929292[{t21^|^|^|^!~!~|^Q]T]T]T]J^ 2T] 2 !u2J;,,r'v2_2M/*}:2k(b-#*:<R@6_7=e-a.Q/~+C@~+]++#1#d*1#V*^=^= , ,q*q*q*",
"d*d>~]w2J+k!a l@b@A.B.I)U+s@T+s@E1+.E1#.k=l=^ C ( w@){){! ,@P$2,G'( s]s]2-m>B)0%x20%)/0%y2z2X,n'>|[|L-F-],/[Y1Y13;A2K;O|e+<!B2C2D2E2F2G2,'H>Z,h:H2q|G{)|I2J2L>K2z|y|u{y|L2M2N2s|O2v{P2P2P2Q2,|>:L>t{L>t{Q'@)|!W!r1o2R2C''&{.R@(@%,(~I;<>n;],S2M2 !S1P]T2@2[{@2@292S]1^!~1^U2S][^&<U1+!U1.2 !D!+!V2W2X2:^!'v2Y1M/*};2  b-#*'.b./1f&{.c.k.5,Y2v-W}/=X]Z2i[`2+; 3m%m%1=r*.3",
"1#[%/]+3M&;$8&A/A/;)@3o!#3E&- $34'!/h!!/~/t]0_%3@}p$))))q$q$o$r$s$k%s$I}@}@}}#w(c%}&h+A*,%2;&3*37{1>j)=3j)x1j)$)4~r;>;r;v;-3b1s{d_;3>3,3'3Q2K2r|j|4]5])3S1.!d/L^S1.! !B!!3~3j,j,T'h:-2q|{3]3{3,,X2A>J;',],_^;'W!r1^3/3O:q;/.h.:@L}0{3}3;I@D{(3N<N<N>_302:3:3:3<3[3}3U2U2|313|3R123~333j,!143%<4343[]X2),5363Y1M/73;2  b-$*f%Z@`&%/d.d.q/;=J=.-].839393t)03a3%!^[b3b3c3c3",
"X%w'0]d3^=h+4.d%m^3@m^W>t+$ r.q=#~* `{a,k!-^**C*C@*$:=:=+#c>l. ,p*:=/'r*;*_,:=@*l]S%[@g+!$+-F,e3x1(<v;C;t-t-G*C-a+:@^@^@f3g3i|c1h3i3Q2~3T'^|23w|w|y{j3#!+2k3I^b/G^b/I^3^u{33>:>:s{&,I;R~:!y,:!y>),Q'],Q'],_^;'W!r1P~l3j;S^.,:@G@L~p)L;A-^-J!z>h:h:7(A|m3<3<3<3n3o3p3}3}3q3r3s3~3!3n2u{N<)1e/e/S|S|}]J;],E,E^/[M/73>]k.e%$*#$<@p~${c.e.%>4&f.c+p(&-S,D>e'*-E-K-};y,l)t3u3",
"W%w'v3d31=W@#*==l.l.c%o-W>r+X$f @^-^[#[#I:|/h%X%~%^=1=1=>%,%$*,%k.]]&$'%_,:,.3;/w3j]=%R%}&L=`)x3t-_@B;/;B-B;$-^;^.k-h.].I{6]Z|y3z3~2e/A3K2s|B3C3D3S]V]2^}{E3y3F3G3]~H3F3j,T't{B>I3S,9~8~#,O~%,y>H;_>L-&)K>(]|!W!o2^3l3j;J3R:^@G*]>L}'>K3z!'>O{,','Z,N<L3:3:3<3<3[3p3U2U2q3r313~3!3v133A,7/%<%<e/e/}],,J>E,M3/[M/73>]k.w-#*#$Z@B*p~A;h{%> (e+p(N3:;O3P3Q3R3u'r',1J2(~(~(~",
"S3p+T3t$t$U3q+A*V%U3V3v+W3L:- X3X3b,t>t>q]3#h;*$:=C@*$C*f*f*f*f*w'[%Z%!%Y3r*F*==[@X@g+g+8[0-v;#;z-~<$-t-w;X;X;0-g.k-O:v<Z3`3,|3391e/ 45<R|T<91.4913^W]U]+2U]2^3^3^3^.2.2t{t{(|t{(|P'y,k))-O~%,Q'A>',J>],q<%,>' ) )O!+45=@4@4q;r;]!u-O-O-#4*@*,n2c'Q>_3o3$4:3:3<3o3#202#2%4z{%4&4]|j,j,>~!1S|43T<43'|],H;>,&)*4=4e%M&V%4.}'&%k+Y@n]-4c.6_6;~@^.[_Q'7(N>;4;,C,I;1;_!L[t3b~",
">4(},4q* ,l.$*3&@;b->)6$6$o.5@$ .*r~.* /[#3#|#_, ,_,8&C*q*q*q*q* ,:,>*:=r*.3F*==2.2.[@2.3&M-L~'4X z-G@x1)4)4B-v;}_+4)&!&N3>3Q2l2!4R|S|i3u1R|R|.491b/U]U]+2V]3^b/b/.2.2.2/|>:,|(|/|w1r2y,)-O~k)Q'',Z,J>],y>k)k)l' ).);;2=}!~4~4}~H!u-u-'>#4Z I>*,P>Q>_3{4<3:3:3<3[302s_02%4]4z{~3&4j,]|]|7/e/43j|e/,|],D,53:^93i[`>W%H}e%^4`@k++$+$-4i. ( #g.c+/4F;z>n,(4q'G-%}1;y,l)t3t3",
"_473:4<4B/[4[48]}4=4i]y2|414[(&#&=Z$w*c[X$)/~+~+C@C@C@{+,%>%>%>%>%,%1=m%r*.3/'w=$*#*#*#*i[);7{24-~/;'434e34454446474648494>:91}^04u|R|.4R|T<&<91&<3^U]U]%2V]3^a4a4b4b4b4>|L>t{A,z,=_c4:!l'l'k)Q'',Z,z>J>/[/! ).)+) )<!j)6^~4~46^=@G*t-v;d4Z I>*,P>n,_3{4e4e4e4:3@202s_02S]C!%4v|23u{j,j,7/e/43j|e/,|z>J>P>J>f4}4$*e%e%4.2&#$|.u=.$Y@%%B=(@(@Q^E2H;),H>>,F-),%}1;:!y,t3g4",
"L-8'h4i4j4|!'>|!'>,>k4A-s-s-);0-J#`#b%l4n<w(|$|@|@q+q+q+a.a.j.j.j.a.a.a.`#u=u=k+k+8.|.|.A;*4],K>=-F;;|_|5<m4e_3]B!n4':n4B!o4p4q4[3r4s4S]D! 2 2D!D!U]W]U]%22^b/a4I^6/b4b4Z,',Z,N]H>]22~%,.)l'2~,'Z,H>,'z>y>>'J!H@3; )3}y,r2m)t4l'W!H!H!;'u4Z I>*,P>n, 1p492[{[{@2[{92#2u_v4{4w4T1W1N2s|v{!1S|e/j|43}]L>B>W|>|x42![@5.5.5.@;5;V*u,n*.#[4R#=@v;v;I!_^*@*@N1D{H{};m;r2l)l)r2",
"D>y4z4S,&-/!L}H@L;3;+):+H{H{+),>m+`=k+j+t%6.V%X%1#W%W%W%a.a.a.a.a.a.a.a.%$+$`=$%=%K&K&R%2!A4),R>G-:;s{P2h|i|h|H^B4C4e4:3D4E4#2r4F4G4o3H4y{C!C!@!@!W]W]U]%22^b/I^G^6/6/6/%}I;,,X2A>a~2~:!.)%,2~,'Z,H>,'z>O{>'H@3;1>+)r2]2_!m)r2O~1>D;=@A-u4Z I>*,;,V,N>v402#2[{[{92[{[{[{I4J4s4}^T]T]M2K4L4j|e/i|43[]y|K2w|/|M4N4[@5.5.5.2&w-9&:,>*'%,&U@=@v;v;Q!L;-~-~O4P4K}@)r2r2l)l)l)",
"o,:|Q4V,A!)|3}>'1>H@L]L]R4*@Z u-A;Z#k+j+ $b%w-M&M&V%H}w-c.c.c.c.c.c.c.c.a.a.l+f+=%*%$%$%S4T4',R>>,*),|m2j|S|91t|U4:3V4W4:3:3@2X4@2G4Y4Z4!~!~!~!~!~%2%2$2+22^b/I^G^7/6/6/L-%}A>X2,,(!2~:!.):!2~I>(37(,'z>O{>'J!H!H@L}_!(~I;I;K-K-1>O-O-2;u4Z Q'I>;,o,N>]4#2u_Y492t2929292k3k3J4P]R]+!W1+!L491S|i|01r|z|`4u|33 5.5S%[@h+h+T%b-p*>)p*n*+5^;5=U;G*t-L~L;4;Z '4C{l'@5l)y,y,l)",
";,6{#5I>,'4}>'$51~J!L}D{%5Z N~k4o+%$u%P[`= $V*V%V%;$M&e%a.a.a.l+l+l+l+a.p~a.l+f+U#*%<&$%$/i4),R>E,o)e_K2h|j|R|D3C4e4X/W4&5*5e4n3[{r402s_1^1^1^1^1^%2%2%2+2V]b/I^G^7/6/6/H;L-D,X2,,=50{%,.):!Q~I>Y,7(h:H>T/>'J!;'J!-5}>;5X29~I;L-L;u-u-2;u4<~Q'I>V,o,N>z{#2Y4Y4#2t292[{92:3U4>5,5S]@! 2T]L4T<e/e_01P2~3`4u|K2'5 'S%[@i+h+/=^=8&c>_,F*)5o%I@=@=@D;t-$)$)j)L;J!l'O!l)y,y,l)",
"V,!5~5&,A!o|72A2/>72H@L]x34;N~k4X!.$+&y*.$H#^=M&M&M&H}e%j.j.j.a.a.a.a.a.`&s*a.f+U#=%*%*%$/{5D,R>G-*) 4m2,|P2T<w|s4e4X/W4]5^5e4e4@2/502s_S]!~!~!~S]%2+2+2+2V]b/I^G^7/6/b4H;H;),J;A>(!2~:!%,:!Q~I>Y,7(h:H>T/3}H@H!J!p)_~(5r'X2I;H;]>u-O-I@u4<~Q'I>V,o,Q>z{02u_u_02t2[{@2_5[{t2I4:5|^R]W1+!H^T<43i3 4r|23<504Q1[5 'g[[@[@X@[@w-(,`-8&n*,&}5Z)x=Z)=@t-L;3;L;=@3;.)@5r2<><><>",
"m,=_#:D>C>242/D=K;r1g2J!2;2;^-|5}@`#J&J&e$d$3@(,+#(,>)|@Z@`@#$f% $`%J&j+f%Q%u%9.8.-=!$o<1525M3W~354555657585d_*,9505Y/e4a592>5o4o4o4%4!~@!!~!~S]]4S1b5f/@!@!V24]4]c5d5e5f5G2(!(!=5l):!%,.)l'y,Q'H>7(H2g5]2c4)|h5i5j5J2(5k5V|n|F{/!1~1~1~L~p|7(h:V,o,5)p3S]v4Y40202u_Y4u_v4v4p4+!D!W1 2+!&<&<&<T<R|w|w|w|~1i3=,l5m]m5*%k(T%Z2Z2/]0]v3<4k-n5G*B-5=f|o5p5'4w~L]|;J2J2J29~I;",
"q5'1[]8/r5J{`;!.f-)&s5<2b+4%g.4&t56%w*8$8$u5u58$_&_&_&8$3&X#3&i+3.^=V*v=Q (+v=Q :,X*q*q*Z(>%R/v5w5x53;I2y5>'8~z5A5B5W4a5@2V1Y|.4W|j|91T1W1P]O]C3T<N>E>>,N>P>C5,13{D5E5F5K!K!K!K!:!:!:!%,O!O!m;S,K>,'O3n,K>G5U/d5r5e_'|^|4]4]U/'1I3-,F/F/-,>|h|x|n'n'({[3[3o3o3Y4#2#2u_v4p3p3v4+!D!U1 2W1U1W1W1W1W1W1+!+!c/@!H5c4B{*!I5J5K5L5M5*!R,d,I[N5l)O!x,t4>|T'_|K1O5K1b1Q2'|,|>3>3",
"P5b5B!Q5R5S5T5z1d.=^(=C=b+/1!.5%&=7%U5n:U5r~$ u+u+5@$ t+o]1&o]i+;$0&0&g F.C*h;l%;*I+}#@@@}s.U ^+f x)V5W5o|3}L]X5s4F4W4e4U4H^Y|i|h|i|i|U1W1U1[^P]T1(4Q>C,&,,'J21;1;a1K-<>K!K!:!:!y,l)l)@5l'Y5};_>),H>53P>R>c5Z57/7/&<D!s|x|h|i|i|M>m,O>n'0'i|X|t|j|i|u1u_e(e(e(92t2`5k3I4B4B4I4a4b/I^2^a4&<&<&<&<T1U1+!D!*2}^9( 6#5.6+6+6(!O{Q{O{:|_~}>(~c4O~@5r2(|`4^|/|e_014343S|S|S|S|",
"@6L4:5#6$6%6&6 #0+q/q2R@6_n-{@*66%9%=6X<`{* r.r.o!* * o!1&7.U%a$c$1#;*l%Z>**Z>Z>E(**Z>Z>q$T S 3,m@^+-6;63}H@4;p|o4T2>6:3U4L4)13]$<01h|43&<T<T1U1U1n2A,,'P{^,:!%,%,.)@5O~b~b~b~P~P~P~b~b~Y5$}<>e,*)V,>,V,n,j/!14^,6V1C3'6W1T1T1I^)6Z|.1R'''Y|!6~6w|W|{6Z4V4Y/Y/e4e4I4I4U4k3B4I4a43^I^2^a4U1U1U1T1T1W1D! 2~~}^S2 6_~]6}> 6',z>X2H>,'<^H2<^=5r2@5=5y|O1O1^2W|x|R|R|R|R|R|91",
"^6 2/6(6_6:6V@+$2%l(2%@(g&4&i<M=d[<6n:h1U5r~.*t+.*t+$ u+3.5.2#L&|@C@l%l%j$E(Z>9 j$E(Z>j$D*/+5$D@J+j*2;0{3;u-[~p|o4T2n3[6C4L4_({1B|B|x|%<T1T<&<T1l28(,'6{}6N{r2y,:!k)O~ )l)l)r2l)y,:!y,l)8~};1;*)C,;,E,P>J~b4|61626L4T<v{e/i|i|%<E>B|B|)'i,B|_{u1l,e_T</5e4@2[{[{B4<{%2%2k3B4I4a43^I^2^a4U1U1U1T1T1U1W1D!2^L^u25{(!(!f5H>1;S,J>J>K>Q'=,F{[>:!O!_!y|O1P1`4W|x|i|j|j|j|j|j|",
"r53646A{56B=G#+/./&{8*K=).66'. $~=6%d[->u58$_&_&_&_&_&_&i+i+3.V>3@$#$#$#l%}#6#U*-*-*k*7 |'i*;>Q&J+762;R~H!k4K]L]86Y4e4U4C4G^L4S|j|S|S|W1S1U1U1s|96+::|:|]2^,_!_![>K!_!K!/!k)2~2~0{2~K![>1;J;r';,E,n,c'g~o'.206L4H^.!(|<]g3b1a6b6F;C(x4p,c6&-F^b1X,q'B,y{d6d6I4B4I4U4U4I4<{k3B4a4b/I^2^a4:5,6,6,6,6,6,5c/6/.!e6],c4m)9~I;&)L-i--;j-h-n;e{[>O~@5m)(|`4K2>:e_e_m4m4f65<5<5<",
"g67'h6i6j6k6P@W.<:l6C[a$}@<@<@`#`#$$$$J# $`#u=k+8.8.|.1.k+8.1.'$P% ,:,|%E*1#W%m6n6A1o6p6Z{$=L<q6]#r6R#s6:.[.Z)s6t6#2[{I4t2V1I^W1%<V2T<T<e/i|91l2P2u6v6w6Z,I>z>&,&,,'z,&,Q'Q'Q',','&,I3b1T'>:n'{1d'i|~1_(O>01_(06S|>3F2s5x6y6z6N!A6l_2[y2 =B6G,3;:+h~F5~1m,n'k,M>.4W11^R]S]U2}3U1W1T1D!U1+2+2<{<{+2<{k3B4%2]4C6>34)d_K1D67<w~C;C{<~/;X E6-5L;O-L;X2F6X29~I;1;@)_^:+:+:+G6",
"H6:)3_v.o@; I6J6w@k#[<K6j+j+Z@}@b.m+f&f&!.j.V@f+f+}.V@V@8.|.o<+&r,>*$'L6a&v=g]U>U>M6N6O6P6q6( 1'W+D#[+Q!B;u/Z)s6j3}3`5+292M(,5W1U1D!U1P]e/j|&<82Q6R6S6T6N]h:*,L>A,h:A,/2:;G->,E,E,n,B| 4r|e/h|i|d';_~1_(d101S|S|{1U6V6f.W6)&R[@$.%O=U S ]+!=X6Y6Z6X(<+o'e'd1n'E>W| 2}3!~!~!~U2&<U1&<+!T1<{k3k3k3<{<{<{k3Y/u_x{K2T's{C>h,}|7{x1$)x1O-v;s-3}u--'u-%}J2I;i-L-$}E6`6Z6`6G!K]",
" 7.7^$E'J)s]i#+7@7#7$7O&I&y*6.u=`#`@0.0.(=e.i.Y@<&<&T*!$b$6.|.1.T*r*:=:=E*M&d*o6g^%7&7*7=7T:V+-7u@<:;7Z)L=!;u/E<>7<{I~,7k3,5&2Q]W1W1N2l206S|j|W2,|5{5{]2 6+:'7)7$:$:$:$:J>S,J>,'7(h:K2m2i|i|h|x|W|W|x|h|`|7/F>;_T1m2!78{8{~7f2{7Z(O.^+)(]7Y2,>N~|!]!L~^7i,S>S>i,m,L^@!!~1^1^C!&<W1&<+!T1+2B4%2+2v4}3s_s_/7(7_7:7h2>|d1S><7[7O-%@);%@G@;'u-s-L;:+};;~;~$!l):]u-k4,>k4-'k4",
"}7|7[ J)b!p@m>w@p>'^i#b*(%j+8.k+ $0.j.a.j.Q%}@1.1.z*`%y*`%6.|.|.h'r*>*>*0&1#E*g^A1%717273747C %+D)57.-)4i;B-B-P4t6`5`567:_b/G^W1+!+!9(l2L4e/S|4],|Z,5{5{N]Y,*,/2*,*,*,*,J>Q'Z,H>Y,7(33m2S|S|j|i|h|x|h|i|656/Z5)1T1k277'&]@!&!&#>['Q.Q.5,H&87K]974;4;07!2l,O>O>n'd'y{!~a7T]T]y{T1W1&<D!W1k3I4<{+2U2S]S]}3@2B4y{W|n'l,b'b7G;_<3;S;(<O|]>L;J!3;L}G6|;I;X2,1I;H;4;E6`6D^N~N~",
"c7d7/)n e7e;9!-#f77>D#w<8.|.1.`=0.!.!.0.&%f%g7*^7.7.z*`%z*|.|.<&Y@.3.3:=X%X%X%h7p617i7%7j7k7={x&/ .(N[l7i;$-G*44t6u_92I4j3d/%<W1W1W1l2A3L4!1i|43>:H2_~f5(37(/2A,A,/2/2A,,'&,H>7(7(N<K2P2i|i|h|x|k,k,W|W|({c1m7j|S|:7n7#>0+!&)&C')(O.P U #@o7p7q7N~[~[;r7W|d'O>d'_{S]Z4s7C!y{y{W1W1&<U1T1<{B4k3+2}3}3%4t7u767!:l,:(U|l|v7G5w7g2m(G,m(n5k)p)-5p)o||;X2J;X2n|K~x7p7y7z7y7p7",
"A7B7a@j(p@T.C757}:D7E7U>Z#V@V@Z#a.m+m+m+j.j.a.Z#}.<@<@<@<@V@Y@Y@Y@]]F7:=a&9&X%L/n6o6h7G7b*H7m{2-I7J7K7{>_@9-u/$)L7@!@!L^M7N75]V2S1%<96O2)1!10/43,|h:h:O7P7c'Q>E>n,n,n,n,7(/2Y,7(g5g5y|33j|j|j|i|h|x|h|i|T1j|i3 4r|Q73~R7n+(@{7@>{+6#S @&]+[=S7M~y#M-X W,B>z,z,S>B,B!U2S] 2D! 2+!+![^}^}^W]W]<{%2k3%4d/L^67d6T7=,U7U7U7V7f4u-D;O-O-v;v;;'H!'>H! )O~@5m)m)i-v2)4S7W7X7S7g<",
"Y7Z7-^m:B1h$ #K#g$`7$$ 80- 80-9-R#].h.]./.:@U@c&c&c&%@%@Z=.;#-#(V;`=8.J&b%J&`%M&d*6&.8 _d*+8@8#8$8%8s%e-&%s%&%&8y,0~q|1;J2Z,H>Y,h:Y, 1i|6/b47/S143y|>:T'h|j|43%<%<4343%<%<S143V2V243d/ 2+!+!+!+!+!+!+!D!T1n,R>P>Y,^,*8g[9]=8#/K&8$l!t+M%n!0%']0[u( *-8H!L}D{C{D{i5S>O>M>x|h|91D!T]!~!~U2):V]+2~~U]D!m,E>P>I>:];8G($@$@,_i[{@ #9;Y;M|f(V@15${V@%%%%X!X!>8<&$%a&0&i*7&i*d)",
"^^,8'85@)8@$b+3%q/!8l(s-=@s-I@c&^@R[(@a+>;}~i;W(W(]>]>]>#-0-^;^;V;Y@|.j+`%`%z*7&i*7 -*k*7&~8{8]8]8o6`@R@2$^8/8s%H!>'3}+)R~J>Q'z>,'Y,E>4](8.27/K^V2^|m2^|~1c1)17/!1!1!1!143S143W1W1&<+!U1D!D! 2 2 2 2T]T]B!E>;,V,,'P{p<%'X@S%=8r,v*=#u+8%_8=#l@L):8<8[8);s-O-O-<~4;D~i,e'R'~265V]W]<{%2k3a/b/U]c/@! !>,U,Z,}6}8F7@&!%!%|8j*18R-2838286;2}Q%Q%Q%#$}@<@1.1.I&n}Q.Q&R.j J+j ",
"4858I:9%N%@>3%7]f.R7e-s-t-=@D;t-:@a+a+^@/.l-R;(<=@v;x1x1c&%@%@^;9-<&1.k+`#6.J&0&d)h%7 h%7&^}687888i7:<%$&%982${@='%,k).):!`,P{J>,'',P>$<z308!1b443h|m233;_0/7/6/6/7/7/6/W1 2U1D!+!U1D!W1U1W1+!+!+!+!+!D!|]O3R>,'H>O'=8}&i+[@g[@*)/r=r./&2|r+H*v+O)t>a8Y6G,1>1>&@*@q'i,O>~1~1_(W]%2<{b8`5j/b4W]c/@!L^;,=-c{A!c8m%C@@@U d8_,a;:<Y=N;Y;:<f%}@Z@#$Z@8.|.|.8.I&n}Q.K.j H+H+**",
"4858X'N%.*=|e8f8R@@$C=B-w~L~]>G*q;a+^.^.f.k-@-#-B;B;B;X B;%@^;Y<%@n]|.u=u=W@j+d*E*k*k*9,0&g^68g8h8i7&%0*R@s%f%e-A2i8j8o2%,q<q<],I>H>Q>$<08Q57/b4T1w|Q1`4_(c1!17/7/!1!17/W1D!T1W1W1T1D!W1+!D! 2 2D!D!D!D!1]Y,o,C>v68'#/c%h+X@C/d%t+=#q=k8W>']l8[#A.&&-8X e|W5L}p)p|e'W|d'~1~1~1W]%2k3m892i/.2!:c/ 2N7G-*-n8T,q)[20&~+)(:,)({:~@ (n- (].V@l+a.a..$<&*%8*)$8.7.d)i <<i c)c)",
"p-B1X'o8p8I=q87~n+g.4~d&C-$-$-^;^.$>$>,<o;7]G@L~]>Q!g2r8S!71G,{'i;s8t8u8Z#j.S#+;v86&8,w8x8y8z8%7N6A8Y;f&R@0.&8W6_^a1|;B8K!+:N<*,H>&,#<C8D8E8~~&< 2u1F8~67/R'K^L4H^,6,6:5L4<{G8H8I8C3O2W2K^J^6/K^7/P^(6J8K8L8$:(4:{n2M8N8R%l]@*V>p-M%s.5@r~f H]p]!*`^O8s-J!]>L;J!-5s{/2K2P8A(r7O(Q8R8J8S8i/N^N^T8^6U8V,J>',P{z2V8}=Z(~%{+i W8x;f.).R-i<X8m~k{#$}@Z@<@z*6.j+b$i i j H+Q.Q.",
"Y8Z8)]Y7k[J#l(a+0+0+/@`8N~O-u-'>(@^.6~6~R#@-L=c&c&U@(<^>9-#-9-#->!`%~$ 9{%.9>$c*{)F(i_+98 #8#8@9#9$9%91$&9^8*9i<;!F[K52/S{I5=9-9;9>9Y1,9'9)9r5'3'33]0/0/((!9~9{9~9{9{9T|~96] 4d/S1V2d/%<]9t_]9|^Q]|^Q]R]_7^9/9(9_2_9o<:9d%t,q+E_s,s.s.n!F&5@H*L)p!b,]&<9N-2;|!O-K}[9O>d'Y|Y|L4$2%2}9|9}919=2w{@!w{,32939N{(>b349a&['{+$#d)@$]@(@h.k-b+ >596969c.>8>8-%}.*%W@(+(+j*5,)(@%",
"79-&}@89h+J=$;%@k-f..,/!8~@)e{ )o;V(e-0+R@R@Z#l+l+Z#e.c.+ + 99M/H.09I$#.a9m#b9c9d9e9f9g9h9^/w]w]{/'@^$3 i9j9a@/#T:k9k9L|b;Z$d[0[a[l9m9&^n9q,69o9p9C(h,G>d15<:>:>G-G-G-:;9~};/~M{q9C,%<1^D!W1T<j,n2r9%:%:&)s9V)t9u9v9L<%.i#i#L<B)L+:)K'o@K'e 3#p.@~w9->#-%@A-2;#;w~g,h3)1u{u{z|]|]|N<n2n2@^@^x90[y90%`'}/>8%%.$v=e%>)$#c>|&T{$5@,@,'>/!Q{O{T/y>q<G,/>(<Y<Y<T=&>n%*>n%z9A9",
"`(V>B9C91.B=}~l-B={>5=l)n|Z1H;$}+43%0+~@~@4&a.l+l+V@a.Z#D9D90>E9n/F9E G92+&+&+M@C#C#z%l&L*U$q>q>2*8@H96'b}y+9>z.P$( v@V+=.z.A.B.,28-E.a%z*|.1.A_*8I95<Z5m4r5C,G-*)t't'=-%}$}>-J9K9j5,5r_L9M9R5:>e,E;x4%-G/N9>{O9P9f#6@c:C Y+/ B v>i!v>M.Q9#~[#<%R9S9)8]-T9'>O-4;R4B|_(~6U9U9V9G;2<t'2<V!!(U_W9->X9Y9Z9`9i+5.h+:,>)]=:,p+g] 0@,r1J!L;Q~h2h:I>z>.0U~$)G*R;S;H,^@@-'*P#'*$;",
"=%P%+0-=i)@-.,r;j'{>p(r2E5$!<>(]<2`;R@{@e-0+m+m+i.A;c.o+W#%*~>{;G}@0E =+H H H -+d}~[~[d}e9G%>@#0~#Z}d@b 6-[ P,6't@3-u@z': !*I'!*B&z.'/$0'$@*-=%0P}&0t{e/t{,|<^z>I>S,K>K>2~y,;-E^C~9'S]*0=0Q8N(o'm|:;=,:^q)-0,{;0>0u~G', : X+_ / 6'j(L'0|j(#~<#G+_8,0&=9-|~L;x1G6X5%<&<'0c10/h3g~m|u')0!0*&U5U_7%b|[8I&o*$9a$b$ ,]= ,[&n*0>~0|>1>H!'>/!_~H>z>J>@<C;s-D;I@t-N-~,#-q%q%R#{0",
"U#a*]0`=q}U@^>U;~,{>+4r2<><>i-W!(.0+4&:<q2+(v)v)9*][+$`=X%1#X%5 e@H$@.I g>-+-+g>Z.q Z.Z.h96|w]^/6|{#^$| Q)6'c 6'){$+G)^0G'M.y/y/D.B.#|/0>/w).' &O}(0s{e_'1'3,'z>H>z>K>K>I;!,Y5$}H{I2=2!~_0c(:0<0[0}0|0!31020K|304050t9_ ^ C C C A.} } D.U.a a[@^#3~(d[K3L~.)$)n560s{r|^27080!4}090/{_3_300r^V-,2g;L.a0b0U%L&7.#*k(Z*k.V=g]p} ) ) );'a1),;,V,*)_>44O4=)G@Q!=@e+:.z;l-:@.,",
"c0&^d0 'e.]@6^5=<.u/G@$}$}@5x,~!g.{@5%>=K=e0+$u=`#k+t%J&0$A/U30 %32,E1f0*+ @G C#|+C#M@C#5|R*7@2*%.,@c D$X.S*A&p@o>d=F)D#I)G+*&*&D.H*8$@*k(%{w)79s8(9&0[9}|}6||q<Y1Y1q<T/_](]i-m;<>1<V7g0h0-:i075=_#:v6#:a3j0n>q{k020K+D's#P@H)P@| /#L%4 G+l0(/u5*&U_[(v/A-I@N-I@v,m0n0o0(0(0}|||N{([N{([p0X9+*q0r0s0t0u06.W@  m57[P/v0v3w0L;o|x0p)N1R~H>;,V,>,!'G{p5y0z0p5p|A0Q!I!j)B0d&",
"8'm0C0D0E0^>x1u-~,v/F0'4G*B;C-q%U#B/g+-=i+b-Z(S_P&S_i Y'b b 3 i@-#l=[1`+G0H0z}0:[*)[)[f}V:H<E%|*k<4:2'D'y&H%^/.~x%^<N:;^v+r$`-h;D1j$X%H#@($$.$J#r/9}I0J0K0K0I@s-s-L~L~L;L0M0_]_^Z v;N0O0i6P0J:2#L/U%2#w<o+j+Q0R01$S0h&T0r=o!q=8!E(**8 {)Z>0&*9U0V0Q@a.W06,X0s*#$}.)=Y0Z0l@H*<#[#k@k!H*[#p@B f7t@^05'w( -T#Z#m+`0D=4/F@ a.)'5,~.aw1&,s{v{013]3]$<5]W2W2+aO2@aC><|T/P{#::|",
")'A,!5R3z,_<=}A-t-L;=@%@Z=^;Y<q%T##a3.[@5.3.P&<<h O.P ^+O,_%;#6't~3+`+$a..%aB%&a|*}<9:}<n=n=0:n=|*U:12%+w@^ C)]#r.7%$ r.v*@3))@3d> ,>%b.q2+(q/q/O#K&o~>/*%`();s-L~L;s-K;G!*a=a-a4;Y6&|v>;a~(&|`%X@9.W@W@i+s%j.!.O#!)$ m:t]p.l!q=6#l%C@$#t#C@>=C=>a(=R@.$Z#0.Z#j.`#,a'az/I*x2l@l!#~v%t]a,)aA !a~ah#{aT*<&{%*^T>]a8~F{1;@)^aD>S>n'n,x|W|T1&<T1&<&<W1W143V2O21]N<u{*,%:)7'7",
")'C>P'l|&,44B-C-G@x1S;y;r}Y<);@-B_#a4.g+h+h+i*i O.Q.D@g %][ -#c X.3+ @M@B%*+G j<|*}<j</a}<E%(a(aS$o=U-1'C x+y&: l!.*5@t]Z$))@@s$))|@V=J#+(+(q/r/J#R%Y@*%$%n]T=O-s-D;s-/>;-_a:az7_] 09$d !^z/&|`%X@9.W@9.a*I#b.!.u%8+$ #3M%N%v()8@%4,<a[ah;*$1$b.&8{.{@ ;l+j.V@a.8.](U5y/G+#~G+* D.($L)($A A B D)A <:T*<&{%z*%%)-@)|;<>:!n|e'S>O>B,x|d'T<U1+!U1W1T]T]D!T]43 !g5u{A,*,}a'7",
"''&,C>0'w1-5C-N-R;[!(<#-A=B;(<9-W#A*5.X@4.2#b)b)y)f P.!>V&d@-#D$X.#.B%*+M@z%q&j<E%/a8|/aj<|*!}!}|*U:5-%+/ y.H%^ o!,/r.L)P.@3t$}$[% ,Y2H#$$$$J#$$+(e^][A_$%%%I@O--|D;D;/>[~`6|a-a4;]-1av>M.z/1a`%X@9.2.W@7.u% ; ;u%d^* - q=q=$ s,C@*$X*:=/+d)S0C=4&f.m+n]Z@a.V@`@8.2am*J|:%`{&&r=($v%t]v%s#s#Y+B s#9#I&$%n<1.%%O~@)|;c4%,3{e'e'm,m,k,A|43&<T1T<T<W1W1T1W1V2 !N<v1v1*,A,'7",
"3a/2C>R3=_7{G@v;I!4aH,c&u/$-v;0-o]L&L/a*h+U%D*H+j Q&P T W-w+;#D$R)j&E B%L*z}=19:E%!}/a(a}<5aS$|*o=Q$%+( C _ y&={l!9%5@l!7$C@X*q*:=#%:=6a%{%{7a@(+(n]][][$%%%A-<~-|<~O-O-E68a9ap7+)p}U_d d N.5#`%X@9.2.W@W@%$%$b.O#,.6$l!0a0aaah<baca|2|2a&V*5%'.0.0+e.2%<@Z@Z@&%j+b=*&{(X<X<'/l!#~:%h&#~q6A B D)q6576.<&n<1.g'O~|;F{F{2~daS>h,m,O>B,M>S1W1+!U1U1 2 2}^Q]L^d/A| 1v1n2]|v1",
"eaE>A,o'h:p|-~p)fa811>~,+-=@s-M-~;{;2#. V%|@O.K.J+S.= T 9@z+T&6'Y+j&K*K*k1<*9|V[9:9:j<9:5:T$k<k<p[gap{A L<6+o>D#7$P=x*)/ha>%Z*iab_b_>&@*jaka7a%$n]][&^2!f+X!C-X '4w~D;D;H!D^`6G!H@la!(D&v>e @=`%2.$%=%*%R%n+V(V(c.V@mav*//t<//a)d)7&d)7&na/]Z@J#O#I=%$%%1$1$Q%Q%h+w*T_u(#~&&G+u+)/)/6$)/k#m>m m k#-0k+Z#|.-%oa<>0~q|0~0~53n'B|m,B|O>O> 4S|e/j|S|D! 2+!R]e/S|A|(4A|N<n2n2",
"pa@!/7qarac5D6F^Q2Q2sa]aZ6<~O-/-v8c)]+O=!>]+x2+^* o!o!t+] =.,@C C R)o{taB]uay]5+@|`+ @`+z@vay]vaz+B.t:,$4$:-waw<(-V;xab<;7yaf4/[K[=9c3V{/'F*zak.e^L#y;^;B=:@Aa-;H;H;n;&}t-c-Z)#;j)P#Ba~aQ)L'Ca`%9.Y@<&Y@A;b3x,E;A4%-DaEaT/.0T/O{.0Faw639GaHaf.%$u=H#u=Iav=V*k>~;b-d)l%4|I}))*$4$w<w<D[g^$ l!l!r=t+x*x#9-;7:.C;U/5]V2 !6] 4e_B|O>01{1n'E>;,n,Q>B,i|e/T<&<.2 !d/S1C! 2M2/6",
"(6S]U2]~V]b4h34]T1V2m497Z6<~O- 8k[//o.7$;>P 3#+^L)r.o!$ y&' _ / ( T&X.U&V&y+V&q#_1E E I x@t~6@d@+[Ja{%`%$%B_*^T#_@5=t-X;5=Ka],/2*,<|m0La^'^'MaNaia].^@y;y;7]n;L-;~%}K-m)t-B-Z)#;j)P#Ba~ap{V.Oa`%1..$<&`=59Pa!,:>!'',A!QaB,n'm,/2/27(@:%:T4939}+$./t%O&k>>)2#V*g]^=7&6#@@~+~+a&J&g7Q%Raf1M%$ t+$ v(s;V;c&C-F0Saj/V]2^U]W]Ta{1{1l,01{1{1c'G-:;R>o,i3$<e/43;_)1d/U1y{+!9(L2",
"Uas_s_Va]~__)17/:53^$<Y #4<~u-]-+1t<f !>W>D@[#r=t]l!o!r.y.H%^ / ( 4*T&v.D<^$^$q#j&},w R+m#< ^$a@WaXah^<@A;f+m~W'v;y1]>#;-~A!^{u1_3N]||YaZa*'MaNa`aq%l-l-S;s'H;:^;~D,D,D,t-B-Z)#;j)P#Ba+7p{V.Oa6.|.`=$%Y@ bV'$!L(.b+bO>z>@b#b$b--%b&bs)*bJ>i4=^J#./'$F#0,8&;$`>g]`>X%}#t#9&Q 9&Q%Rak{=b-bM%M%$ $ v(s;_:R;z-C;;bpaF3G3F3UaN7n'i3B|B|O>i3n,V!:>G-D>m4$< 443!16/):T1T]W1Q]>b",
",b'b1^y{U]b4T|6/&<W15<)b)4<~u-]-a)'84@f v*{+(#l!r=r.o!.*: x&: =.: R)7-T&!b~b>}i=<*M@X^B%_1{bX.V&^#T.~$'$`%{%w<T#^;Q!x1#;z0_>A!/2g5'7]bb_>&Ma^bb_/bS!]'(bQ:44n|C,_bP7:b<bt-O454Q!i;#([b}bf7|b{a+&A_v)`(][1bN{Q'X2>,P>P>L>D>)'2b3bI>Q{z>4bI>T/p9=^%$ ;%$(}V%d*2#;$V*~%Y2:=}#_,['u%.$+$a.l+r=o.v*5@2|N%.;/;x1y15b ! 2+2M(}{6b7b8b9bS|t1;_0bR3g~g~)'b'7/7/)1'9G^abab0(bb>bcb",
"db{~1^W]~~6/!16/&<W10107N~Z 1>);ebY'P.W>x)C@I*)/+^.*t+t+;.]#={={Q;-#^$^$d@_%;#J ;+H$i(I$g=^$-#^#E.)<d%r,W@a*z*U#=@n5$)/;*@_>e,z>Y,#:fb'%l.:,p*q*a_gbhbib,!jbkbR,&!lbx,93r%_+v/+-;76ambA D V.nb`#][c.A;9*{&|!AaT4E;H;ob_>pbqb!02<*4rbfb-;c8HaR@O&D[e$V0>)0$|#sbh;l%*$$#$#H+l%i*F# $u%f%f%l!6$7$$  :M%;7F0A=C-1>;3r5M7h/U8tbs<f_10ub}|U6vb=_:|:|}a:7wbwbi2xbybzbM2S2}]w{T]",
"Abt2s_k392:_S(BbS]p3raF-F;J>O{p,e-CbW8h(>=Cb2#A*Z{q+q+# Q[9 j$j$**u#q=q=O.P t#@@t$I}4|4||#.<E[;)0$`>u%`#.$u=b%a..)%,:!(]8~s)!,),Z,O{DaDbi D@l%O.=#EbFb('GbFbHbIbnbJb{a8#r+X$,],]a)Q&3 z.7-A.Kb=|g.z;h.].6;@;v3/]LbMb,>,>A-y7z7{>NbOb{aPbQbXaRbo^b2($<%F$e]Sbd=d=|:|1G+'/L.k@4#;$e%b-4.4.o!)/)/.*`^.*y=d-2>x;(.|!&@Z '4`)^@';%=`!TbUb,=d[j@E+<#k@k@l@k@VbWbXby,5{S,J>,'O3",
"Q8t202B4t2<{!:I4}9u_j3;,z>Y,O7.0^.x;*>Q#.-M;%*|&;$w-w-;%H}1#1#+#*$/+W>!>^+5$]+8&# l.l.. 1%%'a*b-5.g+#$V@v)8.k+i.O~[>[>};e{D-YbH;',/[Ha!+t<<<Q&u#Zb`b@.H B%F D F'3-Y+C X+q.=#q=t+t+* 1 d@y+A+P0 cm-w;z;{>=|v-^=$*>%]]M-$-A=d4`6_+mb%~!aW.H)W^G1W<G1.cO)c!Z+y@j&J$o#6'M.v>$~b@E.E[A*c$c$L&L)-^0%.*`^r~.-+c cr%R#,>B-C-A-z-@c;>h& :=6#cr~A.X<X<X<y/$c)^%c)^L%&cI5^,J>D,),,,",
"*ct2Z4+2`/+2:_B4E!02y{R>h:N<=c#:+4g.f.^.X=X=i]~;%*4./=/=~%Q 9&^=>*k_6*)(O.r+f 8&(,c>:= ,*=k.[@$*X@Y#Z#l+n]<&|.o+:!c4[>a1e{D-C~!,D,Y1-cP&i*d*!>s.F&A@R+t! @x'X+3*Y+3*Y-;c : :>c,c'ct+#~%&6@a@.=U{4%)c!cm-,!Z*n*F*Ma6[T9u-|>L~t-xaIb~c{c]c6'o>p.E+<%_$8<f>{*~*1,x'e>C&C&6'P)s~c@U3q+2#2#A*L)-^0%o!`^r~M;3!].B=:@/>t-D;u-I@z=_&k!r.{(.*l!E+D.<%_$#~N.'/N.&&D.^c/ca~',H>&,t{",
"*ct2Z4<{e(B4BbJ4s_u_j3;,A>(3g5]2Q^ (k-:@h.X=@;|&4.b-#*#*0>X%X%W%C@!>N%+'5*y)f `->)|@+#4.>&g+W@b-g+@;}.%%-4k+u=c.O!_!_!<>a1s)-;),),Y1Hai*9[d) %@&G&#+(c-+j&j&C A P@2-A)Y-U t;_c(&(&n:T_~^y+L.i6 cw/j'w/j'g.,&za:c<c[c(<]>G,-53;}c|c1c{c2c!aT)r.[#+^r.r]3c..{}E w j&2 M.} z+6-A+s:s:|$c$L&L)-^)/r.r]r~M;3!L=[.5=L;$)x1L;t-#-4c6$t+c[M%o.E+5c6c7c8c9c0cacbc'/cc]b7(c'O3M]dc",
"qa`5s_k3t2+2:_Bba7}3B!E,I>/2/2^,~,N;N; (x;.-g+4.b-e%]=u,d*d*X%c>$#H&ecfcu#T T gcc>p*>*[&q*# c%# i+g+%$+$Y@|.k+o+.)Q~y,e{|;&)H;],Z,Y1Haj*v}Q.^+U s,O j&X^hcic^0m s#m B Y-7$v(8%B1,cjcG+G+7-1 kcM; (z; (z;k-.#/'<,Za7[K;4;1~L~w~/-lc+78_q6mc5',/ncocj@p!pc`]>+x'u H$} $&e ^$[ e U3q+|@|@q+v%-^[#r.N).* c4!qcw/<.=@L;]>H@L;S==>.*.*rc9%U5B.c[c[c[sctcW9W9[)A+uc(>C,O3R>z>!5",
"vc`5Z4!:[{!:R(d6U2p4j3*)K>z>z>_2{>3>3>*|K={:4.4.|@l.. ==-*U*h;|#@@= B1B1B1wcU n.i'a_F*xc(,m^q+q+w(e%.$<&`=k+J&l+W!:!l)Y5|;],:^',H>/[Haf]yc4@6#D@S.e]y@zcAcAcBc~a^0CcV+D a)X$s, :N)t.Dc| H9} EcU=h.z;h.B=Y=}=:=n.:,&$N-<~/>-|N~{-FcD)f;Gc^0I|3#HcIco^Jcx'I x'},J p#'/G+Kc[ } e E[3@q+q+|$v%[#[#r.N)o! c4!LcMcNcz-s-t-O-=@Oc+*=6m:Pc2|t>r]QcRc!*C.2 C&M.d s~Sc{,G-u'*)L-^,",
"R8@2u_B4[{e4e4e4e4e4e4[{[{@2J4I4({d'k,n'65h,I-a1|;I;_^Tc*|f(M|Y;2>:<6;>=0+a+!&.)7{H{07@{Ucna5$jc'cQ=c&1>C-I@^; 8{.e-(=C'J#['Y'Q&5$^+f y)y)4@4@y)r=l!l!l! :M)B u.d!Vcf71'])F'F'F'Cc8_E'Wcb!XcWcXcXcYc|b|b>#< | #~e '/3 < 1 1 | } s#D)Y+B F+q6r>Dce;;#f;^$-]s~8-< d@p{3-@+q6E$n>ZcZc +`ct  d dh%7 }#)).*.*o!r=o!A.^#1 } ^#b}0@z+9>V-S*H9X.R)R)R)R)R)R)R)R)E'.d+d {P<,,E;{2",
"R8@20592[{e4:3e4e4:3e4[{9292I4B4({M>O>n'@de'+{@)|;9~8~#d$d6,9;6,*|~. #C=i<X=<2|!&@C{q7x3$,%d5$h1B1&d^;$)v;t-v;C-V(0+n+0+O#(+h v}/+/+P R.8!%#%#%#l!r.r.r.r=% p{; ' d!'^f7X+X+X+X+X+u.R)t~X.X.X.Q)Q)Q)Q)Q)6@z.| N.e N.^#z.1 1 | A.m S)p@p@F+m>3 -#;#_%X-z+D<D<%]^$-#B w@V+( / ( E1M*t *d=d d dh%7 I+l%.*t+o!p.L)A.^#[ < d@s^,2z+z+V-S*S*R); ; ; ; ; ; ; ; 7>-d;d35P<f5_;*)",
"R8X/Y/>d[{e4:3e4e4:3e4[{[{@2J4I4u1k,n'l,`|:([;$}9~X2|;[;)c (w/4%w//1n-g.r:38>a2/G!_]K9o}Uc,d#@'cfc.%Y6Q!4;'4L;D;p;p;e-e.$$f]//s(!>!>r+%#%#%#y)y)r=l!l!l!r.v+B 3*x&C)3*D X+W+W+x&W+X+u.R)R)R)R)R)R)S)Q)Q)X-W&} 1 G+B.^#A.1 1 ^#1 s#D)Y+Y+2-o>;#f;e;X-W-y+Z-8-g;6-d@C ( w@x&3*D'#.s r q O+G.-*h%7 I+l%.*t+L)v+a,1 -#d@^$_%$~/$z.z.6-C&C&S)X.X.X.X.X.X.t~t~'^'dr9)d!d(~-;Z1",
"R8X/~d>d[{e4:3e4e4:3e4[{@2@2J4I4`|k,n'n'@dd1o}Y5};q|F{<;>a/1n-6_4%>a6_e+{d8;>aG!4;D{K})bJ]]d %8%8%s;Y6$)24P4&@D;W6p;4%/1e0['t<v}/+^+f 4@8!%#y)y)%#l!r=r=q=% e;w+3*X+; u.u.u.3*3*3*u.X.T&o{o{t~t~t~t~l*l*f;W&z.| A.B.^#1 B.A.1 A.m p@D)B e;Q;_%6@X-6@X-z+/).]d@< _%w@( Y+=.p^4-3+^dM+g>Z.7 -*7 -*}#l%)/6$p.% t]6-d@^$[ y+%]6-z.6-z.D$2 Q)w.w.; ; R)R)R)R)/d(d+:_d:d5{i4W,",
"67Y/~d<d[{e4:3e4e4:3e4[{[{92B4k3)6d'm,m,[dd1K9}dh-9~I;[;i<i<C= #~@6_n-4%389;(.;'/!/!@)8~;!14^+@&#&{=S=^>&@/;u-B;3%f&0+!.@(['t<s(!>!>P.%#+^8!%#8!8!r.r.r.l!l!H)e;c;W+u.D)x&x&x&x&x&X+u.R)R)R); ; ; p@p@p@;#z.6-^$A.} | $&^#| ^#1 s#p{D)p{Q;2--#;#e;f;f;[ z.< z.6-d@o>( w@W+3*2'|d1dq@M*q@h%-*7 ;*}#l%)/6$L)t]($1 -#-#_%-#D<< z.W&[ c C.Q)> > v.X.X.X.Q)Q)9_2d;d633du6H;C,",
"4dY/05@2[{e4:3e4e4:3e4[{@2[{I4B4.4W|l,n't1)9*a5d]a_]Y5p7$[6dG#S0'.U{ #C=66C=].);K;K;^!|>7d9&!>6$W> %a-/-v/A=!!y= #R@~.@>%$(+b)8d!>]+P 8!y)y)4@y)r=l!l!r=6$l!H)f;Y-Y-p{D)Q;e;e;e;e;e;;#-#6@6@-#_%_%_%3 3 1 ^$z.^$< | &&N.} A.A.A.s]Y+C B A)A)_%_%r>b r>} A.} 1 | b H)D#D#/ w@f#p#9d0dadadk*7 }#C*I+l%6$X$+^8![#E+c@c@L.s~8-z.z./$[ D$!*D)w.w.w.; R)S)S)S)9_bdO<B~cdg5',dd",
"ed>du_J4[{e4:3e4e4:3e4[{e4@2U4U4T<S| 4016<m44_B<B<4!Z)fdl@-^(#0%a);$h+h+A*5.e%w=^]v-,%g*E*S_}#9 `-{+$*'%f)h)g]v=9.2.1.8.%$^=C+v^_,(,|#Q&j j j j 5*=#=#=#P j | z.9>y+D$c <%_$_$_$<%<%_$_$/$:$a,v%L)L)L)* a,b [ d@_%3 l!l!e[q.e[p.n p{D)p@;#3 ($a,($h&#~r.h&`{`{o!r=S.m@v#j%i%m@t$I}}$w'-1I+}#6#I+Q.l%r+O.Q.6#K.J+y)y)7!7!;^D.A.<%A.i!i!n>2*] ] ,@=.G'G'G'G'gd91hdidT]6]:_",
"jdu7#2I4[{e4:3e4e4:3e4[{@2@2U4C4&<%<3]3]&2kdf<lde<md]<nd($v+<%#~0%A/w(L&od@8Y{;*Q.Q.Q[**i C+9,Q&**7&v=g*7 -*7 7&b*I&P%T*$%v=H.>]_,>)|#J+j Q&Q&j u#=#=#=#P.J++[< [ ^$< 6'($a,a,($_$<%<%<%D.<%($L)r.r.r.o!% r>d@>#f;b S.S e[{$q.% L'D)B p@H)r>($o!o!* *&t+.*.*r~U5t+T t#R D@O.^+(,8&p*X*:,6#I+Q.Q.D@7 h k*O.D@D@O.R.R.J+j u<($} <%D.I'i!f#x.x.%.,@,@P$G'^)d=pdQ]qdv_1^6/]~",
"rd[{#2d6I4U4:3X/Y/@2U4U4e4e4U4C4&<e/$< 45^sdtdndmdc-+cud=6b,h&:%0%2#i+5.s:.<A/C*g ~+$#$#=*9,=*-*7 D*F.-*J.8 F.7 w<z*9.9.2}^=c>|#l%>)V*I]S.S.S.v#u#=#q==#=#e[[ S*7-H96'vda,v%($($/$~/< i&j@E+p]L)l!r.o!r.wdd@j(xdydta~/H+)88%k8'czdAdBdd7CdDdEdrc(&#cFdFdN)N)b,t>.*5*m@]$R&Q&s.l.:,`>k>Gd6#}#D@}#O.I+O.Q.c)c)c)j J+J+J+R.j A+x:D.&&&&V-D|-.x.2*y.q{m<n>/ P$HdV2__V]IdJdm8",
"rd@2u_KdI4C4<3V4X/e4C4U4e4e4U4Ld&<433]$<MdNdOdPdQdqc6_qc'a* * `{6$c$7.a*.<Z<3@8&~+X*:=X*k*F.h%d*E*d)d*d*D*k*E*E*6.8.u=`#2}^=+#;);*(,v=I]D@O.O.D@O.P.r+P.P.=#1 z.^$D$j(v>h&`{:%($_$t]A.i&E+E+j@v%r.o!o!r.Rd;#2cWcSdH9u#5$TdUdVdWdc;' C)U$I%' u]C$C$i&XdYd* * r~r~$ O.H+H+8dQ.~+(, ,H}|'z[6#I+Q.l%Q.}#D@Q.<<c)<<h R.J+J+J+K.b@:$<%#~#~Rcx.-.7@D|{ G$ZdG$2,G$HdS1`d:_ e)3m8",
"R89202]4B4U4:3X/Y/@2U4U4e4@2U4<_j|S|01017/.e+e@e#e$e%e&e,/,/`{k!)/2#5.g+q+c%. :,X*F7.3F7i*9&Q 9&a&v-,%1=v=V*`>V=W@K&=%$%2}v=c>(,_,8&~%l>j*P&j*j*P&V a)V V P.5#E.L%a e <)U5,/*&`{:%o!e B.n^p]n^v%o!o!o!l!*eS)vd=e-em _,;e>e,e'e)e!e~es>{e]e~e^e/el8(e+^c@x28$u5P=u*a)0)h 9)j*$#]+#'l%_eQ[Q.6#D@}#D@6#f f i D*i b)4@J+j J+Q&} 6-z.'/M.4*7@^ R*x.%.s]8^t9n>q{:e4308c/<e[eM(",
"qa`5}eC!<{I4@2Y/e([{I4I4@2J4J4d6_(l,l,n'A|Ka|em{_%E$1eU^I};*9 ;*;*y$O&`#O&u%u%u=8.`=.$`=`#I#0*t=@(O#K=K=K=K#K=e0e0O#$$+(9+4.q+|$q+q+h+#$&%f%f%&%`@Z@Z@#$Z@g7H}I.C+H.c>+#+#+#c>`-;*h;P.J+N:s+;^t]o!* * o!.c2,hc2eA@}:3e4eF;_>_>Ka:](>4e*4f44e*b_>e,N{N5r;3$I#0*H#H#f%5eA16eg1{%8$$|%&1 b L/b$U%{%L&U%V%H}1#U*7 <<P.R.J+R.s.3 V&_%3 U.T&9|q#i=i={ D&J|:%_$t>H]L37eU48etbn3",
"P^a79e!~S]p3u_0e0e#2v4p3I4I4I4Bb~2m,m,S>h|10ae{#> 3*t~w+;*;*;*C*7 w<6.|.|.k+k+Y@Y@`=`=`=a.{@{@n+0+0+R#k-k-R#k-h.{.d.e.e.s%3.# |$3@# i+'.R@!.!.R@b.a.a.j.a.`@~;N/M&;$w-e%(,(,c>+#_,|#X$r+R.4@y)r.v%a,a,v%be2,@++~T+!{}8H>cececeN>+b 1Q>h:E>P>(4deN>v1+:ee@(@(O#(=0.#$}@N6feO6{%$=o@W.c 6'U%L/c$a$c$L&W%1#H}M&X%c)r+P.f 4@s,r>6@X-S)W.X.<*Z+G <*r#X<r~r~* b,a[Kd~:k3gehe@2",
"P^a79eS]S]p3Y40505u_v4v4B4B4d6Bbk,O>e'e'M>ier6y&jeU-3*c;X%F.U*U*1#j+k+k+8.k+k+`=`=.$`=`=o+{.{.{.(=(:a+^./././.k-d.(=b.b.#$#*l.3@3@l.#*`@b.0.0.b.j.Z#V@Z#Z#Z#Z20,V*w-V*w=+#+#c>+#8&h;r+r+y)4@%#o!($($a,v%H';+21>+y'kef4<bG-G-*):;:;W,*-*-*-qbleme:>H-f'W62%2%2%{.(=j.#$O6#{5eD[<)0|U.J)vdh+a*5.z*h+i+`>^=X%M&1#P&X$P.f P.= b >#U&Q)S)t~x'z@k&`+q#X<<6U_N.n:9=t7,7J4neoeI4",
"U]Z4pe|3S]p3Y4B505u_p4v4B4I4qe2{k,O>e'i,S'y(Oa> resep{B 1#-*U*U*1#6.k+.$k+8.k+k+`=`=Y@Y@c.n+n+n+]@8{:@^@}~/@a+:@c.b.b.0.f%2.}&d%V>c%X@&%{@R@R@R@!.j.a.j.a.j.i]b-e%b-$*#*8&c>_,c>|#h;r+r+%#y)y)o!($a,v%v%w%J Q+tex'ueq)veYbr)C~C~wewewe%b {wexe`~&bq)yef-q2q2+(2%d.l+Z@g1A85e.9'/j(D&U.D&i+i+3.7.h+i+`>^=1#H}X%P&X$P.P f = b U&o{t~S)N_x'&+B%B%J$m:7%7%)/{(0[p4zeU4neoeI4",
"a/a79e|3!~}3u_050eu_v4p3I4J4qe2{O>B,S>S>~1KaAe3*-{BeV.q61#d*F.U*d*`%8..$j+8.8.k+u=.$`=`=%%{.e-{.(=]@^@/.}~r;a+B=m+!.s%f%`@[@# l.t,# /=&%b.b.b.b.j.Z#V@Z#Z#l+w=w-V*w-p*u,+#+#8&`-|#`-r+y)y)R.4@r.a,v%L)L)v%J L Cek&[<DeEeZ,z>H>Z,V,;,P>n,:;>,R>o,;,^,FeGeC'2%2%C'q2l+U>g7Z@t%:-e U.D&W.D&9.9.[@1.[@2.w=,%X%V%W%j*W>f O.f s.L'v.U&X.He9_F IeX^`+J$`^Je9$I*rca=v467B4KeoeJ4",
"a/T]Le}eMeNeOeNePeQeY/V4ReSeTe<3=cUeU'n'VeWeCae;B +7]cp{|#|#|#;**$(%+&w)b*j+|.+$`(9*-4v)f+C={@e-{.(::@}~a+:@^@(@3%>269p;r/=8m5XeC/>&^:6!0.b.0.c.i.c.i.1!j.2!2!YeZe`e f.fw= , ,F*+f@fU q=#f$fX$`{v%w%:$~/3'f#e#u@c!kekb5{%f&fr)&b=-*-V!V!&b--YbE;C(F;N{*f2%:<=f`@3~K6D[-fm~;fe$$&:)Yc>fL+a*a*[@@*o*d%*$h;q*8&$#]+!>f P P ,f7-X.U&> t~X+i(=1'f)fD|s~_#x2#~!f~f{f]ft7!:^f/f",
"]1E>n2!3@<V7V7V7-3;3(f`3|[Jd_f:fq}c$X%^4<f<@i@0@4*Rc4*)*j@j@p]j@l@C*:,>*E*~%;%O#C'R7#>C'(@<9T=O||>;6&;&;:]A4A4A4i4_;_;V'i4&}93AaJ5J54/K5D=R{R{^!v,[f2)2)F=x,p,M4M4-3}f}f.>93j46(O'B{(=i+#$Q%b$C*S 3,S l%|f1fX<4'()6%fb7((3H2H2N<N2x{!~1^):):W]D!T1U1/7l22f3f4f5f6f=/7f>*h]`>q+*& :a| : :C+H}W%+#8&|#o.%#u+s,r=* h&`{v%v%8f,@L@5+*.) ^ P,1 Q9Yc_)9f)-0fafbf0-d2a~,,53;,L1",
"me*)H>h:A!a6g3>3'|/|>:96cfD!e/b6b_df>)5.-}M/efffgfhfifjfw:w:w:w:p]9 |#8&1#a&1=@(R7R7C'R7W6O-1>H@3}3}Q{]2f5_~A>',&,C>V,D>!0:>:;*)G-@<&)D{3;H@H@3}/!y,r2r2r2_2[9}]Q2r|{1B|M>Q>E,O3g5,':6kfW'a.u= ,lf|8:=:,,)#|$ =6u(mfr2nf_~ 6of+dLe1^H8pfF3G3I~B4+2B4~~%21^43qf+arfsftf-&k.n*n.t+2|t>h&`{J.U*;*c>;*|#r.L)v+p.p.~/C$~/w%x%Jcj&5+y.) 5+e>T&k#:):)uf!-X5X5{3H@y,P!ofvfwfg5Y,",
")0W,&,z,(4j|T191P]xfxfpfyfzfAfv{BfCf%'k(DfEfFfGfA]0@ifHfw:w:w:w:p]j$_,*$5 H}m%@>2%7~]@0+o;'>H@J!3}L}Q{^,H>H>',C,n,n,P>g~T,u'{{!'U,:>F-IfJ!+)+)>'/!y,r2r2<>:^I3i|u1w|.4Y|Jfc'P>c'ceZ,KfLf7)V@8.:,:=:=X*F*D*I*c[ *Z$Mfq<NfAas)F;U,Ofj/N^S8*cQ8Q5__P(N(PfQfz3'9RfSfm2Z2>&o$xco*@ Z8=6l!.*@^h;h;_,c>8&4|q=q=t]v+v+v%H'C$C$C$Xd~ 8@7@<*%.r#H9B]o{t~@_TfUfVfo}D{J>',L>7(J;',J>",
"]{V,h:7(WfXfYf9bq5h3c1!1b/Zf(8`f g5 :26 [=+8$~.ci&<%/$aah&h&($h&U5[%i><,6#c>9&@$C'R[(@8{3%2;N-O-L;L;:]/[:^),U,o);,V,T,0'o,*)),D,),F;Y1k)H!;';'J!+)O~@5t4Y5K-X,e_x|i|0/!1',K>1<S,T/N{W'O6j>#$6.C@$#]+g $#7 v*X9.g->+gq<F6YbC~`1@gN(__#gT8(6,7(6P^O^qaJ85^ZfG~$g%gS22&-/@}&g1%=&{(a|o!`{H*c>q* ,p*i>f*5@$ l!q=r=r.o!L)L)v%*g_1{ 9|j=%.5+T&uaU&> 4 X7=g-g;g>g,g#d'g)g!g~g{g",
"]{S>A,A,l|^19/8/c1c17/b/91b/]g^g/gh+;$(gb-_gd@/$i!D&^$9@&&&&#~#~m*-$<,Y3C*q+:=I=q/(:]@(:<2,>2;'>H!J!4eT4&)F;&)F-:>o,;,R3A!],],O{^,/[4{k)u-H!H!J! )O!:]4{$}H;G5c5i3i3B|9bS,F;.>Y1/[A4c.U>W'x(}@d*+#l%C*1#i _&W9Je%|:gL5T/H>c{<g[g:_k3{~}gabs2pf|g1g1g1g2g3gy34g435g6g7g8g$*]=##t+9g4'`{o!_,c>q*n.|%-$r~r~,;n!9gm:`^N)N)r]0gL@@|q>2*x.5+t~mb:)K'ag%!8~E{l)bgcg*,h:7(Y,7(J2",
"dgG-K>K>C>A,'|g|t{>:[]Q2egfgg|gghgX&q*/=s:ig{b{bjgO)kglg($_$i&($h&I}w'|%j$;))(J=#>8{(@;;Y&Z &@4;D{IfI;I;),),%}A>n,B,N>N>n,O3E,z>H>H>J;G{L]H{H{)|R~|;9~1;};%}I3'|{1i3:(5<>,],J>z>Y,0~z6T>mgngd.$@:=~+*$i*h%9$ *(&J|8%ogM53/3/N5`,pgqg;:-:rg,3sg1]/6/61^|^c/7/tg[eug[4vgi'|&V%A/#~r]i!N)X3j$,)s$t$r$p$- M_t.- t.wg!/!/wg!/xg] 9|D|i=9|%.w.$&ygYczgAge2p}BgCgDgEgFgGgHgIgJg",
"Kgq7'4-~Lg*^o]B_i^m6T;Mgo!0%(/b25|5az}NgOg:1Pgw[3+M*b:a:Y-c;c;.~o>($`{U5&&6$P=z=r-);D;s-K}_>),J>Z,,,*,7(5{5{H2A,S2)~@!@!J^.2b46/b4M73]B,I>&,&,h:7(h:h:7(=_6{T'j,N</2E>S>Y|;_c1.480C3 4QgF^|[RgSg.'o<O&z*TgZ$Z8EdX<`{:=Q/Q&**6#f @^1a%|b|UgVgi<!;{>~,#;WgJ-XgV|Yg%,Zg(,`g@##a_eF);+A@t@n# h.hW$W$e]{#e>x+=.^ =.-.5+5+) 5+{ J*i=D|i=9|L@<1+h`:@hn=#h$h%h&h![z%|*0:0:2:*h*h",
"m(R;=h-hM1f^88;h2#a*E#b2)/* L)wgl=&+B%G9q&l&l&z%z%z%z%z%Q;D)C He]c>h{(Z84't]Vb,hK;P|71);*@&)z>Z,(3A>H>],H2H>],E, 2|^D!M^g/b4+!T]T19(|]*,V,V,o,I>,',','#:n,n,E>B,B,B,B,E>h|h|W|i|x|h|V2S|I8P2'hi.|.:&!$u8u8 *D.I't>Jeg g g ~+{+@&$|$c)^)hA&G+t*(<A0Q:Q!+>&}&}_2_2!-2&;2!hN/Z{}/H$},p>},y'! -.{ .@) ~ w@^)'@^ =.z@ ^~h+@,+k&G 9|G|Ng<*`+Y:F<F<F<H<![z%z%z%C#G o=Y:F%T$F%Y:",
"1~D_C_%@w;{h]h2}2.[@w(6$-^r.t]!/l=1+C#z%*+*+M@M@M@M@M@M@c;a!C)'^D'N)t>.*t>r.Kc^h/>7{L~Y<N1!,J>Z,Z,A>H>),H2K>],E, 2|^+!M^M^b4I^D!U1+!O28(n,E>E>*,*,h:h:*,:;:>:>W,G;G;G;G;h|h|W|i|x|x|%<S|T13]/h}.a*z*`%1.T*0%a,C$`{U5D@K.i I+H+m@#~z/M.()3'%|x#~4(h_hf~@5i-K-Z1U,>-:hN/<hN/C+[hc!K U(|du 5+7@2*R*7@) =.,@{#_ =.z@ ^+@+@+@~*`+@|}hF|@|`+Y:Y:Y:Y:l<C#M@M@M@|+G k<Y:T$T$F%T$",
"|h1h=)v'M-X#%*1&K&K&c%0%* L)t]h!j&E B%G *+*+*+M@M@M@M@M@x]0!C), : h!<%:%#~* 0[{-L;p)3;N-*@!,J>H>z>Z,K>],',J>),E, 2|^Q]J^a/2^a4|^Q] 2D!N>Q>n,n,n,h:7(7(h::;:>W,W,G;G;q'q'j|j|h|j|w|w|W1T1)1U/2hW'T%U>g7<@1.0%j@W&N.(#O.9,w}=*K.j A.} j(v>T_3h4h5hR^6h~46(-;E-`1`1v27hM/8h9hV30hn#e>},u y'7@w&w&w&}hx.x+d!'@^ =.~  ^ ^~h~hk&G j=<*<*i=B%F%T$T$T$Y:|+C#C#C#1+G o=l<T$Y:F%T$",
"ahbhchdhehw<Z{U%a*I&,$v+v+x%C$Rcr#y@M@C#J*J*J*5|5|5|5|5|Y-fhx&3*w@l!)/7$_&W>ma0-r8fa-5D;G6&)),),],),J>],',],H;C, 21^R]2^a4b/,6,5[^Q]W1gh 15)5) 1 1N<N<n2E>E>E>E>B,B,B,B,x|x|k,w|({u1U1&<I^S1d_ >S4S4hhS[A;ihI:0%u5x*a)i jhk*i D@I*&&'/N.kh%=lh1|_:$;T@G[mh%!F=^[nho]:2G]E]oh|fK%c!r#~ x@'@'@ h h'#'@r#! 6>: _ ! u z@z@z@{ L@_1L@L@L@_1J*<1<1<1T[K*5|5|5|J*L@phl12:P*3:2:",
"Y)O qhrh#]E+shthuh(#<%~#`}`}_ 3*^ ' > w.; u.u.u.u.u.u.u.v%t]a,r..*d$8.`=6.6.T#G=<>J2r2!-H{H;m;<>I;9~:^,,,,),L-53 2a7|^V]!:>5>5n3:3C4[6W]!:!:%4%4C!C!/7/7S]S]S]!~!~!~!~!~d/.! !@! 21^A5p4>dC4vhH>e,1<@<C(q<[.;7z=V;P#.$k+S#}@|.k+# c%whdfE#`-w*&|xh](Y$a)7$x*u*x*X$l#x@F e]g=`}-#< c T&B&@}9 9 v^9 r$1fU.D)p{3*x&_ _ U-5-H%8@] ] ] %.y.y&R)R)R)X.t~T&T&t~X.t~%.] { 2*x.2*",
"[:Vcyh+~! zh0aAhBh-^.cI%_ ,@=.: C)' , y&p{p{p{p{p{p{p{p{[#r.`{.*v(+&q/f-u%f%`&>-F{q|c4k'@)H;};a1<>};%}J;%}H;K-53 2a7|^U]R]U4e4:3e4@2>567B4B4B4p3}3U2}3}3s_s_Z4a7a7H4H4H4V2S1W1 2}^Q]p4Y4ChDhp45)/2O3C,Q>&,24D;|>EhFhg'U#W'V@}..$S%r,r,r,>$,$/#:%} D.E.H*b,`^`{`{N)@.H Gh+.x@Hhz.z.z._%A&|#c>1#~>X%;*IbIhp@S)p@X+x&x&W+x&x&: p>p>2'K _ t~_%_%_%_%d@^$^$^$T&T&-.{ 5+7@D|x.",
"W)JhKhLhD 0gbcMhnc+^:$2*8@] y.H%' > v.; p@p{p{p{p{p{p@p@q]p.`{* 8$k+a.X8a.`&f&}dS~F6I;O!};!,Y5Y5h-<>:^A>:^H;m;53 2a7H8$2|^>5<3W4>6]5Nh4dk3k3k3k3U2U2U2U202s_Z4a7a7a7a7a7 !d/D!T]Q]R]o3[3<dOhB45)n,Q>L(n_;,_<t-(<m(G,g'Z#${Phf+}@/=[@o*o*b-w(T_a|v>v>} l!v+p.L)v%x%x@E I Z+z@q#d@+[< 6-7-`-H.6&Gd8,h;I|Q9p@p@p{Y+: x&x&: 6>^ v u p>u ,@6@_%-#-#_%d@d@d@d@6'l*-.! ) x.7@7@",
"D7u!_ Qht@wgx:z^)]8$d 5-8@y.8@x+d!, u.3*V.V.V.V.V.V.V.V.W<RhH'v%)/D[f%`&a.`&ShY5j5F6I;O~a1L-e{Y5h-<>:^,,:^H;K-!' 2a7t_~~1^r4e4V4Th]5*5I~t29292t2s_s_s_02U2S]S]!~!~!~!~!~ !d/D!T]Q]t_[3[3UhVhBbN>c'T,T,WhI(`)#4N-^>H,U#U>A8y8XhU>3.L/L&m^K&[@U_%c;ad 1fr=[#+^-^[#;^a9J$|d=+E j&z.E+O,z.z+9 v^z[Yhz[v^m E'p@S)p@Y+.~.~.~.~o>/ U+s@3-u@P$-#i@z)z)i@+[+[+[i@l*l*-.! ) %.D|7@",
"R*Lh6>4-U$Zhw:;^j@G1zh) `h]*e!.@Sd1'f7f7 i.i'(; 3*3*y&yda,v%a,l@//6.&%l+%^#$`&+ie{M{@)};^a=;h-E663$}=;F-(!L-H;J;x{@iH4T]$2C4:3W4V4e4>5<{z{z{!~p4U2p3a7s_1^v4R]U2!~|3Le|3h/g/#i#i'9$iQ(^fV4[{LdL(S>C,c'M>O3N1A-^-%@A-x(%iPh}.V@}@3&3.h+L&7.|@:%D&C&D&!^n:r=t+,;h1&i#+*i=i'fH0Pg-i;i9>V-%]c*J.h;I}4|>iW.HeHeE'Wc%+D 5-Vc5-,i]*X^5-1212z@+__%;#S)S)c c 'i3_P)ac,#{/{ { D|{*",
"R*)i]#d;_ :$l@X$(#@^($Y+Z}Z}`}W$F+H)K+k#!i2-H)i#j#L+W.U.8$_&_&8$k[$%i.h{J#m+6=e{<;$!S~J2r'E{@5)-Aa.):^V|4{j--;%}K4]9H8 2%2>5<3<3:3e4>5<{%4z{@!p3S]v4U2#2k3U4,5!~|^1^|^Leabt_t_|^t_H4~i~i>6E4{iT,*):>>,;,e'24C-+-c&%@X815o+X!X!f+V#V#V#9]3&~;Y$'/G+T_kh`!sh'2'2W</$,#y@i=f=a9e]3 | a@E.k@g@g@W%d**$I+K+DcF+F+m>D#E$]#o>={E)D#e=I)c=]iEbj!]:]:l[l[b b 3 3 r>DcK%W$#1W$2,P$",
"if^ia,/ih&k%C@l..3X*w'd>|(x^6 6 o6o6g1U>$^d^ -(%7*y*(iZ9@(I#I#0*J#_i:ie~U@.,<!K>E,Q>O37(a~<i[iO}}i|i/!c4+)E6]aF{=2Q]|^T],5B492[{92t2B4,5T1+!T1Q][^p3}3p3k3B4'06<!4C3t|C3F4Y4#21i2i3i4i5i:0$2M^kdD66iD6f65<Q:~,:@.,i;(.m-y;^@l-B;{!v2E^v2_d7is%3$F#t=O#8i9imh^[4/0iK=M=aiU=U=*6c%# c%>)c>bi8)._S_P&6#4#k!k![#+^J+J+O.P.f (+5.i+7.3.[@#*X@;$;${;C+f o.8!%#u#=#@}@}r$));*;*",
"w:ci@^di0%*$:=[&4,:=q*(,|'eij^g]U>#$Q%#$}@#$k++$+$`=+&h'0+R@{@{@0.S@$>R!_@G@4=G-C,P>P7c'fiP}n~n]-4gi[f@,|!k~E68~=2R]|^D!3^I4I4@2[{B4B4a4&<+!T1U1T1p4{4{4hid6t1Y|6591w|w|#!{i{ivhn4iiS1S1pft_U1435<5<d1c5;3%)[.y;S;|~5=B-{0$>q;G*$}K~`1dgM{!gji7,b.0+(:93k5,10~J2]3kili}!/.:@].mi.#/=]=l.Y'h t<X$o.f <#* E+j@l@J+f D@X$5$ma3.7.z*[@1.X@w=(,(,>)`-o.o!r.l!t]`{o$9 |#|#W%X%",
"'20<I*J|H*l%$#*${+*$*$8&H.X%W%V*j+k+u=8.#$f%}@#$8.1. $u=8=8='.66{@Z=@-%@L=[.ni=-o)R>E,>,oi|<<&9.1.=%pi='t4Wg]a@)w{|^R]U13^I4B4[{[{k3k3I^43D!T1T1&<p3p3p3<_d6t1Y|w|91w|.4qijdR8,7~:qeL4.2riC8Q]U1e/h|4343a6D2B-_@+,R:4~e+$;{0+,5=$}I-sitiuiJ-vi>a&8p;ngO~wixi#dv2'-m-qcyic+c+k-i)3&b-w-U%S.S.e[q.e[u#X<t>v+L)($=#r=s.5@= P.,$s:E[|@d$n}(,gcgcgc@3 :9gt.M)q.p.ohj$E(7 F.F.",
"shzi0[.*HcF.h;h;_,+#E*W%W%X%H}`>u=u= $+$}.`@<@g1J&7.J&9.R@s%z1&*g&{>~,U;^@U;%)t'Ai]{C,*)&}o9c..$+$i.k'J!3}C{:+)|O2R] 2 !3^Bbk3B4B4k3!:I^43V2e/U1T1z{z{v4qe]4R|91w|B3R1R1BiCiDiDiEiDhFi}99(M2M296j|i|S1W|a6I!L=B={0S;^@_+Q#Q#B=:@f{>-YbYb%fGiHi6,j.{.3%+>Tc}d}d}d!-e+h.X=X=;7U{i]}=|&3.e%5@s,q=m@=#s.,/U_$|m*U5s,s.T = U f _-E[w(q+Z<Z<c>==n.n.}%r~2|9gm:[#+^9,J.J.U*F.F.",
"AhIiJiU5Ki0&C@C@~+X*['8[`2`2X]0]V@A;c.c.c.d.V#k+O&8.H#<&n+e-e-7=69E<54Lim(r874R>MiL(NiP>!'OiPiQiQiRiE{k5x01;K-0~O2P]+!d/2^d6B4B4I4I4d6b/V2S143 2D!z{z{t7]4z{R1Q1`4Q1Si52a/!:y{v4(7TiUi2fViWiybXis{5<r5)9a6]>B=a-1|Yi4&Q-p:O['!x;ZiH=`i jj~,-6,s%0*t=n+]-O!r2g4t3.jR!+jc<a;@jI#9.h]q}i)b&W}Dbx)(+p8~=#jY0$j]&&dX}.%{=.%X}v5-%i)Z#2!&^>8[4%j;8&jg[t5k[h*k[*j=jZ(X%H}X%1#d*",
"-j;jm6.<T%J&I&I&!$!$Y@r}>jS7g<u4J9]aWg]a2)Y6n]K&[@k()$hg,jT9T9H!_][901S|'j)jT'':V]:_U]C!C!e/+a!je6}] !&<,3r<XiB>x{!4R| 40/b/,6&2,5,5b/;_e/S|x|e/R|&<R|T18282P<P<~j:d:dvfe8!c<2(.]@C'#j{j]j^j/ji-E;V!E-V!O{s'f.n%K#e0879)!+x)x)ih}@i{i{(j_jX85;7.6.i+$*g[j^|'^=^=8&x2`{L)u*&=[(O[{-q%%@Y62;$,^-:j+-2/934efbd,b3U@B=h.q%x-4=n;Y5~'i-<>_>&)&-E;E;Pae+j'];qc*|y=}.Z#1.9.:&'$",
"gi/0T#<jX#u=2.1.8.>8g'2;`6D^D^(;h-+{+{<;a1~!T%5.2.*%/=i+_^J!+)W5y5wb%<!482u1P]H4a7|9$2+2i/V]'0 2.!3]R10(P]T1T1T1T<T<S|S|0/6/!1K^.27/J^0/S|e/h|e/w|&<R|&<26+!N](!Fa.65{@:R[6_>ad+)&{7=>)/ :_&[j}j|j=---s)r)udd+5=/31j/+& q.s=j t<w<B_h^%iB_B_S#T#2.1.i+q*g]~%V*+#h;U5o!`^H'q=0=>!$-A-B;B;Z6`6Z6D^<~C{),Z,Q'I;T42=l-T!T!@4~42j@:M]1;&)%}#:Q>o,K>q<<!q;a+k-l-R#}.V@S#V@f+X!",
"3j4jT#5jS#`#a*9.1.-%%%2;z-#4<~(;h-$}m;K-L-%!T#i+W@*%X@7.J]K3$,6jk'7j:(m7f6h,$<a/S(S(8j8j.2U],5R]V26]A39jP]U1U1T1&<S|S|e/H^b/I^b/G^H^2^0643%<S|V2S|W1T1W1'0U1H2a~D00j#5+:4~d+n-d+!&l(,=.*m:v*v:t)dgajH-E-E-bjcjU;!&L#^+=(q.R.j t<b$1&B_X#W=B_T#T#W@|.a*`>h)~%X%c>|#r~r.m:C$8!a=r}$-D;=@A-D^k~D^k~N~G6],H>H>%}e,<!q;q;R!/<}~[> 6N];~_>%}=_z>&,Q'`,s'+,:@'*l-k-V@V@<@Z#V@V@",
"/:!$T#f:X#8.7.z*9.f+%%)!k~K]G!N~$}(]_]8~|;>-W_W#[@R%B/T%k4u-s-.)/!s{B|0/)9{1)1V]V]U]N^`dL^!~t_R]T1L^82djP]T1T1T1T<S|S|S|H^b/b/3^I^I^3^06e_S|h|e/h|&<R|91T<S2_~(!390j#5ej4~(@n-d+!&l(,=.* /)8fjPaV!K(!0:;1<%)e+~,/.T@S_u<J+R.P h b$7.h^T#h^W=9.1.9.1.i+V*V*X%X%+#;*.*r.o!~/+^gjr}C-O-=@D;N~[~d4[~<~L]),Z,h:',S,s'D2q;.,q;q;r2M]M];~H;I;&,H>A!O{q<}!q;/.{0^@].X!}.-%}.f+%%",
"p<8*%i6!X#9.1.6.1.Z#}.^--|<~N~[~e{$}@5@5@)v2(jh^|.*%=%T#hjijjjkjljmjI8I8+![^nj`/q_V/`/|9oj+!xf]9U1d/l2bbP]T1T1&<T<j|j|S|91T1+!D!U1W1+!R| 44] 4%<j|%<S|&<v{[]6{a~]2+6ejejR[n+0+R[)&{7pjr~=6qj)=rjpb`1`1V!(>p(6_].k-J=0)sjR.y)f O.L/z*`%z*`%7.9.1.W@9.5.^=M&M&W%;)l%6$o!* L)-^(/r}Y<s-i;{'[~D^`6k~G!_]_>K>H>D,Y1tj/4}~S;y;U;Y1,,_b$!$!1;/2z>.0T/q<6^/@>;^@l-:@A;V@f+}.X!%%",
"N}`(ujXel+K&W@9.[@f+2!+-x7C{:+(];'k')-)-<>G=2&h+2.g[[@5./>v,$5k)[>_[)ji0V7sa>|2]vjb5ojf/wjxjLe|3s|96S|O]}^W1W1U1T1e/e/e/S143S1V243V2V2e//|g|,|Q2K2S2P2r|33y|7(',Z,_~@:@:^.f.~@f.(@g(`!r. /ec&#3e2583{gX_1)'!yja;>=U0D*ycK.j Q&I+E[U%L/L&n}w(a*7.a*7.L&M&F.|#l%;*6#X$%#+^v%k!9[K7#-Y6T=zjK3K3)!$,)!-'f{:]i4(>A4=@.,^@/.f.d+y>',c{o)Z1!'t{H>I>^,O{AjI!<!5=6^}~h{A;>8%%g'Bj",
"$5CjE=DjR{7_R7@$$$n+n+;9t'~'-;j-D;v;R;_@I!q%EjZ$`$Fjd[Z$:2|(g@k^f@Gjr647Hj-<Ijh)h)+;O/JjKj,,LjMjLj33B!!~|^ 2 2D!+!V2V2V2i3c'c{P7_bP7c{P>Y,/2h:/2h:33y|y|P296S1d/d/ !=2O2<&<@T#}.A_8*b[_%n G+i#4#Nj.=QbOjPjQj+]$]OaKba W<o^j@H*3#+^o.o.)/8!6$;>5$W>V h '8P 6#f 6#P f J+R.i%P a)6.2&i)iaia+;+;f)h)[=Y*0]v0naRjmiia=8e^$%$%K0s),'D>q':>V,^|[]@aF^,9],S,F;&-[|||@5x,!-x,+>t4",
"#,DjSjCg*!{7Tj#>q2]@(:j4E-_>s)A4t-i;_@c&(<jbZ$u(b|3hU_T_UjVj8h8h<h2-: q^6|c;o>,)h;|#|#|#Wj<(Xj23v1v1y{R]!~@!@!T]D!S1S1S1d5>,53C,53C,!'o,H>/27(*,7(333333v|.43^P^5^2^ 2 2k+j+2}U>8.y*e 7-z.6-6'W+=.3*X+={D)H9v.R)m>B)v%Yj;^b2b2q]o^b2-^k!a,`{+^X$)/z^X>Zj%#j 8!j 4@j D@D@S P b)L/;$7.a*o<1#1#-*U*h%7&W%9&;*_,q*@*8*^:%'%'`j_;S>S>J1q'i,e/e/43S|6]P>S>o,D>V,G;q9/~i~M{I-[;",
"B{ kI-+6I[p2p2%>{7(@s5j4K~&)_>4eG*_@c&n(o%w$u(z/J|.kJ|:)V=.#i)1=l.+k@k#kn@Ib$k%k&k@f:c:}O/*k5{j,u{g5y{1^1^T]T] 2D!S1V2S1[e53!'E,>,E,V|;,,'z,h:*,Y,>:y|y|.4Y|]~=k6bF3~~!~6.w<m62}|.I&| o{V&;cn{-kje;k>k,kU-'k)k!ku.m>x%,2W<'2~kRh'2b2t]t]~/L)%#y)+^^e0}{k4@K.8!j y)Q&Q.Q.T O.D*+85 L/w(|$E(E(Z>]k|2**|#}#^k0_}#c%P%-=c%d%n9pbe'o,R3mei,43I^I^)1.2/k)'n_n_o,e'n|K~[;=;$!n|",
"t3#,ti(k[f]@_k{7l(:k<k=9:;;~!,T4I!^>[kj;d~jb}k:%)h|k~(e ~;g]w-A*`->.B)k#W.A Ib=&;&;&1k:} ,2k3kd1e,4ka(s_!~|^!~@!b/b/3^4^5]Y,A>5{5{',N]Q>Q'A!H>I>h:33y|K2({91+!T] 2D!D! 27*(%b*J&y*5kv>6k7kq!y+3*q^SdH%d!d!v.u.u.fhX-i&~/~k~k~kC$v%L)N)N)q]q]s+M:M:s+N:Y>7!u<M:s=y)K.j j i i D*U%h+7./=[@C*|#C*C@_,-$$'|%d*1#E*a*i+5.5.W@{h 5h:=,E>8k9kU9q50kakakme)0J(Z_m,;,C,r'n|;~;~Z1",
"l;&!i~9{6j(@+(2%+({7%;=9K~*;F;A4Q!~4(<R;W( 82am*bkbkU_u(M&W%V%U3<$K+L's#( ){n@w'i'p+;&p+]=ckdkD>1<42a(|^1^R]1^T]a4a43^b/3](3,,_~_~A>M]P>K>S,Z,I>7(y|z|33u1T<D!T]T] 2T]@!<&|.z*|.9.P%|1t~ek%]^$X+X+R)X+; X+t~R)X-f;-#i&x%Rhq]q]q]L)o!o!o!-^-^8!4@4@y)y)J+J+Q&R.j 4@6#D@D@<<<<i c$h+a*g+W@}#C*l%C@_,[%Z%|%d*X%E*a*i+i+i+7.}@'5A,yb;,dk~3fkO]Q]P]O]_3_3;4_3-,Q'L-};a1Y5i-h-",
"^!0igk&! 0].@>@($$R7V(M5{,t)E;$}H@U~d&4af~[.c2d[2ahkd[Z$ik0 7^jkkkV.p{@+u.; U.lkk%w'Z%-$]+75}0D>O5mk4i%2S]1^S]U]b/a43^a43]Y,',5{5{H>(3E>I>C>z>A,*,K233K2w|T<U1+!+!W1+! 2A;Z#A8Z#A;8.)<< ;]A+} Y+Y+D)Y+p{Y+Q)p@r>Dcb _$b2b2k!k![#o!.*.*.*)/)/6$X$X$o.o.r+r+f X$f X$]+^+/+h%k*0&A*h+i+g+W@7 U*C**$c>_,!%!%d*X%E*U%h+5.5.i+5;y>7(nk*-u{g|ok,319wbwbh2w1!5w1%-f4AaF=F=F=%!%!",
"A;[@pk=8Z#i)X@[@/=K&=/@-x=;1#;O4@<<|!|U's{qkY;6;K=@$I=M=9d@0B#I$T+E1v w i=L@I$A D7k#j#i#rk'5!45<saQ1s7J4v4}3B4!:3^a43^a4 !/2h:=_=_/2/2W|>|_|L>>:T'r|P2r|i|j|S|S|j|i|i|j|A-+-sk~<C-r}1#tkc*J.j$v%3'4'()($4'% p.q=r=y)E(9 j$l%C*;*`-(,(,(,(,(,(,>)(,+#c>c>8&+#_,(,c>c%t,c%;$M&V%h+i+5.4.X@H}V%H}+#(,8&{+g P&i*0)X%d*9&9&~%g]m)F6Sj97ukr8I]map8map8ma,],](/V}vkE@W}DbW}y2!=",
"A_c%wkT*i)3&[@a*X@W@i)q%y!Z)F0niG5_|>:u{O>7jc+x;L=$>k-.-J$},@.E1@.2+ ^Z+`+`+J$/ ^)n>E$;.xkU6P]55d_Q1s_LdJ4B4J4Bb3^a4+!W1d/L>A,P'!5t{L>h|B|e_l,e_x|%<43%<S|j|i|x|W|W|W|W|(;#4)>#4(;!!^=c*4(v^Q[h&t>i!D.<%:%r=r=q=%#r+}#l%l%}#}#*$c>(,>)(,M&M&M&M&H}H}X%1#$#_,C@ ,>*# # o*U%3.5.i+a*3.3.X@V%2#V%M&>)_,]+^+f D@W>$#~+~+5,Y2v8>'I2o}K9),v,X'W<W<~k~kh<h<^<^<_&v*5$/+)(k_O=6*",
"A_V>y8r,T%T%X@i+g+[@V#q%X;u/#;E<[9h,W|x|k,V7c+g.k-^.f. #3+2+&+;@1+E x'Z+^*`+x'W+Y+C B / ykzkL4k|f6B302d6k3k3I4!:b/U1+!+!S1]|/2)7$:A,]|W|W|h|k,i|W|43S|e/43S|i|h|x|h|h|h|(;)4z-)4X A-^=c*l^c*e@:%`{<%($($h&q=q=4@y)r+}#C*;*C*l%_,H}V%V%H}w-e%w-w-w-e%w-V*_,c>*$q*:,t,# %'5.4.5.5.a*3.i+i+H}V%H}H}V%;*D@f D@I+P 8&*$_,_,_,1#+)I2i~h~E{]!8!l!o!l!.*u+$ u+$ r+P.P /+/+/+]+]+",
"][T*%iAk-%T#g+2.X@S%2!q%w;B;t-O4Bkn'~2~1i|G5_.g.{0O:a+x;1+&+Z+2+2+F F Z+G *+Z+%+C G': =.Ckzkt1k|D6Q1u_S8k3k3I4!:+!U1+!+!V2]|/2$:'7A,v1k,W|h|k,h|W|e/j|S|%<S|i|x|h|i|i|i|s-#4y!)4=@ 8^=c*3(8 Q[&&($D.a,($_$p.r=y)%#%#I+7 C*l%}#C*W%M&M&W%H}M&M&H}M&V%H}X%_,c>*$c>:,t,# c%/=$*[@/=a*3.a*i+<=~>H}H}V%U*D@P P.D@r+l%{+C@C@C@d*DkS~Ek;gjjFku+$ .*5@7%8%9%)8p-5@u+s.@'@'@'ecGk",
"Hk/0IkJkV#V##*W@[@S%&^B=u/B-5=44Bk((.1.1z|n)<.n+{0$>L#X=2+&+Z+5|K*L@L@5+k&Z+x'%+Y+G'3*X+Kk/(Y|55g,R1[3,7zeI4U4BbD!U1+!+!+!j,L>)7$:L>]|u1x|i|W|j|x|%<e/e/$<i3B|l,B|{1{1B|O-N-)>#4D;/-V*Q[x^c*G}D.a,B.($_$_$p.N:%#8!%#=*t}E(}#I+C*H.V%V%0>V%V%V%H}H}M&H}d**$8&C@8&_,t,t,}&X@/=W@g+9.4.i+h+0,~;M&M&;$C+Q.P D@I+P ;*C@*$$#$#<<l;J2Lk+{]3.jU5x%C$L:v%e[t]=#q=o.P.O.g g ]+k_k_",
"+#Mk/],)|#}#{+L6+%#'Z%m*#~:%:%'/5*l!r.r=q=p.X+;(I%Sdv@]c{ ] y.] %.{ { ) NkOkN*PkmcQk'/b RkSk`5Tku_3iUk05s2|gs2s7F40eReVkI4j|3]5]h|v{r<K-i--;K-&)Z1q'S>h,e'h,e_i|P2'|{|751.|.9.|.W@1.U0G#'.).{@!.b.!.(=(=r/pjA.bei!:%4|s$8&j$9 ;*(%.$ $j+#$U#~@n-n-*|Y;(j}&t,o<X@9.I#s%:<4&!.4&!.4&j.R@{@s*g&f&e.c.0.5;g+8[5.A/o!* `^* * $ `{o!q]-^X$(#Z<5.3.X@X@b.b.(=d.b.!.R@{@{@{@{@~.",
"c>MkZ2e@|#}#~+:=+%#'Z%m*`{* o!#~5*r.r.r=l!% ^ C)R*VcD'He%.] y.] %.{ { ) )#w&%.vdWkXk%cj!&]Yk}9N(92Zk|^s2[3u_u_02v4p3p3U2J4&<3]5]i|v{W2:^j-s)n;!,Z1S>D>D>BkD>e_n'e_i3b1g3|.8.1.8.9.|.>=>=).66:<{@!.R@{@R@J#8$:$u]p!N.I}}#8&,)9 C*8.][f+S#g&`&m- (g.4&:<Y#w(}&V>5.[@0*Q%b.b.j.R@0.~.b.~.{@s*g&m+e.c.0./=3.8[h+A/r.* * * `{* o!t]v%b2y)x2|$h+5.h+[@s%!.R@d.0.b.R@{@R@R@R@R@",
"c>`k1=%3|#C@~+:=+%#&d>m*T_#|m*#|5@t+5@s,5@m@Y+, y&H%^ : ] ] y.] %.{ ) { '@!#-.~aXk l.lD&i9YkV4+lt2~i~~@lZ4H4S]B4<{d6<_d6@2T< 43]R|s|g|J;}dn;h-K-U,h,B|n'f,o,U/e_01b'!9a'9.1.W@1.2.9.I#t=9+).'.&%0.b.b.b.0*_#8-0@z.e 4|e@Z%|#9 1#+$9}#lg&x(${n-n+~.~.=|i+c$L/L&i+2.*6~.4&{@{@4&!.{@b.R@0.s*0.m+e.a. ;/=3.o]h+U3r.* * * `{b,9gM)v%a,q=r~U3A*2#3.4.f%`@0.a.b.R@{@~.~.{@{@{@",
"p*$lw=%lF.~+{+:=g #&d>#~,/r~r~r~5@$ 5@5@r~u#){X+w.y&W+W+] ] ] y.%.{ { %.&lN@H%j(*l=l-lJ)a@;l>l,lu7'l<{)l#20292@2%2<{k3<{[{&< 4%<T<s|m2J;n;s)H;I;U,S>O>E>9bn_ 4O>x|;_z3(8|.|.1.8.9.<&e0e0:<66:<'.!.R@R@R@U0Rb0aRdv%N.;***-$`-E(d*V@1!!l&/s*8=N;C=~@>=W83.~lb$A*5./=0*0.0.0.!.R@b.R@0+g.0+`@0.j.0.a.u%/=5.o]L&U3r.* * * `{`^n!N)v%a,r..*{lU%c$h+h+s%&%!.b.b.R@{@4&~.~.{@{@",
" ,]l^]@}X%d)[':=g {+}##~#~&&&&`{* r=q=l!jcjcD#6+q~{#.~.~y.] ] y.] ) ) %.N*^lD|-#8#_)l 6'/l(lu7_l$2a7W]1{s_s_#2u_9292@2e4I4%<3]5]U1N2m2',=;*;*;n|Z,z,_|T'''m,Q2,|Q2l,F>G>T#S#X#S#U#f+{@~.).:<~.!.b.b.(=d.98:lg;6-A.$|j$,)k%,)Z>C+8.e.A;s*<lj{{@4&4&@$;=h+[l^}8[T%T%!.@>@>R@R@b.b.d.{.(=}l`@f%j.0.+$u%4.5.8[L&A/o!* * * `{'an!* t]* r~)/m^c$3.5.3.&%f%b.j.m+d.(={.e-{.{.{.",
"]=|lv0;*V%0&Z(9&{+I+Z>l@a,_$_$v+v%% e[p.X3r]b f;e;2-2-o>8@y.y.x+y.) *.) 1l2l3lk!xhcc4lL%y9cb`55lB!(76lm3Uk7l7lR]A5`5}9E!W] 4)9c5e/l2K2H>;~;~o)53,','B>B>i,kd<|8l9l560lalT#S#T#}.-%}.0+n+4&~@n+{.(=(=V((:9+J:l@p]#~o.**i_C*tkbll/}&k+`%b*D[`%t**>C=~.R@S#2&T%Y#-%}.}.J# ;~.{@b.n+e-8{f-(:Q%`@a.%$.$ $b-3@%*3.0$o!`{* * * !($ ,/+^)/8$_&. 5.3.X@X@b.b.(=d.(={.e-0+0+0+0+0+",
"r,(i#lb*L/v=['~%C@l%Z>E+/$6-< z.]#]#;.`}w@w@6-_$<%o^p]j@H%8@x+H%8@5+_1L@Y:5|e=cl%@;6Y6_+@jdlelle,'flglhlilli84jlQ2e/+!+!b4:(X,d1l,K2>:A!B|m,l,D>S,F{F{8~x7(;XbO8Y9[86%x<2$s%&%R@b.{.L=q%q%@-U@:@^@^@q;}~k-i]{;,$0$;)-^kl3#w:00w:k#8#k#q647Oaa*`#l+(=n+{>+-+-+-@-q%A; ;`=f+f+V@k-B=c&y;^>#$Q%`=+$k+u=l.|@|&4.sb* `{* * * 6*w(w(Z<U%a*i+H#k+8.k+`=h.h.k-a+f.f.h.f.g.g.f.f.",
"!$llml2}6.`>(+v=E*C*Z>b@0@0@0@,2{#6>6>6>_ =.~/t]B.k!3#k!y&x+H%C)8@*.J*y@21')M$X634nl)|&@olpl<0$b^,qlrlslk-h./.[_tl'1$<01{9X,ulvlO>y|s{n)k,A|{1i,;|8~G6_^wlxlx9:%3'!*h!W&989+&%R@b.{.q%_@_@c&_@.,}~q;q;}~:@i)V%E[(,3@[#yln^'2zlwdI)t9C D'D#k Al>=Z#c.>2C-D;=@,>^; 82!.$*%}.}.Z#L=U@c&}~i;}@k+8.`=|.7*p*>)~;b-sb* `{* * * 6%i+b$a$i+*^X#f+8.<&Y@n]h.a+/.a+k-k-].h.f.g.f.f.",
"BlClA8<lZ@d*D*l%~+*$H+x:,29@0@B&,@^ %+p>6|c;/$W<j@w:x:'2^/V$^/x+U- @%aDli=3lEl;!>'FlG{C{y5=,:;g~Glv1B2:@k/.,p(/4W2N2S|3]HlI3:7_|IlJlG>~3Kl 5>|T'B>)|:+K](]z!H]($d X<`{E+5e98*92$&%~.:@^;Ll!;X;l-^@q;T!5hS@g+(,sb|$>)n^z:Mhj@p]_$P@s#s#]cMl@]8=b.p/Nld.F,]>L~'4-~L;P}n]A_7. $Z#:.udG@_@U@j.<@`@Z@2}j+;$>)0$Q[Olwgr]`{H]Mgb,Z9r,c%h+*%*%4$A;A;%%9}^.q;/@/@/./.].h.f.@$@$I=",
"PlLfj{U>u=^=0&1#.3:,I+p]6-6-!*p!G'( 3-3-'@o><%v%H*o^p]o^W+_ x&=.D'+.Ql+@*+z@F$w#1~RlW5i;g2e,e,o,E>&,Slh.4~:@^@D2Q7P2'|r<)9,|{|_|TlTle_UlVlVlWlXlYlZly7`lL]J]0[* a|{(U5[#9+'.'.s%b.e-:@^>Q!j)Q!R^J3e& m.m$>K&5.A*c%p*k!~kshW<W<a,q6s#s]o/D'+mj>@mZ!#mo+w~Y<D;=@v;);X!.$h'o<8.X!y;c&S;j;j;u=1.`#k+j+'$q+|@k]0,|@* I'r]m:`{H*Z<U%a$^}B_o]]hg7#$}@a.C=k-h.h.$m$mk/%m~7~7:k&m",
"*m=mA8`#}.}=g) 3`*^]i*RbD.D._$D.E)G$^)^).h-mk@x2(#a[oc(e( 2,B w@B ('g#p#E J$;m~-71Rl`8^!R~@<*b@<,'v6D2/.q;^@d+D2'3O2e/01(8B|L>b1((l|{1>:)6({z|Xj:[>m,m'm)m!ml:Kc*&c[&|:l8=j>j>8=7=b+U;]>~m~m{m]mz;_._._.p(}4Z2<=Y##*']RbklklMhp]-mL<i#i#W.^mji/m}lC'8}D;B;B;c-c-C-2!`=T*`=Y@n]U@^;$;(mW;]%7*./(%y*z*b-;%W*_mh]8$*&9gn!m::mm6;h%8%8i^<m#{Xhy8%i#{4&X=h.].X=X= #C=667;7;3>",
"[m}m|m1mb0J.9,U*E*;*|22m3m4m5m6m7mI68mU-c:J69m0mbezhbe2mambmcmdmem ^j&x@M@<*Z}fmT{/>9->!gmhmimjmkmlmmmnmompmqmrmsmtmumvmwmxmymr7zmAmBml|!9d1_|I3I3B8CmDm2/Em;^B&jg8<8<wd/8^8FmFm^8r:M;;7:.[.5=U;2=6^}!}!Q-m6T^g_V3_eRhifGmzlHmZhc;x&Y+Y+: Imp6B*%ij+!)JmKmLmMmNmKgOm&/T>PmQmRmc+[._@c&^;#{U>g72}y8DfSmTmUmUm[/e[v%v%O)C.VmWmXmYmZmXm/0`mn~s8 n.n+n@n#n$nc<O:%>g(g(g(7_7_"};
